(G-CODE GENERATED BY FLATCAM v8.993 - www.flatcam.org - Version Date: 2020/06/05)

(Name: 74hc595_Cont2_Ф1_верх.gbr_cutout_cnc)
(Type: G-code from Geometry)
(Units: MM)

(Created on Thursday, 25 November 2021 at 01:42)

(This preprocessor is the default preprocessor used by FlatCAM.)
(It is made to work with MACH3 compatible motion controllers.)

(TOOL DIAMETER: 2.0 mm)
(Feedrate_XY: 120.0 mm/min)
(Feedrate_Z: 70.0 mm/min)
(Feedrate rapids 1500.0 mm/min)

(Z_Cut: -1.7 mm)
(DepthPerCut: 0.1 mm <=>17 passes)
(Z_Move: 2.0 mm)
(Z Start: None mm)
(Z End: 25.0 mm)
(Steps per circle: 128)
(Preprocessor Geometry: default)

(X range:   -1.1044 ...   40.1976  mm)
(Y range:  -24.2949 ...    1.1071  mm)

(Spindle Speed: 10000 RPM)
G21
G90
G94



G01 F120.00
G00 Z2.0000

M03 S10000
G00 X39.0976 Y-24.2949
G01 F70.00
G01 Z-0.1000
G01 F120.00
G01 X-0.0044 Y-24.2949
G01 X-0.1122 Y-24.2896
G01 X-0.2190 Y-24.2738
G01 X-0.3237 Y-24.2475
G01 X-0.4254 Y-24.2112
G01 X-0.5229 Y-24.1650
G01 X-0.6155 Y-24.1095
G01 X-0.7022 Y-24.0452
G01 X-0.7822 Y-23.9727
G01 X-0.8547 Y-23.8927
G01 X-0.9190 Y-23.8060
G01 X-0.9745 Y-23.7134
G01 X-1.0207 Y-23.6159
G01 X-1.0570 Y-23.5142
G01 X-1.0833 Y-23.4095
G01 X-1.0991 Y-23.3027
G01 X-1.1044 Y-23.1949
G01 X-1.1044 Y0.0071
G01 X-1.0991 Y0.1149
G01 X-1.0833 Y0.2217
G01 X-1.0570 Y0.3264
G01 X-1.0207 Y0.4281
G01 X-0.9745 Y0.5256
G01 X-0.9190 Y0.6182
G01 X-0.8547 Y0.7049
G01 X-0.7822 Y0.7849
G01 X-0.7022 Y0.8574
G01 X-0.6155 Y0.9217
G01 X-0.5229 Y0.9772
G01 X-0.4254 Y1.0234
G01 X-0.3237 Y1.0597
G01 X-0.2190 Y1.0860
G01 X-0.1122 Y1.1018
G01 X-0.0044 Y1.1071
G01 X39.0976 Y1.1071
G01 X39.2054 Y1.1018
G01 X39.3122 Y1.0860
G01 X39.4169 Y1.0597
G01 X39.5186 Y1.0234
G01 X39.6161 Y0.9772
G01 X39.7087 Y0.9217
G01 X39.7954 Y0.8574
G01 X39.8754 Y0.7849
G01 X39.9479 Y0.7049
G01 X40.0122 Y0.6182
G01 X40.0677 Y0.5256
G01 X40.1139 Y0.4281
G01 X40.1502 Y0.3264
G01 X40.1765 Y0.2217
G01 X40.1923 Y0.1149
G01 X40.1976 Y0.0071
G01 X40.1976 Y-23.1949
G01 X40.1923 Y-23.3027
G01 X40.1765 Y-23.4095
G01 X40.1502 Y-23.5142
G01 X40.1139 Y-23.6159
G01 X40.0677 Y-23.7134
G01 X40.0122 Y-23.8060
G01 X39.9479 Y-23.8927
G01 X39.8754 Y-23.9727
G01 X39.7954 Y-24.0452
G01 X39.7087 Y-24.1095
G01 X39.6161 Y-24.1650
G01 X39.5186 Y-24.2112
G01 X39.4169 Y-24.2475
G01 X39.3122 Y-24.2738
G01 X39.2054 Y-24.2896
G01 X39.0976 Y-24.2949
G00 X39.0976 Y-24.2949
G01 F70.00
G01 Z-0.2000
G01 F120.00
G01 X39.2054 Y-24.2896
G01 X39.3122 Y-24.2738
G01 X39.4169 Y-24.2475
G01 X39.5186 Y-24.2112
G01 X39.6161 Y-24.1650
G01 X39.7087 Y-24.1095
G01 X39.7954 Y-24.0452
G01 X39.8754 Y-23.9727
G01 X39.9479 Y-23.8927
G01 X40.0122 Y-23.8060
G01 X40.0677 Y-23.7134
G01 X40.1139 Y-23.6159
G01 X40.1502 Y-23.5142
G01 X40.1765 Y-23.4095
G01 X40.1923 Y-23.3027
G01 X40.1976 Y-23.1949
G01 X40.1976 Y0.0071
G01 X40.1923 Y0.1149
G01 X40.1765 Y0.2217
G01 X40.1502 Y0.3264
G01 X40.1139 Y0.4281
G01 X40.0677 Y0.5256
G01 X40.0122 Y0.6182
G01 X39.9479 Y0.7049
G01 X39.8754 Y0.7849
G01 X39.7954 Y0.8574
G01 X39.7087 Y0.9217
G01 X39.6161 Y0.9772
G01 X39.5186 Y1.0234
G01 X39.4169 Y1.0597
G01 X39.3122 Y1.0860
G01 X39.2054 Y1.1018
G01 X39.0976 Y1.1071
G01 X-0.0044 Y1.1071
G01 X-0.1122 Y1.1018
G01 X-0.2190 Y1.0860
G01 X-0.3237 Y1.0597
G01 X-0.4254 Y1.0234
G01 X-0.5229 Y0.9772
G01 X-0.6155 Y0.9217
G01 X-0.7022 Y0.8574
G01 X-0.7822 Y0.7849
G01 X-0.8547 Y0.7049
G01 X-0.9190 Y0.6182
G01 X-0.9745 Y0.5256
G01 X-1.0207 Y0.4281
G01 X-1.0570 Y0.3264
G01 X-1.0833 Y0.2217
G01 X-1.0991 Y0.1149
G01 X-1.1044 Y0.0071
G01 X-1.1044 Y-23.1949
G01 X-1.0991 Y-23.3027
G01 X-1.0833 Y-23.4095
G01 X-1.0570 Y-23.5142
G01 X-1.0207 Y-23.6159
G01 X-0.9745 Y-23.7134
G01 X-0.9190 Y-23.8060
G01 X-0.8547 Y-23.8927
G01 X-0.7822 Y-23.9727
G01 X-0.7022 Y-24.0452
G01 X-0.6155 Y-24.1095
G01 X-0.5229 Y-24.1650
G01 X-0.4254 Y-24.2112
G01 X-0.3237 Y-24.2475
G01 X-0.2190 Y-24.2738
G01 X-0.1122 Y-24.2896
G01 X-0.0044 Y-24.2949
G01 X39.0976 Y-24.2949
G00 X39.0976 Y-24.2949
G01 F70.00
G01 Z-0.3000
G01 F120.00
G01 X-0.0044 Y-24.2949
G01 X-0.1122 Y-24.2896
G01 X-0.2190 Y-24.2738
G01 X-0.3237 Y-24.2475
G01 X-0.4254 Y-24.2112
G01 X-0.5229 Y-24.1650
G01 X-0.6155 Y-24.1095
G01 X-0.7022 Y-24.0452
G01 X-0.7822 Y-23.9727
G01 X-0.8547 Y-23.8927
G01 X-0.9190 Y-23.8060
G01 X-0.9745 Y-23.7134
G01 X-1.0207 Y-23.6159
G01 X-1.0570 Y-23.5142
G01 X-1.0833 Y-23.4095
G01 X-1.0991 Y-23.3027
G01 X-1.1044 Y-23.1949
G01 X-1.1044 Y0.0071
G01 X-1.0991 Y0.1149
G01 X-1.0833 Y0.2217
G01 X-1.0570 Y0.3264
G01 X-1.0207 Y0.4281
G01 X-0.9745 Y0.5256
G01 X-0.9190 Y0.6182
G01 X-0.8547 Y0.7049
G01 X-0.7822 Y0.7849
G01 X-0.7022 Y0.8574
G01 X-0.6155 Y0.9217
G01 X-0.5229 Y0.9772
G01 X-0.4254 Y1.0234
G01 X-0.3237 Y1.0597
G01 X-0.2190 Y1.0860
G01 X-0.1122 Y1.1018
G01 X-0.0044 Y1.1071
G01 X39.0976 Y1.1071
G01 X39.2054 Y1.1018
G01 X39.3122 Y1.0860
G01 X39.4169 Y1.0597
G01 X39.5186 Y1.0234
G01 X39.6161 Y0.9772
G01 X39.7087 Y0.9217
G01 X39.7954 Y0.8574
G01 X39.8754 Y0.7849
G01 X39.9479 Y0.7049
G01 X40.0122 Y0.6182
G01 X40.0677 Y0.5256
G01 X40.1139 Y0.4281
G01 X40.1502 Y0.3264
G01 X40.1765 Y0.2217
G01 X40.1923 Y0.1149
G01 X40.1976 Y0.0071
G01 X40.1976 Y-23.1949
G01 X40.1923 Y-23.3027
G01 X40.1765 Y-23.4095
G01 X40.1502 Y-23.5142
G01 X40.1139 Y-23.6159
G01 X40.0677 Y-23.7134
G01 X40.0122 Y-23.8060
G01 X39.9479 Y-23.8927
G01 X39.8754 Y-23.9727
G01 X39.7954 Y-24.0452
G01 X39.7087 Y-24.1095
G01 X39.6161 Y-24.1650
G01 X39.5186 Y-24.2112
G01 X39.4169 Y-24.2475
G01 X39.3122 Y-24.2738
G01 X39.2054 Y-24.2896
G01 X39.0976 Y-24.2949
G00 X39.0976 Y-24.2949
G01 F70.00
G01 Z-0.4000
G01 F120.00
G01 X39.2054 Y-24.2896
G01 X39.3122 Y-24.2738
G01 X39.4169 Y-24.2475
G01 X39.5186 Y-24.2112
G01 X39.6161 Y-24.1650
G01 X39.7087 Y-24.1095
G01 X39.7954 Y-24.0452
G01 X39.8754 Y-23.9727
G01 X39.9479 Y-23.8927
G01 X40.0122 Y-23.8060
G01 X40.0677 Y-23.7134
G01 X40.1139 Y-23.6159
G01 X40.1502 Y-23.5142
G01 X40.1765 Y-23.4095
G01 X40.1923 Y-23.3027
G01 X40.1976 Y-23.1949
G01 X40.1976 Y0.0071
G01 X40.1923 Y0.1149
G01 X40.1765 Y0.2217
G01 X40.1502 Y0.3264
G01 X40.1139 Y0.4281
G01 X40.0677 Y0.5256
G01 X40.0122 Y0.6182
G01 X39.9479 Y0.7049
G01 X39.8754 Y0.7849
G01 X39.7954 Y0.8574
G01 X39.7087 Y0.9217
G01 X39.6161 Y0.9772
G01 X39.5186 Y1.0234
G01 X39.4169 Y1.0597
G01 X39.3122 Y1.0860
G01 X39.2054 Y1.1018
G01 X39.0976 Y1.1071
G01 X-0.0044 Y1.1071
G01 X-0.1122 Y1.1018
G01 X-0.2190 Y1.0860
G01 X-0.3237 Y1.0597
G01 X-0.4254 Y1.0234
G01 X-0.5229 Y0.9772
G01 X-0.6155 Y0.9217
G01 X-0.7022 Y0.8574
G01 X-0.7822 Y0.7849
G01 X-0.8547 Y0.7049
G01 X-0.9190 Y0.6182
G01 X-0.9745 Y0.5256
G01 X-1.0207 Y0.4281
G01 X-1.0570 Y0.3264
G01 X-1.0833 Y0.2217
G01 X-1.0991 Y0.1149
G01 X-1.1044 Y0.0071
G01 X-1.1044 Y-23.1949
G01 X-1.0991 Y-23.3027
G01 X-1.0833 Y-23.4095
G01 X-1.0570 Y-23.5142
G01 X-1.0207 Y-23.6159
G01 X-0.9745 Y-23.7134
G01 X-0.9190 Y-23.8060
G01 X-0.8547 Y-23.8927
G01 X-0.7822 Y-23.9727
G01 X-0.7022 Y-24.0452
G01 X-0.6155 Y-24.1095
G01 X-0.5229 Y-24.1650
G01 X-0.4254 Y-24.2112
G01 X-0.3237 Y-24.2475
G01 X-0.2190 Y-24.2738
G01 X-0.1122 Y-24.2896
G01 X-0.0044 Y-24.2949
G01 X39.0976 Y-24.2949
G00 X39.0976 Y-24.2949
G01 F70.00
G01 Z-0.5000
G01 F120.00
G01 X-0.0044 Y-24.2949
G01 X-0.1122 Y-24.2896
G01 X-0.2190 Y-24.2738
G01 X-0.3237 Y-24.2475
G01 X-0.4254 Y-24.2112
G01 X-0.5229 Y-24.1650
G01 X-0.6155 Y-24.1095
G01 X-0.7022 Y-24.0452
G01 X-0.7822 Y-23.9727
G01 X-0.8547 Y-23.8927
G01 X-0.9190 Y-23.8060
G01 X-0.9745 Y-23.7134
G01 X-1.0207 Y-23.6159
G01 X-1.0570 Y-23.5142
G01 X-1.0833 Y-23.4095
G01 X-1.0991 Y-23.3027
G01 X-1.1044 Y-23.1949
G01 X-1.1044 Y0.0071
G01 X-1.0991 Y0.1149
G01 X-1.0833 Y0.2217
G01 X-1.0570 Y0.3264
G01 X-1.0207 Y0.4281
G01 X-0.9745 Y0.5256
G01 X-0.9190 Y0.6182
G01 X-0.8547 Y0.7049
G01 X-0.7822 Y0.7849
G01 X-0.7022 Y0.8574
G01 X-0.6155 Y0.9217
G01 X-0.5229 Y0.9772
G01 X-0.4254 Y1.0234
G01 X-0.3237 Y1.0597
G01 X-0.2190 Y1.0860
G01 X-0.1122 Y1.1018
G01 X-0.0044 Y1.1071
G01 X39.0976 Y1.1071
G01 X39.2054 Y1.1018
G01 X39.3122 Y1.0860
G01 X39.4169 Y1.0597
G01 X39.5186 Y1.0234
G01 X39.6161 Y0.9772
G01 X39.7087 Y0.9217
G01 X39.7954 Y0.8574
G01 X39.8754 Y0.7849
G01 X39.9479 Y0.7049
G01 X40.0122 Y0.6182
G01 X40.0677 Y0.5256
G01 X40.1139 Y0.4281
G01 X40.1502 Y0.3264
G01 X40.1765 Y0.2217
G01 X40.1923 Y0.1149
G01 X40.1976 Y0.0071
G01 X40.1976 Y-23.1949
G01 X40.1923 Y-23.3027
G01 X40.1765 Y-23.4095
G01 X40.1502 Y-23.5142
G01 X40.1139 Y-23.6159
G01 X40.0677 Y-23.7134
G01 X40.0122 Y-23.8060
G01 X39.9479 Y-23.8927
G01 X39.8754 Y-23.9727
G01 X39.7954 Y-24.0452
G01 X39.7087 Y-24.1095
G01 X39.6161 Y-24.1650
G01 X39.5186 Y-24.2112
G01 X39.4169 Y-24.2475
G01 X39.3122 Y-24.2738
G01 X39.2054 Y-24.2896
G01 X39.0976 Y-24.2949
G00 X39.0976 Y-24.2949
G01 F70.00
G01 Z-0.6000
G01 F120.00
G01 X39.2054 Y-24.2896
G01 X39.3122 Y-24.2738
G01 X39.4169 Y-24.2475
G01 X39.5186 Y-24.2112
G01 X39.6161 Y-24.1650
G01 X39.7087 Y-24.1095
G01 X39.7954 Y-24.0452
G01 X39.8754 Y-23.9727
G01 X39.9479 Y-23.8927
G01 X40.0122 Y-23.8060
G01 X40.0677 Y-23.7134
G01 X40.1139 Y-23.6159
G01 X40.1502 Y-23.5142
G01 X40.1765 Y-23.4095
G01 X40.1923 Y-23.3027
G01 X40.1976 Y-23.1949
G01 X40.1976 Y0.0071
G01 X40.1923 Y0.1149
G01 X40.1765 Y0.2217
G01 X40.1502 Y0.3264
G01 X40.1139 Y0.4281
G01 X40.0677 Y0.5256
G01 X40.0122 Y0.6182
G01 X39.9479 Y0.7049
G01 X39.8754 Y0.7849
G01 X39.7954 Y0.8574
G01 X39.7087 Y0.9217
G01 X39.6161 Y0.9772
G01 X39.5186 Y1.0234
G01 X39.4169 Y1.0597
G01 X39.3122 Y1.0860
G01 X39.2054 Y1.1018
G01 X39.0976 Y1.1071
G01 X-0.0044 Y1.1071
G01 X-0.1122 Y1.1018
G01 X-0.2190 Y1.0860
G01 X-0.3237 Y1.0597
G01 X-0.4254 Y1.0234
G01 X-0.5229 Y0.9772
G01 X-0.6155 Y0.9217
G01 X-0.7022 Y0.8574
G01 X-0.7822 Y0.7849
G01 X-0.8547 Y0.7049
G01 X-0.9190 Y0.6182
G01 X-0.9745 Y0.5256
G01 X-1.0207 Y0.4281
G01 X-1.0570 Y0.3264
G01 X-1.0833 Y0.2217
G01 X-1.0991 Y0.1149
G01 X-1.1044 Y0.0071
G01 X-1.1044 Y-23.1949
G01 X-1.0991 Y-23.3027
G01 X-1.0833 Y-23.4095
G01 X-1.0570 Y-23.5142
G01 X-1.0207 Y-23.6159
G01 X-0.9745 Y-23.7134
G01 X-0.9190 Y-23.8060
G01 X-0.8547 Y-23.8927
G01 X-0.7822 Y-23.9727
G01 X-0.7022 Y-24.0452
G01 X-0.6155 Y-24.1095
G01 X-0.5229 Y-24.1650
G01 X-0.4254 Y-24.2112
G01 X-0.3237 Y-24.2475
G01 X-0.2190 Y-24.2738
G01 X-0.1122 Y-24.2896
G01 X-0.0044 Y-24.2949
G01 X39.0976 Y-24.2949
G00 X39.0976 Y-24.2949
G01 F70.00
G01 Z-0.7000
G01 F120.00
G01 X-0.0044 Y-24.2949
G01 X-0.1122 Y-24.2896
G01 X-0.2190 Y-24.2738
G01 X-0.3237 Y-24.2475
G01 X-0.4254 Y-24.2112
G01 X-0.5229 Y-24.1650
G01 X-0.6155 Y-24.1095
G01 X-0.7022 Y-24.0452
G01 X-0.7822 Y-23.9727
G01 X-0.8547 Y-23.8927
G01 X-0.9190 Y-23.8060
G01 X-0.9745 Y-23.7134
G01 X-1.0207 Y-23.6159
G01 X-1.0570 Y-23.5142
G01 X-1.0833 Y-23.4095
G01 X-1.0991 Y-23.3027
G01 X-1.1044 Y-23.1949
G01 X-1.1044 Y0.0071
G01 X-1.0991 Y0.1149
G01 X-1.0833 Y0.2217
G01 X-1.0570 Y0.3264
G01 X-1.0207 Y0.4281
G01 X-0.9745 Y0.5256
G01 X-0.9190 Y0.6182
G01 X-0.8547 Y0.7049
G01 X-0.7822 Y0.7849
G01 X-0.7022 Y0.8574
G01 X-0.6155 Y0.9217
G01 X-0.5229 Y0.9772
G01 X-0.4254 Y1.0234
G01 X-0.3237 Y1.0597
G01 X-0.2190 Y1.0860
G01 X-0.1122 Y1.1018
G01 X-0.0044 Y1.1071
G01 X39.0976 Y1.1071
G01 X39.2054 Y1.1018
G01 X39.3122 Y1.0860
G01 X39.4169 Y1.0597
G01 X39.5186 Y1.0234
G01 X39.6161 Y0.9772
G01 X39.7087 Y0.9217
G01 X39.7954 Y0.8574
G01 X39.8754 Y0.7849
G01 X39.9479 Y0.7049
G01 X40.0122 Y0.6182
G01 X40.0677 Y0.5256
G01 X40.1139 Y0.4281
G01 X40.1502 Y0.3264
G01 X40.1765 Y0.2217
G01 X40.1923 Y0.1149
G01 X40.1976 Y0.0071
G01 X40.1976 Y-23.1949
G01 X40.1923 Y-23.3027
G01 X40.1765 Y-23.4095
G01 X40.1502 Y-23.5142
G01 X40.1139 Y-23.6159
G01 X40.0677 Y-23.7134
G01 X40.0122 Y-23.8060
G01 X39.9479 Y-23.8927
G01 X39.8754 Y-23.9727
G01 X39.7954 Y-24.0452
G01 X39.7087 Y-24.1095
G01 X39.6161 Y-24.1650
G01 X39.5186 Y-24.2112
G01 X39.4169 Y-24.2475
G01 X39.3122 Y-24.2738
G01 X39.2054 Y-24.2896
G01 X39.0976 Y-24.2949
G00 X39.0976 Y-24.2949
G01 F70.00
G01 Z-0.8000
G01 F120.00
G01 X39.2054 Y-24.2896
G01 X39.3122 Y-24.2738
G01 X39.4169 Y-24.2475
G01 X39.5186 Y-24.2112
G01 X39.6161 Y-24.1650
G01 X39.7087 Y-24.1095
G01 X39.7954 Y-24.0452
G01 X39.8754 Y-23.9727
G01 X39.9479 Y-23.8927
G01 X40.0122 Y-23.8060
G01 X40.0677 Y-23.7134
G01 X40.1139 Y-23.6159
G01 X40.1502 Y-23.5142
G01 X40.1765 Y-23.4095
G01 X40.1923 Y-23.3027
G01 X40.1976 Y-23.1949
G01 X40.1976 Y0.0071
G01 X40.1923 Y0.1149
G01 X40.1765 Y0.2217
G01 X40.1502 Y0.3264
G01 X40.1139 Y0.4281
G01 X40.0677 Y0.5256
G01 X40.0122 Y0.6182
G01 X39.9479 Y0.7049
G01 X39.8754 Y0.7849
G01 X39.7954 Y0.8574
G01 X39.7087 Y0.9217
G01 X39.6161 Y0.9772
G01 X39.5186 Y1.0234
G01 X39.4169 Y1.0597
G01 X39.3122 Y1.0860
G01 X39.2054 Y1.1018
G01 X39.0976 Y1.1071
G01 X-0.0044 Y1.1071
G01 X-0.1122 Y1.1018
G01 X-0.2190 Y1.0860
G01 X-0.3237 Y1.0597
G01 X-0.4254 Y1.0234
G01 X-0.5229 Y0.9772
G01 X-0.6155 Y0.9217
G01 X-0.7022 Y0.8574
G01 X-0.7822 Y0.7849
G01 X-0.8547 Y0.7049
G01 X-0.9190 Y0.6182
G01 X-0.9745 Y0.5256
G01 X-1.0207 Y0.4281
G01 X-1.0570 Y0.3264
G01 X-1.0833 Y0.2217
G01 X-1.0991 Y0.1149
G01 X-1.1044 Y0.0071
G01 X-1.1044 Y-23.1949
G01 X-1.0991 Y-23.3027
G01 X-1.0833 Y-23.4095
G01 X-1.0570 Y-23.5142
G01 X-1.0207 Y-23.6159
G01 X-0.9745 Y-23.7134
G01 X-0.9190 Y-23.8060
G01 X-0.8547 Y-23.8927
G01 X-0.7822 Y-23.9727
G01 X-0.7022 Y-24.0452
G01 X-0.6155 Y-24.1095
G01 X-0.5229 Y-24.1650
G01 X-0.4254 Y-24.2112
G01 X-0.3237 Y-24.2475
G01 X-0.2190 Y-24.2738
G01 X-0.1122 Y-24.2896
G01 X-0.0044 Y-24.2949
G01 X39.0976 Y-24.2949
G00 X39.0976 Y-24.2949
G01 F70.00
G01 Z-0.9000
G01 F120.00
G01 X-0.0044 Y-24.2949
G01 X-0.1122 Y-24.2896
G01 X-0.2190 Y-24.2738
G01 X-0.3237 Y-24.2475
G01 X-0.4254 Y-24.2112
G01 X-0.5229 Y-24.1650
G01 X-0.6155 Y-24.1095
G01 X-0.7022 Y-24.0452
G01 X-0.7822 Y-23.9727
G01 X-0.8547 Y-23.8927
G01 X-0.9190 Y-23.8060
G01 X-0.9745 Y-23.7134
G01 X-1.0207 Y-23.6159
G01 X-1.0570 Y-23.5142
G01 X-1.0833 Y-23.4095
G01 X-1.0991 Y-23.3027
G01 X-1.1044 Y-23.1949
G01 X-1.1044 Y0.0071
G01 X-1.0991 Y0.1149
G01 X-1.0833 Y0.2217
G01 X-1.0570 Y0.3264
G01 X-1.0207 Y0.4281
G01 X-0.9745 Y0.5256
G01 X-0.9190 Y0.6182
G01 X-0.8547 Y0.7049
G01 X-0.7822 Y0.7849
G01 X-0.7022 Y0.8574
G01 X-0.6155 Y0.9217
G01 X-0.5229 Y0.9772
G01 X-0.4254 Y1.0234
G01 X-0.3237 Y1.0597
G01 X-0.2190 Y1.0860
G01 X-0.1122 Y1.1018
G01 X-0.0044 Y1.1071
G01 X39.0976 Y1.1071
G01 X39.2054 Y1.1018
G01 X39.3122 Y1.0860
G01 X39.4169 Y1.0597
G01 X39.5186 Y1.0234
G01 X39.6161 Y0.9772
G01 X39.7087 Y0.9217
G01 X39.7954 Y0.8574
G01 X39.8754 Y0.7849
G01 X39.9479 Y0.7049
G01 X40.0122 Y0.6182
G01 X40.0677 Y0.5256
G01 X40.1139 Y0.4281
G01 X40.1502 Y0.3264
G01 X40.1765 Y0.2217
G01 X40.1923 Y0.1149
G01 X40.1976 Y0.0071
G01 X40.1976 Y-23.1949
G01 X40.1923 Y-23.3027
G01 X40.1765 Y-23.4095
G01 X40.1502 Y-23.5142
G01 X40.1139 Y-23.6159
G01 X40.0677 Y-23.7134
G01 X40.0122 Y-23.8060
G01 X39.9479 Y-23.8927
G01 X39.8754 Y-23.9727
G01 X39.7954 Y-24.0452
G01 X39.7087 Y-24.1095
G01 X39.6161 Y-24.1650
G01 X39.5186 Y-24.2112
G01 X39.4169 Y-24.2475
G01 X39.3122 Y-24.2738
G01 X39.2054 Y-24.2896
G01 X39.0976 Y-24.2949
G00 X39.0976 Y-24.2949
G01 F70.00
G01 Z-1.0000
G01 F120.00
G01 X39.2054 Y-24.2896
G01 X39.3122 Y-24.2738
G01 X39.4169 Y-24.2475
G01 X39.5186 Y-24.2112
G01 X39.6161 Y-24.1650
G01 X39.7087 Y-24.1095
G01 X39.7954 Y-24.0452
G01 X39.8754 Y-23.9727
G01 X39.9479 Y-23.8927
G01 X40.0122 Y-23.8060
G01 X40.0677 Y-23.7134
G01 X40.1139 Y-23.6159
G01 X40.1502 Y-23.5142
G01 X40.1765 Y-23.4095
G01 X40.1923 Y-23.3027
G01 X40.1976 Y-23.1949
G01 X40.1976 Y0.0071
G01 X40.1923 Y0.1149
G01 X40.1765 Y0.2217
G01 X40.1502 Y0.3264
G01 X40.1139 Y0.4281
G01 X40.0677 Y0.5256
G01 X40.0122 Y0.6182
G01 X39.9479 Y0.7049
G01 X39.8754 Y0.7849
G01 X39.7954 Y0.8574
G01 X39.7087 Y0.9217
G01 X39.6161 Y0.9772
G01 X39.5186 Y1.0234
G01 X39.4169 Y1.0597
G01 X39.3122 Y1.0860
G01 X39.2054 Y1.1018
G01 X39.0976 Y1.1071
G01 X-0.0044 Y1.1071
G01 X-0.1122 Y1.1018
G01 X-0.2190 Y1.0860
G01 X-0.3237 Y1.0597
G01 X-0.4254 Y1.0234
G01 X-0.5229 Y0.9772
G01 X-0.6155 Y0.9217
G01 X-0.7022 Y0.8574
G01 X-0.7822 Y0.7849
G01 X-0.8547 Y0.7049
G01 X-0.9190 Y0.6182
G01 X-0.9745 Y0.5256
G01 X-1.0207 Y0.4281
G01 X-1.0570 Y0.3264
G01 X-1.0833 Y0.2217
G01 X-1.0991 Y0.1149
G01 X-1.1044 Y0.0071
G01 X-1.1044 Y-23.1949
G01 X-1.0991 Y-23.3027
G01 X-1.0833 Y-23.4095
G01 X-1.0570 Y-23.5142
G01 X-1.0207 Y-23.6159
G01 X-0.9745 Y-23.7134
G01 X-0.9190 Y-23.8060
G01 X-0.8547 Y-23.8927
G01 X-0.7822 Y-23.9727
G01 X-0.7022 Y-24.0452
G01 X-0.6155 Y-24.1095
G01 X-0.5229 Y-24.1650
G01 X-0.4254 Y-24.2112
G01 X-0.3237 Y-24.2475
G01 X-0.2190 Y-24.2738
G01 X-0.1122 Y-24.2896
G01 X-0.0044 Y-24.2949
G01 X39.0976 Y-24.2949
G00 X39.0976 Y-24.2949
G01 F70.00
G01 Z-1.1000
G01 F120.00
G01 X-0.0044 Y-24.2949
G01 X-0.1122 Y-24.2896
G01 X-0.2190 Y-24.2738
G01 X-0.3237 Y-24.2475
G01 X-0.4254 Y-24.2112
G01 X-0.5229 Y-24.1650
G01 X-0.6155 Y-24.1095
G01 X-0.7022 Y-24.0452
G01 X-0.7822 Y-23.9727
G01 X-0.8547 Y-23.8927
G01 X-0.9190 Y-23.8060
G01 X-0.9745 Y-23.7134
G01 X-1.0207 Y-23.6159
G01 X-1.0570 Y-23.5142
G01 X-1.0833 Y-23.4095
G01 X-1.0991 Y-23.3027
G01 X-1.1044 Y-23.1949
G01 X-1.1044 Y0.0071
G01 X-1.0991 Y0.1149
G01 X-1.0833 Y0.2217
G01 X-1.0570 Y0.3264
G01 X-1.0207 Y0.4281
G01 X-0.9745 Y0.5256
G01 X-0.9190 Y0.6182
G01 X-0.8547 Y0.7049
G01 X-0.7822 Y0.7849
G01 X-0.7022 Y0.8574
G01 X-0.6155 Y0.9217
G01 X-0.5229 Y0.9772
G01 X-0.4254 Y1.0234
G01 X-0.3237 Y1.0597
G01 X-0.2190 Y1.0860
G01 X-0.1122 Y1.1018
G01 X-0.0044 Y1.1071
G01 X39.0976 Y1.1071
G01 X39.2054 Y1.1018
G01 X39.3122 Y1.0860
G01 X39.4169 Y1.0597
G01 X39.5186 Y1.0234
G01 X39.6161 Y0.9772
G01 X39.7087 Y0.9217
G01 X39.7954 Y0.8574
G01 X39.8754 Y0.7849
G01 X39.9479 Y0.7049
G01 X40.0122 Y0.6182
G01 X40.0677 Y0.5256
G01 X40.1139 Y0.4281
G01 X40.1502 Y0.3264
G01 X40.1765 Y0.2217
G01 X40.1923 Y0.1149
G01 X40.1976 Y0.0071
G01 X40.1976 Y-23.1949
G01 X40.1923 Y-23.3027
G01 X40.1765 Y-23.4095
G01 X40.1502 Y-23.5142
G01 X40.1139 Y-23.6159
G01 X40.0677 Y-23.7134
G01 X40.0122 Y-23.8060
G01 X39.9479 Y-23.8927
G01 X39.8754 Y-23.9727
G01 X39.7954 Y-24.0452
G01 X39.7087 Y-24.1095
G01 X39.6161 Y-24.1650
G01 X39.5186 Y-24.2112
G01 X39.4169 Y-24.2475
G01 X39.3122 Y-24.2738
G01 X39.2054 Y-24.2896
G01 X39.0976 Y-24.2949
G00 X39.0976 Y-24.2949
G01 F70.00
G01 Z-1.2000
G01 F120.00
G01 X39.2054 Y-24.2896
G01 X39.3122 Y-24.2738
G01 X39.4169 Y-24.2475
G01 X39.5186 Y-24.2112
G01 X39.6161 Y-24.1650
G01 X39.7087 Y-24.1095
G01 X39.7954 Y-24.0452
G01 X39.8754 Y-23.9727
G01 X39.9479 Y-23.8927
G01 X40.0122 Y-23.8060
G01 X40.0677 Y-23.7134
G01 X40.1139 Y-23.6159
G01 X40.1502 Y-23.5142
G01 X40.1765 Y-23.4095
G01 X40.1923 Y-23.3027
G01 X40.1976 Y-23.1949
G01 X40.1976 Y0.0071
G01 X40.1923 Y0.1149
G01 X40.1765 Y0.2217
G01 X40.1502 Y0.3264
G01 X40.1139 Y0.4281
G01 X40.0677 Y0.5256
G01 X40.0122 Y0.6182
G01 X39.9479 Y0.7049
G01 X39.8754 Y0.7849
G01 X39.7954 Y0.8574
G01 X39.7087 Y0.9217
G01 X39.6161 Y0.9772
G01 X39.5186 Y1.0234
G01 X39.4169 Y1.0597
G01 X39.3122 Y1.0860
G01 X39.2054 Y1.1018
G01 X39.0976 Y1.1071
G01 X-0.0044 Y1.1071
G01 X-0.1122 Y1.1018
G01 X-0.2190 Y1.0860
G01 X-0.3237 Y1.0597
G01 X-0.4254 Y1.0234
G01 X-0.5229 Y0.9772
G01 X-0.6155 Y0.9217
G01 X-0.7022 Y0.8574
G01 X-0.7822 Y0.7849
G01 X-0.8547 Y0.7049
G01 X-0.9190 Y0.6182
G01 X-0.9745 Y0.5256
G01 X-1.0207 Y0.4281
G01 X-1.0570 Y0.3264
G01 X-1.0833 Y0.2217
G01 X-1.0991 Y0.1149
G01 X-1.1044 Y0.0071
G01 X-1.1044 Y-23.1949
G01 X-1.0991 Y-23.3027
G01 X-1.0833 Y-23.4095
G01 X-1.0570 Y-23.5142
G01 X-1.0207 Y-23.6159
G01 X-0.9745 Y-23.7134
G01 X-0.9190 Y-23.8060
G01 X-0.8547 Y-23.8927
G01 X-0.7822 Y-23.9727
G01 X-0.7022 Y-24.0452
G01 X-0.6155 Y-24.1095
G01 X-0.5229 Y-24.1650
G01 X-0.4254 Y-24.2112
G01 X-0.3237 Y-24.2475
G01 X-0.2190 Y-24.2738
G01 X-0.1122 Y-24.2896
G01 X-0.0044 Y-24.2949
G01 X39.0976 Y-24.2949
G00 X39.0976 Y-24.2949
G01 F70.00
G01 Z-1.3000
G01 F120.00
G01 X-0.0044 Y-24.2949
G01 X-0.1122 Y-24.2896
G01 X-0.2190 Y-24.2738
G01 X-0.3237 Y-24.2475
G01 X-0.4254 Y-24.2112
G01 X-0.5229 Y-24.1650
G01 X-0.6155 Y-24.1095
G01 X-0.7022 Y-24.0452
G01 X-0.7822 Y-23.9727
G01 X-0.8547 Y-23.8927
G01 X-0.9190 Y-23.8060
G01 X-0.9745 Y-23.7134
G01 X-1.0207 Y-23.6159
G01 X-1.0570 Y-23.5142
G01 X-1.0833 Y-23.4095
G01 X-1.0991 Y-23.3027
G01 X-1.1044 Y-23.1949
G01 X-1.1044 Y0.0071
G01 X-1.0991 Y0.1149
G01 X-1.0833 Y0.2217
G01 X-1.0570 Y0.3264
G01 X-1.0207 Y0.4281
G01 X-0.9745 Y0.5256
G01 X-0.9190 Y0.6182
G01 X-0.8547 Y0.7049
G01 X-0.7822 Y0.7849
G01 X-0.7022 Y0.8574
G01 X-0.6155 Y0.9217
G01 X-0.5229 Y0.9772
G01 X-0.4254 Y1.0234
G01 X-0.3237 Y1.0597
G01 X-0.2190 Y1.0860
G01 X-0.1122 Y1.1018
G01 X-0.0044 Y1.1071
G01 X39.0976 Y1.1071
G01 X39.2054 Y1.1018
G01 X39.3122 Y1.0860
G01 X39.4169 Y1.0597
G01 X39.5186 Y1.0234
G01 X39.6161 Y0.9772
G01 X39.7087 Y0.9217
G01 X39.7954 Y0.8574
G01 X39.8754 Y0.7849
G01 X39.9479 Y0.7049
G01 X40.0122 Y0.6182
G01 X40.0677 Y0.5256
G01 X40.1139 Y0.4281
G01 X40.1502 Y0.3264
G01 X40.1765 Y0.2217
G01 X40.1923 Y0.1149
G01 X40.1976 Y0.0071
G01 X40.1976 Y-23.1949
G01 X40.1923 Y-23.3027
G01 X40.1765 Y-23.4095
G01 X40.1502 Y-23.5142
G01 X40.1139 Y-23.6159
G01 X40.0677 Y-23.7134
G01 X40.0122 Y-23.8060
G01 X39.9479 Y-23.8927
G01 X39.8754 Y-23.9727
G01 X39.7954 Y-24.0452
G01 X39.7087 Y-24.1095
G01 X39.6161 Y-24.1650
G01 X39.5186 Y-24.2112
G01 X39.4169 Y-24.2475
G01 X39.3122 Y-24.2738
G01 X39.2054 Y-24.2896
G01 X39.0976 Y-24.2949
G00 X39.0976 Y-24.2949
G01 F70.00
G01 Z-1.4000
G01 F120.00
G01 X39.2054 Y-24.2896
G01 X39.3122 Y-24.2738
G01 X39.4169 Y-24.2475
G01 X39.5186 Y-24.2112
G01 X39.6161 Y-24.1650
G01 X39.7087 Y-24.1095
G01 X39.7954 Y-24.0452
G01 X39.8754 Y-23.9727
G01 X39.9479 Y-23.8927
G01 X40.0122 Y-23.8060
G01 X40.0677 Y-23.7134
G01 X40.1139 Y-23.6159
G01 X40.1502 Y-23.5142
G01 X40.1765 Y-23.4095
G01 X40.1923 Y-23.3027
G01 X40.1976 Y-23.1949
G01 X40.1976 Y0.0071
G01 X40.1923 Y0.1149
G01 X40.1765 Y0.2217
G01 X40.1502 Y0.3264
G01 X40.1139 Y0.4281
G01 X40.0677 Y0.5256
G01 X40.0122 Y0.6182
G01 X39.9479 Y0.7049
G01 X39.8754 Y0.7849
G01 X39.7954 Y0.8574
G01 X39.7087 Y0.9217
G01 X39.6161 Y0.9772
G01 X39.5186 Y1.0234
G01 X39.4169 Y1.0597
G01 X39.3122 Y1.0860
G01 X39.2054 Y1.1018
G01 X39.0976 Y1.1071
G01 X-0.0044 Y1.1071
G01 X-0.1122 Y1.1018
G01 X-0.2190 Y1.0860
G01 X-0.3237 Y1.0597
G01 X-0.4254 Y1.0234
G01 X-0.5229 Y0.9772
G01 X-0.6155 Y0.9217
G01 X-0.7022 Y0.8574
G01 X-0.7822 Y0.7849
G01 X-0.8547 Y0.7049
G01 X-0.9190 Y0.6182
G01 X-0.9745 Y0.5256
G01 X-1.0207 Y0.4281
G01 X-1.0570 Y0.3264
G01 X-1.0833 Y0.2217
G01 X-1.0991 Y0.1149
G01 X-1.1044 Y0.0071
G01 X-1.1044 Y-23.1949
G01 X-1.0991 Y-23.3027
G01 X-1.0833 Y-23.4095
G01 X-1.0570 Y-23.5142
G01 X-1.0207 Y-23.6159
G01 X-0.9745 Y-23.7134
G01 X-0.9190 Y-23.8060
G01 X-0.8547 Y-23.8927
G01 X-0.7822 Y-23.9727
G01 X-0.7022 Y-24.0452
G01 X-0.6155 Y-24.1095
G01 X-0.5229 Y-24.1650
G01 X-0.4254 Y-24.2112
G01 X-0.3237 Y-24.2475
G01 X-0.2190 Y-24.2738
G01 X-0.1122 Y-24.2896
G01 X-0.0044 Y-24.2949
G01 X39.0976 Y-24.2949
G00 X39.0976 Y-24.2949
G01 F70.00
G01 Z-1.5000
G01 F120.00
G01 X-0.0044 Y-24.2949
G01 X-0.1122 Y-24.2896
G01 X-0.2190 Y-24.2738
G01 X-0.3237 Y-24.2475
G01 X-0.4254 Y-24.2112
G01 X-0.5229 Y-24.1650
G01 X-0.6155 Y-24.1095
G01 X-0.7022 Y-24.0452
G01 X-0.7822 Y-23.9727
G01 X-0.8547 Y-23.8927
G01 X-0.9190 Y-23.8060
G01 X-0.9745 Y-23.7134
G01 X-1.0207 Y-23.6159
G01 X-1.0570 Y-23.5142
G01 X-1.0833 Y-23.4095
G01 X-1.0991 Y-23.3027
G01 X-1.1044 Y-23.1949
G01 X-1.1044 Y0.0071
G01 X-1.0991 Y0.1149
G01 X-1.0833 Y0.2217
G01 X-1.0570 Y0.3264
G01 X-1.0207 Y0.4281
G01 X-0.9745 Y0.5256
G01 X-0.9190 Y0.6182
G01 X-0.8547 Y0.7049
G01 X-0.7822 Y0.7849
G01 X-0.7022 Y0.8574
G01 X-0.6155 Y0.9217
G01 X-0.5229 Y0.9772
G01 X-0.4254 Y1.0234
G01 X-0.3237 Y1.0597
G01 X-0.2190 Y1.0860
G01 X-0.1122 Y1.1018
G01 X-0.0044 Y1.1071
G01 X39.0976 Y1.1071
G01 X39.2054 Y1.1018
G01 X39.3122 Y1.0860
G01 X39.4169 Y1.0597
G01 X39.5186 Y1.0234
G01 X39.6161 Y0.9772
G01 X39.7087 Y0.9217
G01 X39.7954 Y0.8574
G01 X39.8754 Y0.7849
G01 X39.9479 Y0.7049
G01 X40.0122 Y0.6182
G01 X40.0677 Y0.5256
G01 X40.1139 Y0.4281
G01 X40.1502 Y0.3264
G01 X40.1765 Y0.2217
G01 X40.1923 Y0.1149
G01 X40.1976 Y0.0071
G01 X40.1976 Y-23.1949
G01 X40.1923 Y-23.3027
G01 X40.1765 Y-23.4095
G01 X40.1502 Y-23.5142
G01 X40.1139 Y-23.6159
G01 X40.0677 Y-23.7134
G01 X40.0122 Y-23.8060
G01 X39.9479 Y-23.8927
G01 X39.8754 Y-23.9727
G01 X39.7954 Y-24.0452
G01 X39.7087 Y-24.1095
G01 X39.6161 Y-24.1650
G01 X39.5186 Y-24.2112
G01 X39.4169 Y-24.2475
G01 X39.3122 Y-24.2738
G01 X39.2054 Y-24.2896
G01 X39.0976 Y-24.2949
G00 X39.0976 Y-24.2949
G01 F70.00
G01 Z-1.6000
G01 F120.00
G01 X39.2054 Y-24.2896
G01 X39.3122 Y-24.2738
G01 X39.4169 Y-24.2475
G01 X39.5186 Y-24.2112
G01 X39.6161 Y-24.1650
G01 X39.7087 Y-24.1095
G01 X39.7954 Y-24.0452
G01 X39.8754 Y-23.9727
G01 X39.9479 Y-23.8927
G01 X40.0122 Y-23.8060
G01 X40.0677 Y-23.7134
G01 X40.1139 Y-23.6159
G01 X40.1502 Y-23.5142
G01 X40.1765 Y-23.4095
G01 X40.1923 Y-23.3027
G01 X40.1976 Y-23.1949
G01 X40.1976 Y0.0071
G01 X40.1923 Y0.1149
G01 X40.1765 Y0.2217
G01 X40.1502 Y0.3264
G01 X40.1139 Y0.4281
G01 X40.0677 Y0.5256
G01 X40.0122 Y0.6182
G01 X39.9479 Y0.7049
G01 X39.8754 Y0.7849
G01 X39.7954 Y0.8574
G01 X39.7087 Y0.9217
G01 X39.6161 Y0.9772
G01 X39.5186 Y1.0234
G01 X39.4169 Y1.0597
G01 X39.3122 Y1.0860
G01 X39.2054 Y1.1018
G01 X39.0976 Y1.1071
G01 X-0.0044 Y1.1071
G01 X-0.1122 Y1.1018
G01 X-0.2190 Y1.0860
G01 X-0.3237 Y1.0597
G01 X-0.4254 Y1.0234
G01 X-0.5229 Y0.9772
G01 X-0.6155 Y0.9217
G01 X-0.7022 Y0.8574
G01 X-0.7822 Y0.7849
G01 X-0.8547 Y0.7049
G01 X-0.9190 Y0.6182
G01 X-0.9745 Y0.5256
G01 X-1.0207 Y0.4281
G01 X-1.0570 Y0.3264
G01 X-1.0833 Y0.2217
G01 X-1.0991 Y0.1149
G01 X-1.1044 Y0.0071
G01 X-1.1044 Y-23.1949
G01 X-1.0991 Y-23.3027
G01 X-1.0833 Y-23.4095
G01 X-1.0570 Y-23.5142
G01 X-1.0207 Y-23.6159
G01 X-0.9745 Y-23.7134
G01 X-0.9190 Y-23.8060
G01 X-0.8547 Y-23.8927
G01 X-0.7822 Y-23.9727
G01 X-0.7022 Y-24.0452
G01 X-0.6155 Y-24.1095
G01 X-0.5229 Y-24.1650
G01 X-0.4254 Y-24.2112
G01 X-0.3237 Y-24.2475
G01 X-0.2190 Y-24.2738
G01 X-0.1122 Y-24.2896
G01 X-0.0044 Y-24.2949
G01 X39.0976 Y-24.2949
G00 X39.0976 Y-24.2949
G01 F70.00
G01 Z-1.7000
G01 F120.00
G01 X-0.0044 Y-24.2949
G01 X-0.1122 Y-24.2896
G01 X-0.2190 Y-24.2738
G01 X-0.3237 Y-24.2475
G01 X-0.4254 Y-24.2112
G01 X-0.5229 Y-24.1650
G01 X-0.6155 Y-24.1095
G01 X-0.7022 Y-24.0452
G01 X-0.7822 Y-23.9727
G01 X-0.8547 Y-23.8927
G01 X-0.9190 Y-23.8060
G01 X-0.9745 Y-23.7134
G01 X-1.0207 Y-23.6159
G01 X-1.0570 Y-23.5142
G01 X-1.0833 Y-23.4095
G01 X-1.0991 Y-23.3027
G01 X-1.1044 Y-23.1949
G01 X-1.1044 Y0.0071
G01 X-1.0991 Y0.1149
G01 X-1.0833 Y0.2217
G01 X-1.0570 Y0.3264
G01 X-1.0207 Y0.4281
G01 X-0.9745 Y0.5256
G01 X-0.9190 Y0.6182
G01 X-0.8547 Y0.7049
G01 X-0.7822 Y0.7849
G01 X-0.7022 Y0.8574
G01 X-0.6155 Y0.9217
G01 X-0.5229 Y0.9772
G01 X-0.4254 Y1.0234
G01 X-0.3237 Y1.0597
G01 X-0.2190 Y1.0860
G01 X-0.1122 Y1.1018
G01 X-0.0044 Y1.1071
G01 X39.0976 Y1.1071
G01 X39.2054 Y1.1018
G01 X39.3122 Y1.0860
G01 X39.4169 Y1.0597
G01 X39.5186 Y1.0234
G01 X39.6161 Y0.9772
G01 X39.7087 Y0.9217
G01 X39.7954 Y0.8574
G01 X39.8754 Y0.7849
G01 X39.9479 Y0.7049
G01 X40.0122 Y0.6182
G01 X40.0677 Y0.5256
G01 X40.1139 Y0.4281
G01 X40.1502 Y0.3264
G01 X40.1765 Y0.2217
G01 X40.1923 Y0.1149
G01 X40.1976 Y0.0071
G01 X40.1976 Y-23.1949
G01 X40.1923 Y-23.3027
G01 X40.1765 Y-23.4095
G01 X40.1502 Y-23.5142
G01 X40.1139 Y-23.6159
G01 X40.0677 Y-23.7134
G01 X40.0122 Y-23.8060
G01 X39.9479 Y-23.8927
G01 X39.8754 Y-23.9727
G01 X39.7954 Y-24.0452
G01 X39.7087 Y-24.1095
G01 X39.6161 Y-24.1650
G01 X39.5186 Y-24.2112
G01 X39.4169 Y-24.2475
G01 X39.3122 Y-24.2738
G01 X39.2054 Y-24.2896
G01 X39.0976 Y-24.2949
G00 Z2.0000
M05
G00 Z2.0000
G00 Z25.00

