(G-CODE GENERATED BY FLATCAM v8.993 - www.flatcam.org - Version Date: 2020/06/05)

(Name: 74hc595_Cont2.drl_cnc)
(Type: G-code from Excellon)
(Units: MM)

(Created on Thursday, 25 November 2021 at 01:40)

(This preprocessor is the default preprocessor used by FlatCAM.)
(It is made to work with MACH3 compatible motion controllers.)


(TOOLS DIAMETER: )
(Tool: 1 -> Dia: 0.5)
(Tool: 2 -> Dia: 0.8)

(FEEDRATE Z: )
(Tool: 1 -> Feedrate: 70.0)
(Tool: 2 -> Feedrate: 70.0)

(FEEDRATE RAPIDS: )
(Tool: 1 -> Feedrate Rapids: 1500)
(Tool: 2 -> Feedrate Rapids: 1500)

(Z_CUT: )
(Tool: 1 -> Z_Cut: -1.8)
(Tool: 2 -> Z_Cut: -1.8)

(Tools Offset: )
(Tool: 2 -> Offset Z: -0.0)

(Z_MOVE: )
(Tool: 1 -> Z_Move: 2)
(Tool: 2 -> Z_Move: 2)

(Z Toolchange: 25.0 mm)
(X,Y Toolchange: 0.00, 0.00 mm)
(Z Start: None mm)
(Z End: 2.0 mm)
(Steps per circle: 128)
(Preprocessor Excellon: default)

(X range:    1.5500 ...   37.4400  mm)
(Y range:  -21.3600 ...   -1.1800  mm)

(Spindle Speed: 10000.0 RPM)
G21
G90
G94



G01 F70.00

M5
G00 Z25.0000
T2
G00 X0.0000 Y0.0000                
M6
(MSG, Change to Tool Dia = 0.80 ||| Total drills for tool T2 = 18)
M0
G00 Z25.0000

M03 S10000
G00 X1.9500 Y-20.9600
G01 Z-1.8000
G01 Z0
G00 Z2.0000
G00 X8.8100 Y-20.5200
G01 Z-1.8000
G01 Z0
G00 Z2.0000
G00 X32.3400 Y-15.9100
G01 Z-1.8000
G01 Z0
G00 Z2.0000
G00 X37.0400 Y-20.9600
G01 Z-1.8000
G01 Z0
G00 Z2.0000
G00 X34.8800 Y-15.9100
G01 Z-1.8000
G01 Z0
G00 Z2.0000
G00 X34.8800 Y-13.3700
G01 Z-1.8000
G01 Z0
G00 Z2.0000
G00 X32.3400 Y-13.3700
G01 Z-1.8000
G01 Z0
G00 Z2.0000
G00 X32.3400 Y-10.8300
G01 Z-1.8000
G01 Z0
G00 Z2.0000
G00 X34.8800 Y-10.8300
G01 Z-1.8000
G01 Z0
G00 Z2.0000
G00 X37.0400 Y-2.0700
G01 Z-1.8000
G01 Z0
G00 Z2.0000
G00 X8.8100 Y-2.7400
G01 Z-1.8000
G01 Z0
G00 Z2.0000
G00 X1.9500 Y-1.9100
G01 Z-1.8000
G01 Z0
G00 Z2.0000
G00 X8.8100 Y-5.2800
G01 Z-1.8000
G01 Z0
G00 Z2.0000
G00 X8.8100 Y-7.8200
G01 Z-1.8000
G01 Z0
G00 Z2.0000
G00 X8.8100 Y-10.3600
G01 Z-1.8000
G01 Z0
G00 Z2.0000
G00 X8.8100 Y-12.9000
G01 Z-1.8000
G01 Z0
G00 Z2.0000
G00 X8.8100 Y-15.4400
G01 Z-1.8000
G01 Z0
G00 Z2.0000
G00 X8.8100 Y-17.9800
G01 Z-1.8000
G01 Z0
G00 Z2.0000
M05
G00 Z2.00

