(G-CODE GENERATED BY FLATCAM v8.993 - www.flatcam.org - Version Date: 2020/06/05)

(Name: 74hc595_Cont_Ф1_верх.gbr_iso_combined_cnc)
(Type: G-code from Geometry)
(Units: MM)

(Created on Sunday, 25 April 2021 at 14:07)

(This preprocessor is the default preprocessor used by FlatCAM.)
(It is made to work with MACH3 compatible motion controllers.)

(TOOL DIAMETER: 0.15 mm)
(Feedrate_XY: 120.0 mm/min)
(Feedrate_Z: 70.0 mm/min)
(Feedrate rapids 1500.0 mm/min)

(Z_Cut: -0.09 mm)
(Z_Move: 2.0 mm)
(Z Start: None mm)
(Z End: 25.0 mm)
(Steps per circle: 128)
(Preprocessor Geometry: default)

(X range:    1.9058 ...   53.1302  mm)
(Y range:  -22.9091 ...   -0.8941  mm)

(Spindle Speed: 10000 RPM)
G21
G90
G94



G01 F120.00
G00 Z2.0000

M03 S10000
G00 X2.0558 Y-5.3131
G01 F70.00
G01 Z-0.0900
G01 F120.00
G01 X2.0558 Y-5.2795
G01 X2.0894 Y-5.2795
G01 X2.0717 Y-5.2954
G01 X2.0558 Y-5.3131
G00 Z2.0000
G00 X3.0808 Y-5.2045
G01 F70.00
G01 Z-0.0900
G01 F120.00
G01 X3.0808 Y-5.3045
G01 X2.2198 Y-5.3049
G01 X2.2033 Y-5.3070
G01 X2.1855 Y-5.3115
G01 X2.1683 Y-5.3181
G01 X2.1521 Y-5.3268
G01 X2.1371 Y-5.3374
G01 X2.1247 Y-5.3484
G01 X2.1125 Y-5.3622
G01 X2.1021 Y-5.3774
G01 X2.0937 Y-5.3937
G01 X2.0867 Y-5.4127
G01 X2.0824 Y-5.4325
G01 X2.0808 Y-5.4527
G01 X2.0808 Y-7.0545
G01 X1.9808 Y-7.0545
G01 X1.9808 Y-5.2045
G01 X3.0808 Y-5.2045
G00 Z2.0000
G00 X3.1558 Y-5.1295
G01 F70.00
G01 Z-0.0900
G01 F120.00
G01 X3.1558 Y-5.3795
G01 X2.2280 Y-5.3796
G01 X2.2189 Y-5.3805
G01 X2.2099 Y-5.3825
G01 X2.2013 Y-5.3856
G01 X2.1930 Y-5.3897
G01 X2.1861 Y-5.3943
G01 X2.1791 Y-5.4002
G01 X2.1728 Y-5.4069
G01 X2.1674 Y-5.4144
G01 X2.1622 Y-5.4241
G01 X2.1588 Y-5.4336
G01 X2.1566 Y-5.4435
G01 X2.1558 Y-5.4536
G01 X2.1558 Y-7.1295
G01 X1.9058 Y-7.1295
G01 X1.9058 Y-5.1295
G01 X3.1558 Y-5.1295
G00 Z2.0000
G00 X4.3365 Y-4.0645
G01 F70.00
G01 Z-0.0900
G01 F120.00
G01 X4.3542 Y-4.0562
G01 X4.3700 Y-4.0462
G01 X4.3700 Y-4.0845
G01 X4.3365 Y-4.0645
G00 Z2.0000
G00 X4.3568 Y-3.9248
G01 F70.00
G01 Z-0.0900
G01 F120.00
G01 X4.3571 Y-3.3349
G01 X4.3588 Y-3.3264
G01 X4.3631 Y-3.3166
G01 X4.3698 Y-3.3081
G01 X4.3764 Y-3.3026
G01 X4.3840 Y-3.2985
G01 X4.3944 Y-3.2956
G01 X4.4031 Y-3.2952
G01 X4.4137 Y-3.2971
G01 X4.4254 Y-3.3026
G01 X4.4305 Y-3.3066
G01 X4.4363 Y-3.3130
G01 X4.4424 Y-3.3244
G01 X4.4449 Y-3.3370
G01 X4.4450 Y-4.1383
G01 X4.4445 Y-4.1457
G01 X4.4424 Y-4.1540
G01 X4.4387 Y-4.1618
G01 X4.4349 Y-4.1671
G01 X4.4288 Y-4.1732
G01 X4.4216 Y-4.1780
G01 X4.4157 Y-4.1807
G01 X4.4073 Y-4.1828
G01 X4.4009 Y-4.1832
G01 X4.3923 Y-4.1824
G01 X4.3801 Y-4.1780
G01 X4.2100 Y-4.0759
G01 X3.9585 Y-3.8753
G01 X3.6299 Y-3.6784
G01 X3.4058 Y-3.5886
G01 X3.3908 Y-3.5844
G01 X3.3780 Y-3.5833
G01 X3.0685 Y-3.5833
G01 X3.0569 Y-3.5819
G01 X3.0488 Y-3.5790
G01 X3.0414 Y-3.5746
G01 X3.0350 Y-3.5688
G01 X3.0288 Y-3.5600
G01 X3.0255 Y-3.5520
G01 X3.0238 Y-3.5435
G01 X3.0238 Y-3.5349
G01 X3.0255 Y-3.5264
G01 X3.0310 Y-3.5147
G01 X3.0397 Y-3.5052
G01 X3.0507 Y-3.4985
G01 X3.0633 Y-3.4954
G01 X3.4000 Y-3.4951
G01 X3.4133 Y-3.4969
G01 X3.6663 Y-3.5979
G01 X3.6744 Y-3.6019
G01 X4.0085 Y-3.8025
G01 X4.2357 Y-3.9839
G01 X4.2425 Y-3.9886
G01 X4.2506 Y-3.9930
G01 X4.2592 Y-3.9963
G01 X4.2681 Y-3.9985
G01 X4.2773 Y-3.9996
G01 X4.2874 Y-3.9996
G01 X4.2965 Y-3.9983
G01 X4.3054 Y-3.9960
G01 X4.3139 Y-3.9926
G01 X4.3228 Y-3.9876
G01 X4.3301 Y-3.9822
G01 X4.3368 Y-3.9758
G01 X4.3432 Y-3.9679
G01 X4.3480 Y-3.9601
G01 X4.3518 Y-3.9518
G01 X4.3546 Y-3.9430
G01 X4.3563 Y-3.9339
G01 X4.3568 Y-3.9248
G00 Z2.0000
G00 X5.3722 Y-5.2795
G01 F70.00
G01 Z-0.0900
G01 F120.00
G01 X5.4058 Y-5.2795
G01 X5.4058 Y-5.3131
G01 X5.3899 Y-5.2954
G01 X5.3722 Y-5.2795
G00 Z2.0000
G00 X6.6595 Y-5.3131
G01 F70.00
G01 Z-0.0900
G01 F120.00
G01 X6.6595 Y-5.2795
G01 X6.6931 Y-5.2795
G01 X6.6754 Y-5.2954
G01 X6.6595 Y-5.3131
G00 Z2.0000
G00 X7.6845 Y-5.2045
G01 F70.00
G01 Z-0.0900
G01 F120.00
G01 X7.6845 Y-5.3045
G01 X6.8235 Y-5.3049
G01 X6.8070 Y-5.3070
G01 X6.7892 Y-5.3115
G01 X6.7720 Y-5.3181
G01 X6.7558 Y-5.3268
G01 X6.7408 Y-5.3374
G01 X6.7271 Y-5.3497
G01 X6.7162 Y-5.3622
G01 X6.7058 Y-5.3774
G01 X6.6966 Y-5.3954
G01 X6.6899 Y-5.4145
G01 X6.6859 Y-5.4343
G01 X6.6845 Y-5.4527
G01 X6.6845 Y-7.0545
G01 X6.5845 Y-7.0545
G01 X6.5845 Y-5.2045
G01 X7.6845 Y-5.2045
G00 Z2.0000
G00 X7.7595 Y-5.1295
G01 F70.00
G01 Z-0.0900
G01 F120.00
G01 X7.7595 Y-5.3795
G01 X6.8317 Y-5.3796
G01 X6.8226 Y-5.3805
G01 X6.8136 Y-5.3825
G01 X6.8050 Y-5.3856
G01 X6.7967 Y-5.3897
G01 X6.7891 Y-5.3948
G01 X6.7821 Y-5.4008
G01 X6.7765 Y-5.4069
G01 X6.7711 Y-5.4144
G01 X6.7659 Y-5.4241
G01 X6.7625 Y-5.4336
G01 X6.7603 Y-5.4435
G01 X6.7595 Y-5.4536
G01 X6.7595 Y-7.1295
G01 X6.5095 Y-7.1295
G01 X6.5095 Y-5.1295
G01 X7.7595 Y-5.1295
G00 Z2.0000
G00 X8.3434 Y-3.3833
G01 F70.00
G01 Z-0.0900
G01 F120.00
G01 X8.1103 Y-3.3833
G01 X8.1011 Y-3.3842
G01 X8.0931 Y-3.3860
G01 X8.0844 Y-3.3890
G01 X8.0769 Y-3.3926
G01 X7.9681 Y-3.4578
G01 X7.9579 Y-3.4656
G01 X7.9497 Y-3.4742
G01 X7.9440 Y-3.4825
G01 X7.9394 Y-3.4915
G01 X7.8786 Y-3.6376
G01 X7.8754 Y-3.6492
G01 X7.8742 Y-3.6621
G01 X7.8742 Y-3.8163
G01 X7.8753 Y-3.8283
G01 X7.8796 Y-3.8434
G01 X7.9401 Y-3.9886
G01 X7.9449 Y-3.9975
G01 X7.9509 Y-4.0056
G01 X7.9579 Y-4.0128
G01 X7.9658 Y-4.0191
G01 X8.0753 Y-4.0849
G01 X8.0878 Y-4.0908
G01 X8.0993 Y-4.0939
G01 X8.1112 Y-4.0951
G01 X8.2990 Y-4.0951
G01 X8.3081 Y-4.0943
G01 X8.3171 Y-4.0924
G01 X8.3258 Y-4.0894
G01 X8.3341 Y-4.0854
G01 X8.4429 Y-4.0201
G01 X8.4523 Y-4.0128
G01 X8.4605 Y-4.0042
G01 X8.4662 Y-3.9959
G01 X8.4708 Y-3.9869
G01 X8.5316 Y-3.8408
G01 X8.5348 Y-3.8292
G01 X8.5360 Y-3.8172
G01 X8.5360 Y-3.6691
G01 X8.5346 Y-3.6553
G01 X8.5302 Y-3.6411
G01 X8.4089 Y-3.4218
G01 X8.4040 Y-3.4141
G01 X8.3988 Y-3.4077
G01 X8.3922 Y-3.4013
G01 X8.3849 Y-3.3958
G01 X8.3778 Y-3.3916
G01 X8.3694 Y-3.3879
G01 X8.3606 Y-3.3853
G01 X8.3516 Y-3.3837
G01 X8.3434 Y-3.3833
G00 Z2.0000
G00 X8.4798 Y-3.3950
G01 F70.00
G01 Z-0.0900
G01 F120.00
G01 X8.4717 Y-3.3806
G01 X8.4647 Y-3.3701
G01 X8.4944 Y-3.3701
G01 X8.4860 Y-3.3830
G01 X8.4798 Y-3.3950
G00 Z2.0000
G00 X8.4968 Y-3.2951
G01 F70.00
G01 Z-0.0900
G01 F120.00
G01 X8.9125 Y-3.2951
G01 X8.9220 Y-3.2960
G01 X8.9303 Y-3.2985
G01 X8.9369 Y-3.3019
G01 X9.1020 Y-3.4009
G01 X9.1080 Y-3.4052
G01 X9.1141 Y-3.4112
G01 X9.1178 Y-3.4165
G01 X9.1211 Y-3.4231
G01 X9.2037 Y-3.6214
G01 X9.2066 Y-3.6306
G01 X9.2075 Y-3.6401
G01 X9.2075 Y-3.8383
G01 X9.2066 Y-3.8478
G01 X9.2037 Y-3.8570
G01 X9.1211 Y-4.0553
G01 X9.1178 Y-4.0619
G01 X9.1141 Y-4.0672
G01 X9.1080 Y-4.0732
G01 X9.1020 Y-4.0775
G01 X8.9369 Y-4.1765
G01 X8.9283 Y-4.1807
G01 X8.9199 Y-4.1828
G01 X8.9113 Y-4.1832
G01 X8.9027 Y-4.1819
G01 X8.8946 Y-4.1790
G01 X8.8872 Y-4.1746
G01 X8.8808 Y-4.1688
G01 X8.8756 Y-4.1619
G01 X8.8719 Y-4.1541
G01 X8.8694 Y-4.1414
G01 X8.8707 Y-4.1285
G01 X8.8756 Y-4.1166
G01 X8.8838 Y-4.1066
G01 X8.8915 Y-4.1009
G01 X9.0262 Y-4.0201
G01 X9.0363 Y-4.0122
G01 X9.0449 Y-4.0027
G01 X9.0500 Y-3.9951
G01 X9.0541 Y-3.9869
G01 X9.1136 Y-3.8442
G01 X9.1171 Y-3.8337
G01 X9.1188 Y-3.8246
G01 X9.1193 Y-3.8154
G01 X9.1193 Y-3.6621
G01 X9.1179 Y-3.6483
G01 X9.1139 Y-3.6350
G01 X9.0545 Y-3.4923
G01 X9.0505 Y-3.4841
G01 X9.0460 Y-3.4771
G01 X9.0363 Y-3.4662
G01 X9.0246 Y-3.4573
G01 X8.9174 Y-3.3930
G01 X8.9066 Y-3.3880
G01 X8.8960 Y-3.3849
G01 X8.8804 Y-3.3833
G01 X8.6158 Y-3.3833
G01 X8.6011 Y-3.3847
G01 X8.5870 Y-3.3890
G01 X8.5740 Y-3.3959
G01 X8.5626 Y-3.4053
G01 X8.5528 Y-3.4175
G01 X8.5461 Y-3.4306
G01 X8.5420 Y-3.4447
G01 X8.5408 Y-3.4594
G01 X8.5429 Y-3.4758
G01 X8.5481 Y-3.4906
G01 X8.6182 Y-3.6170
G01 X8.6214 Y-3.6239
G01 X8.6232 Y-3.6303
G01 X8.6242 Y-3.6402
G01 X8.6237 Y-3.8457
G01 X8.6204 Y-3.8570
G01 X8.5378 Y-4.0553
G01 X8.5334 Y-4.0637
G01 X8.5264 Y-4.0718
G01 X8.5187 Y-4.0775
G01 X8.3509 Y-4.1780
G01 X8.3408 Y-4.1819
G01 X8.3292 Y-4.1833
G01 X8.0810 Y-4.1833
G01 X8.0694 Y-4.1819
G01 X8.0632 Y-4.1799
G01 X8.0566 Y-4.1765
G01 X7.8855 Y-4.0732
G01 X7.8781 Y-4.0655
G01 X7.8724 Y-4.0553
G01 X7.7898 Y-3.8570
G01 X7.7869 Y-3.8478
G01 X7.7860 Y-3.8383
G01 X7.7860 Y-3.6401
G01 X7.7869 Y-3.6306
G01 X7.7898 Y-3.6214
G01 X7.8724 Y-3.4231
G01 X7.8757 Y-3.4165
G01 X7.8794 Y-3.4112
G01 X7.8855 Y-3.4052
G01 X7.8915 Y-3.4009
G01 X8.0566 Y-3.3019
G01 X8.0632 Y-3.2985
G01 X8.0715 Y-3.2960
G01 X8.0810 Y-3.2951
G01 X8.4968 Y-3.2951
G00 Z2.0000
G00 X9.9759 Y-5.2795
G01 F70.00
G01 Z-0.0900
G01 F120.00
G01 X10.0095 Y-5.2795
G01 X10.0095 Y-5.3131
G01 X9.9936 Y-5.2954
G01 X9.9759 Y-5.2795
G00 Z2.0000
G00 X11.2633 Y-5.3131
G01 F70.00
G01 Z-0.0900
G01 F120.00
G01 X11.2633 Y-5.2795
G01 X11.2969 Y-5.2795
G01 X11.2792 Y-5.2954
G01 X11.2633 Y-5.3131
G00 Z2.0000
G00 X12.2883 Y-5.2045
G01 F70.00
G01 Z-0.0900
G01 F120.00
G01 X12.2883 Y-5.3045
G01 X11.4273 Y-5.3049
G01 X11.4090 Y-5.3074
G01 X11.3930 Y-5.3115
G01 X11.3758 Y-5.3181
G01 X11.3596 Y-5.3268
G01 X11.3446 Y-5.3374
G01 X11.3309 Y-5.3497
G01 X11.3200 Y-5.3622
G01 X11.3096 Y-5.3774
G01 X11.3012 Y-5.3937
G01 X11.2942 Y-5.4127
G01 X11.2899 Y-5.4325
G01 X11.2883 Y-5.4527
G01 X11.2883 Y-7.0545
G01 X11.1883 Y-7.0545
G01 X11.1883 Y-5.2045
G01 X12.2883 Y-5.2045
G00 Z2.0000
G00 X12.3633 Y-5.1295
G01 F70.00
G01 Z-0.0900
G01 F120.00
G01 X12.3633 Y-5.3795
G01 X11.4355 Y-5.3796
G01 X11.4264 Y-5.3805
G01 X11.4174 Y-5.3825
G01 X11.4088 Y-5.3856
G01 X11.4005 Y-5.3897
G01 X11.3936 Y-5.3943
G01 X11.3866 Y-5.4002
G01 X11.3803 Y-5.4069
G01 X11.3749 Y-5.4144
G01 X11.3701 Y-5.4233
G01 X11.3665 Y-5.4327
G01 X11.3643 Y-5.4426
G01 X11.3633 Y-5.4536
G01 X11.3633 Y-7.1295
G01 X11.1133 Y-7.1295
G01 X11.1133 Y-5.1295
G01 X12.3633 Y-5.1295
G00 Z2.0000
G00 X13.0928 Y-3.6458
G01 F70.00
G01 Z-0.0900
G01 F120.00
G01 X13.1487 Y-3.7801
G01 X13.1520 Y-3.7914
G01 X13.1524 Y-4.0001
G01 X13.1511 Y-4.0087
G01 X13.1487 Y-4.0157
G01 X13.0661 Y-4.2140
G01 X13.0604 Y-4.2242
G01 X13.0513 Y-4.2333
G01 X12.8819 Y-4.3352
G01 X12.8753 Y-4.3386
G01 X12.8670 Y-4.3411
G01 X12.8575 Y-4.3420
G01 X12.5260 Y-4.3420
G01 X12.5144 Y-4.3406
G01 X12.5082 Y-4.3386
G01 X12.5016 Y-4.3352
G01 X12.3365 Y-4.2362
G01 X12.3288 Y-4.2305
G01 X12.3231 Y-4.2242
G01 X12.3174 Y-4.2140
G01 X12.2348 Y-4.0157
G01 X12.2319 Y-4.0065
G01 X12.2310 Y-3.9970
G01 X12.2310 Y-3.7988
G01 X12.2324 Y-3.7871
G01 X12.3174 Y-3.5818
G01 X12.3207 Y-3.5752
G01 X12.3244 Y-3.5699
G01 X12.3305 Y-3.5639
G01 X12.3365 Y-3.5596
G01 X12.5016 Y-3.4606
G01 X12.5082 Y-3.4572
G01 X12.5144 Y-3.4552
G01 X12.5272 Y-3.4539
G01 X12.5399 Y-3.4564
G01 X12.5513 Y-3.4625
G01 X12.5605 Y-3.4717
G01 X12.5639 Y-3.4771
G01 X12.5672 Y-3.4851
G01 X12.5691 Y-3.4979
G01 X12.5672 Y-3.5107
G01 X12.5617 Y-3.5224
G01 X12.5577 Y-3.5275
G01 X12.5513 Y-3.5333
G01 X12.4108 Y-3.6180
G01 X12.4029 Y-3.6243
G01 X12.3965 Y-3.6308
G01 X12.3909 Y-3.6381
G01 X12.3859 Y-3.6468
G01 X12.3246 Y-3.7937
G01 X12.3203 Y-3.8088
G01 X12.3192 Y-3.8208
G01 X12.3192 Y-3.9759
G01 X12.3208 Y-3.9897
G01 X12.3246 Y-4.0021
G01 X12.3844 Y-4.1456
G01 X12.3894 Y-4.1554
G01 X12.3953 Y-4.1636
G01 X12.4036 Y-4.1722
G01 X12.4131 Y-4.1793
G01 X12.5243 Y-4.2458
G01 X12.5398 Y-4.2516
G01 X12.5562 Y-4.2538
G01 X12.8254 Y-4.2538
G01 X12.8346 Y-4.2533
G01 X12.8446 Y-4.2514
G01 X12.8533 Y-4.2485
G01 X12.8616 Y-4.2445
G01 X12.9704 Y-4.1793
G01 X12.9785 Y-4.1734
G01 X12.9858 Y-4.1664
G01 X12.9931 Y-4.1569
G01 X12.9991 Y-4.1456
G01 X13.0589 Y-4.0021
G01 X13.0627 Y-3.9897
G01 X13.0643 Y-3.9741
G01 X13.0643 Y-3.8208
G01 X13.0627 Y-3.8061
G01 X13.0589 Y-3.7937
G01 X12.9848 Y-3.6157
G01 X12.9815 Y-3.6044
G01 X12.9813 Y-3.4936
G01 X12.9824 Y-3.4872
G01 X12.9853 Y-3.4791
G01 X12.9897 Y-3.4717
G01 X12.9940 Y-3.4668
G01 X13.0006 Y-3.4613
G01 X13.0082 Y-3.4572
G01 X13.0165 Y-3.4547
G01 X13.0260 Y-3.4538
G01 X13.6127 Y-3.4541
G01 X13.6191 Y-3.4552
G01 X13.6272 Y-3.4581
G01 X13.6346 Y-3.4625
G01 X13.6410 Y-3.4683
G01 X13.6462 Y-3.4753
G01 X13.6491 Y-3.4810
G01 X13.6516 Y-3.4893
G01 X13.6524 Y-3.4957
G01 X13.6525 Y-4.2970
G01 X13.6516 Y-4.3065
G01 X13.6482 Y-4.3167
G01 X13.6438 Y-4.3241
G01 X13.6363 Y-4.3319
G01 X13.6272 Y-4.3377
G01 X13.6149 Y-4.3415
G01 X13.6041 Y-4.3417
G01 X13.5915 Y-4.3386
G01 X13.5805 Y-4.3319
G01 X13.5730 Y-4.3241
G01 X13.5669 Y-4.3127
G01 X13.5646 Y-4.3022
G01 X13.5643 Y-3.6151
G01 X13.5631 Y-3.6032
G01 X13.5600 Y-3.5917
G01 X13.5546 Y-3.5800
G01 X13.5479 Y-3.5701
G01 X13.5376 Y-3.5596
G01 X13.5247 Y-3.5508
G01 X13.5102 Y-3.5449
G01 X13.4949 Y-3.5422
G01 X13.1620 Y-3.5420
G01 X13.1501 Y-3.5429
G01 X13.1341 Y-3.5473
G01 X13.1266 Y-3.5508
G01 X13.1188 Y-3.5557
G01 X13.1064 Y-3.5666
G01 X13.0967 Y-3.5801
G01 X13.0902 Y-3.5953
G01 X13.0883 Y-3.6033
G01 X13.0871 Y-3.6125
G01 X13.0880 Y-3.6290
G01 X13.0898 Y-3.6371
G01 X13.0928 Y-3.6458
G00 Z2.0000
G00 X14.5797 Y-5.2795
G01 F70.00
G01 Z-0.0900
G01 F120.00
G01 X14.6133 Y-5.2795
G01 X14.6133 Y-5.3131
G01 X14.5974 Y-5.2954
G01 X14.5797 Y-5.2795
G00 Z2.0000
G00 X15.8670 Y-5.3131
G01 F70.00
G01 Z-0.0900
G01 F120.00
G01 X15.8670 Y-5.2795
G01 X15.9006 Y-5.2795
G01 X15.8829 Y-5.2954
G01 X15.8670 Y-5.3131
G00 Z2.0000
G00 X16.8920 Y-5.2045
G01 F70.00
G01 Z-0.0900
G01 F120.00
G01 X16.8920 Y-5.3045
G01 X16.0310 Y-5.3049
G01 X16.0127 Y-5.3074
G01 X15.9949 Y-5.3121
G01 X15.9795 Y-5.3181
G01 X15.9633 Y-5.3268
G01 X15.9497 Y-5.3362
G01 X15.9359 Y-5.3484
G01 X15.9237 Y-5.3622
G01 X15.9133 Y-5.3774
G01 X15.9041 Y-5.3954
G01 X15.8979 Y-5.4127
G01 X15.8936 Y-5.4325
G01 X15.8920 Y-5.4527
G01 X15.8920 Y-7.0545
G01 X15.7920 Y-7.0545
G01 X15.7920 Y-5.2045
G01 X16.8920 Y-5.2045
G00 Z2.0000
G00 X16.9670 Y-5.1295
G01 F70.00
G01 Z-0.0900
G01 F120.00
G01 X16.9670 Y-5.3795
G01 X16.0392 Y-5.3796
G01 X16.0301 Y-5.3805
G01 X16.0220 Y-5.3822
G01 X16.0133 Y-5.3852
G01 X16.0050 Y-5.3892
G01 X15.9973 Y-5.3943
G01 X15.9903 Y-5.4002
G01 X15.9840 Y-5.4069
G01 X15.9786 Y-5.4144
G01 X15.9738 Y-5.4233
G01 X15.9702 Y-5.4327
G01 X15.9680 Y-5.4426
G01 X15.9670 Y-5.4536
G01 X15.9670 Y-7.1295
G01 X15.7170 Y-7.1295
G01 X15.7170 Y-5.1295
G01 X16.9670 Y-5.1295
G00 Z2.0000
G00 X17.0931 Y-4.1420
G01 F70.00
G01 Z-0.0900
G01 F120.00
G01 X16.8797 Y-4.1420
G01 X16.8702 Y-4.1411
G01 X16.8619 Y-4.1386
G01 X16.8543 Y-4.1345
G01 X16.8477 Y-4.1290
G01 X16.8434 Y-4.1241
G01 X16.8390 Y-4.1167
G01 X16.8361 Y-4.1086
G01 X16.8348 Y-4.1001
G01 X16.8352 Y-4.0914
G01 X16.8390 Y-4.0791
G01 X16.8462 Y-4.0683
G01 X16.8562 Y-4.0601
G01 X16.8681 Y-4.0552
G01 X16.8797 Y-4.0538
G01 X17.0931 Y-4.0538
G01 X17.1032 Y-4.0532
G01 X17.1123 Y-4.0514
G01 X17.1201 Y-4.0488
G01 X17.1348 Y-4.0412
G01 X17.1475 Y-4.0306
G01 X17.1534 Y-4.0235
G01 X17.1579 Y-4.0166
G01 X17.1621 Y-4.0084
G01 X17.1654 Y-3.9988
G01 X17.1673 Y-3.9898
G01 X17.1681 Y-3.9807
G01 X17.1684 Y-3.4936
G01 X17.1695 Y-3.4872
G01 X17.1724 Y-3.4791
G01 X17.1768 Y-3.4717
G01 X17.1826 Y-3.4653
G01 X17.1877 Y-3.4613
G01 X17.1953 Y-3.4572
G01 X17.2036 Y-3.4547
G01 X17.2100 Y-3.4539
G01 X17.3809 Y-3.4539
G01 X17.3913 Y-3.4557
G01 X17.4010 Y-3.4599
G01 X18.2372 Y-4.0616
G01 X18.2444 Y-4.0679
G01 X18.2508 Y-4.0767
G01 X18.2542 Y-4.0847
G01 X18.2562 Y-4.0953
G01 X18.2558 Y-4.1040
G01 X18.2538 Y-4.1124
G01 X18.2501 Y-4.1203
G01 X18.2450 Y-4.1273
G01 X18.2386 Y-4.1332
G01 X18.2311 Y-4.1377
G01 X18.2230 Y-4.1406
G01 X18.2144 Y-4.1419
G01 X17.3313 Y-4.1420
G01 X17.3221 Y-4.1425
G01 X17.3139 Y-4.1440
G01 X17.2992 Y-4.1492
G01 X17.2851 Y-4.1578
G01 X17.2733 Y-4.1694
G01 X17.2643 Y-4.1832
G01 X17.2590 Y-4.1970
G01 X17.2565 Y-4.2114
G01 X17.2563 Y-4.2970
G01 X17.2558 Y-4.3044
G01 X17.2543 Y-4.3107
G01 X17.2488 Y-4.3224
G01 X17.2433 Y-4.3290
G01 X17.2384 Y-4.3333
G01 X17.2270 Y-4.3394
G01 X17.2144 Y-4.3419
G01 X17.2079 Y-4.3417
G01 X17.1994 Y-4.3400
G01 X17.1877 Y-4.3345
G01 X17.1811 Y-4.3290
G01 X17.1768 Y-4.3241
G01 X17.1707 Y-4.3127
G01 X17.1682 Y-4.3001
G01 X17.1678 Y-4.2096
G01 X17.1644 Y-4.1934
G01 X17.1575 Y-4.1784
G01 X17.1517 Y-4.1701
G01 X17.1455 Y-4.1633
G01 X17.1386 Y-4.1573
G01 X17.1301 Y-4.1517
G01 X17.1210 Y-4.1473
G01 X17.1123 Y-4.1444
G01 X17.1032 Y-4.1426
G01 X17.0931 Y-4.1420
G00 Z2.0000
G00 X17.1844 Y-4.0979
G01 F70.00
G01 Z-0.0900
G01 F120.00
G01 X17.1992 Y-4.0849
G01 X17.2122 Y-4.0701
G01 X17.2252 Y-4.0849
G01 X17.2400 Y-4.0979
G01 X17.2252 Y-4.1109
G01 X17.2122 Y-4.1257
G01 X17.1992 Y-4.1109
G01 X17.1844 Y-4.0979
G00 Z2.0000
G00 X17.3313 Y-4.0538
G01 F70.00
G01 Z-0.0900
G01 F120.00
G01 X17.8431 Y-4.0538
G01 X17.8541 Y-4.0530
G01 X17.8683 Y-4.0494
G01 X17.8816 Y-4.0432
G01 X17.8935 Y-4.0344
G01 X17.9033 Y-4.0235
G01 X17.9109 Y-4.0108
G01 X17.9158 Y-3.9970
G01 X17.9180 Y-3.9824
G01 X17.9172 Y-3.9677
G01 X17.9136 Y-3.9535
G01 X17.9078 Y-3.9410
G01 X17.8998 Y-3.9298
G01 X17.8891 Y-3.9196
G01 X17.3842 Y-3.5561
G01 X17.3707 Y-3.5484
G01 X17.3559 Y-3.5436
G01 X17.3422 Y-3.5420
G01 X17.3203 Y-3.5428
G01 X17.3086 Y-3.5455
G01 X17.2975 Y-3.5500
G01 X17.2873 Y-3.5562
G01 X17.2782 Y-3.5639
G01 X17.2705 Y-3.5730
G01 X17.2643 Y-3.5832
G01 X17.2598 Y-3.5943
G01 X17.2571 Y-3.6060
G01 X17.2563 Y-3.6170
G01 X17.2563 Y-3.9807
G01 X17.2581 Y-3.9953
G01 X17.2627 Y-4.0092
G01 X17.2694 Y-4.0213
G01 X17.2789 Y-4.0325
G01 X17.2896 Y-4.0412
G01 X17.3026 Y-4.0481
G01 X17.3166 Y-4.0524
G01 X17.3313 Y-4.0538
G00 Z2.0000
G00 X17.9644 Y-4.0670
G01 F70.00
G01 Z-0.0900
G01 F120.00
G01 X17.9763 Y-4.0478
G01 X17.9855 Y-4.0258
G01 X17.9912 Y-4.0025
G01 X17.9930 Y-3.9782
G01 X18.1163 Y-4.0670
G01 X17.9644 Y-4.0670
G00 Z2.0000
G00 X19.1834 Y-5.2795
G01 F70.00
G01 Z-0.0900
G01 F120.00
G01 X19.2170 Y-5.2795
G01 X19.2170 Y-5.3131
G01 X19.2011 Y-5.2954
G01 X19.1834 Y-5.2795
G00 Z2.0000
G00 X20.4708 Y-5.3131
G01 F70.00
G01 Z-0.0900
G01 F120.00
G01 X20.4708 Y-5.2795
G01 X20.5044 Y-5.2795
G01 X20.4867 Y-5.2954
G01 X20.4708 Y-5.3131
G00 Z2.0000
G00 X21.4958 Y-5.2045
G01 F70.00
G01 Z-0.0900
G01 F120.00
G01 X21.4958 Y-5.3045
G01 X20.6348 Y-5.3049
G01 X20.6165 Y-5.3074
G01 X20.5987 Y-5.3121
G01 X20.5833 Y-5.3181
G01 X20.5671 Y-5.3268
G01 X20.5521 Y-5.3374
G01 X20.5384 Y-5.3497
G01 X20.5264 Y-5.3637
G01 X20.5171 Y-5.3774
G01 X20.5079 Y-5.3954
G01 X20.5012 Y-5.4145
G01 X20.4974 Y-5.4325
G01 X20.4958 Y-5.4527
G01 X20.4958 Y-7.0545
G01 X20.3958 Y-7.0545
G01 X20.3958 Y-5.2045
G01 X21.4958 Y-5.2045
G00 Z2.0000
G00 X21.5708 Y-5.1295
G01 F70.00
G01 Z-0.0900
G01 F120.00
G01 X21.5708 Y-5.3795
G01 X20.6430 Y-5.3796
G01 X20.6339 Y-5.3805
G01 X20.6258 Y-5.3822
G01 X20.6171 Y-5.3852
G01 X20.6088 Y-5.3892
G01 X20.6011 Y-5.3943
G01 X20.5941 Y-5.4002
G01 X20.5878 Y-5.4069
G01 X20.5824 Y-5.4144
G01 X20.5776 Y-5.4233
G01 X20.5740 Y-5.4327
G01 X20.5718 Y-5.4426
G01 X20.5708 Y-5.4536
G01 X20.5708 Y-7.1295
G01 X20.3208 Y-7.1295
G01 X20.3208 Y-5.1295
G01 X21.5708 Y-5.1295
G00 Z2.0000
G00 X22.0976 Y-4.2285
G01 F70.00
G01 Z-0.0900
G01 F120.00
G01 X22.0878 Y-4.2362
G01 X21.9227 Y-4.3352
G01 X21.9120 Y-4.3400
G01 X21.9057 Y-4.3415
G01 X21.8983 Y-4.3420
G01 X21.7335 Y-4.3420
G01 X21.7219 Y-4.3406
G01 X21.7157 Y-4.3386
G01 X21.7091 Y-4.3352
G01 X21.5440 Y-4.2362
G01 X21.5380 Y-4.2319
G01 X21.5319 Y-4.2259
G01 X21.5282 Y-4.2206
G01 X21.5249 Y-4.2140
G01 X21.4423 Y-4.0157
G01 X21.4394 Y-4.0065
G01 X21.4385 Y-3.9970
G01 X21.4385 Y-3.7988
G01 X21.4394 Y-3.7893
G01 X21.4423 Y-3.7801
G01 X21.5249 Y-3.5818
G01 X21.5293 Y-3.5734
G01 X21.5348 Y-3.5667
G01 X21.5440 Y-3.5596
G01 X21.7091 Y-3.4606
G01 X21.7177 Y-3.4564
G01 X21.7261 Y-3.4543
G01 X21.7347 Y-3.4539
G01 X21.7433 Y-3.4552
G01 X21.7514 Y-3.4581
G01 X21.7588 Y-3.4625
G01 X21.7652 Y-3.4683
G01 X21.7704 Y-3.4752
G01 X21.7741 Y-3.4830
G01 X21.7766 Y-3.4957
G01 X21.7753 Y-3.5086
G01 X21.7704 Y-3.5205
G01 X21.7622 Y-3.5305
G01 X21.7545 Y-3.5362
G01 X21.6198 Y-3.6170
G01 X21.6091 Y-3.6255
G01 X21.6000 Y-3.6358
G01 X21.5919 Y-3.6502
G01 X21.5321 Y-3.7937
G01 X21.5281 Y-3.8070
G01 X21.5267 Y-3.8208
G01 X21.5267 Y-3.9750
G01 X21.5283 Y-3.9897
G01 X21.5324 Y-4.0029
G01 X21.5951 Y-4.1522
G01 X21.5995 Y-4.1592
G01 X21.6052 Y-4.1664
G01 X21.6111 Y-4.1722
G01 X21.6183 Y-4.1778
G01 X21.7270 Y-4.2432
G01 X21.7360 Y-4.2478
G01 X21.7456 Y-4.2511
G01 X21.7555 Y-4.2532
G01 X21.7656 Y-4.2538
G01 X21.8681 Y-4.2538
G01 X21.8791 Y-4.2527
G01 X21.8889 Y-4.2503
G01 X21.9040 Y-4.2436
G01 X22.0096 Y-4.1803
G01 X22.0179 Y-4.1745
G01 X22.0296 Y-4.1629
G01 X22.0349 Y-4.1554
G01 X22.0388 Y-4.1481
G01 X22.1115 Y-3.9752
G01 X22.1166 Y-3.9683
G01 X22.1248 Y-3.9613
G01 X22.1344 Y-3.9564
G01 X22.1449 Y-3.9541
G01 X22.1578 Y-3.9547
G01 X22.1680 Y-3.9581
G01 X22.1787 Y-3.9652
G01 X22.1869 Y-3.9752
G01 X22.2589 Y-4.1465
G01 X22.2646 Y-4.1569
G01 X22.2713 Y-4.1657
G01 X22.2792 Y-4.1733
G01 X22.2881 Y-4.1798
G01 X22.3937 Y-4.2432
G01 X22.4036 Y-4.2481
G01 X22.4167 Y-4.2522
G01 X22.4304 Y-4.2538
G01 X22.5348 Y-4.2538
G01 X22.5512 Y-4.2516
G01 X22.5608 Y-4.2485
G01 X22.5699 Y-4.2441
G01 X22.6802 Y-4.1778
G01 X22.6881 Y-4.1715
G01 X22.6945 Y-4.1650
G01 X22.7006 Y-4.1569
G01 X22.7055 Y-4.1481
G01 X22.7661 Y-4.0029
G01 X22.7698 Y-3.9915
G01 X22.7713 Y-3.9833
G01 X22.7718 Y-3.9741
G01 X22.7718 Y-3.8208
G01 X22.7700 Y-3.8052
G01 X22.7664 Y-3.7937
G01 X22.7066 Y-3.6502
G01 X22.7025 Y-3.6420
G01 X22.6974 Y-3.6344
G01 X22.6888 Y-3.6249
G01 X22.6787 Y-3.6170
G01 X22.5440 Y-3.5362
G01 X22.5363 Y-3.5305
G01 X22.5281 Y-3.5205
G01 X22.5232 Y-3.5086
G01 X22.5219 Y-3.4957
G01 X22.5244 Y-3.4830
G01 X22.5281 Y-3.4752
G01 X22.5333 Y-3.4683
G01 X22.5397 Y-3.4625
G01 X22.5471 Y-3.4581
G01 X22.5552 Y-3.4552
G01 X22.5638 Y-3.4539
G01 X22.5724 Y-3.4543
G01 X22.5808 Y-3.4564
G01 X22.5894 Y-3.4606
G01 X22.7545 Y-3.5596
G01 X22.7637 Y-3.5667
G01 X22.7692 Y-3.5734
G01 X22.7736 Y-3.5818
G01 X22.8562 Y-3.7801
G01 X22.8591 Y-3.7893
G01 X22.8600 Y-3.7988
G01 X22.8600 Y-3.9970
G01 X22.8591 Y-4.0065
G01 X22.8562 Y-4.0157
G01 X22.7736 Y-4.2140
G01 X22.7692 Y-4.2224
G01 X22.7637 Y-4.2291
G01 X22.7545 Y-4.2362
G01 X22.5894 Y-4.3352
G01 X22.5787 Y-4.3400
G01 X22.5724 Y-4.3415
G01 X22.5650 Y-4.3420
G01 X22.4002 Y-4.3420
G01 X22.3886 Y-4.3406
G01 X22.3824 Y-4.3386
G01 X22.3758 Y-4.3352
G01 X22.2107 Y-4.2362
G01 X22.1909 Y-4.2205
G01 X22.1838 Y-4.2163
G01 X22.1754 Y-4.2126
G01 X22.1657 Y-4.2097
G01 X22.1548 Y-4.2081
G01 X22.1446 Y-4.2080
G01 X22.1337 Y-4.2095
G01 X22.1240 Y-4.2123
G01 X22.1147 Y-4.2163
G01 X22.1061 Y-4.2216
G01 X22.0976 Y-4.2285
G00 Z2.0000
G00 X22.1257 Y-4.1347
G01 F70.00
G01 Z-0.0900
G01 F120.00
G01 X22.1492 Y-4.0783
G01 X22.1727 Y-4.1347
G01 X22.1492 Y-4.1329
G01 X22.1257 Y-4.1347
G00 Z2.0000
G00 X23.7872 Y-5.2795
G01 F70.00
G01 Z-0.0900
G01 F120.00
G01 X23.8208 Y-5.2795
G01 X23.8208 Y-5.3131
G01 X23.8049 Y-5.2954
G01 X23.7872 Y-5.2795
G00 Z2.0000
G00 X25.0745 Y-5.3131
G01 F70.00
G01 Z-0.0900
G01 F120.00
G01 X25.0745 Y-5.2795
G01 X25.1081 Y-5.2795
G01 X25.0904 Y-5.2954
G01 X25.0745 Y-5.3131
G00 Z2.0000
G00 X26.0995 Y-5.2045
G01 F70.00
G01 Z-0.0900
G01 F120.00
G01 X26.0995 Y-5.3045
G01 X25.2385 Y-5.3049
G01 X25.2202 Y-5.3074
G01 X25.2024 Y-5.3121
G01 X25.1870 Y-5.3181
G01 X25.1708 Y-5.3268
G01 X25.1558 Y-5.3374
G01 X25.1421 Y-5.3497
G01 X25.1301 Y-5.3637
G01 X25.1208 Y-5.3774
G01 X25.1116 Y-5.3954
G01 X25.1049 Y-5.4145
G01 X25.1011 Y-5.4325
G01 X25.0995 Y-5.4527
G01 X25.0995 Y-7.0545
G01 X24.9995 Y-7.0545
G01 X24.9995 Y-5.2045
G01 X26.0995 Y-5.2045
G00 Z2.0000
G00 X26.1745 Y-5.1295
G01 F70.00
G01 Z-0.0900
G01 F120.00
G01 X26.1745 Y-5.3795
G01 X25.2467 Y-5.3796
G01 X25.2376 Y-5.3805
G01 X25.2295 Y-5.3822
G01 X25.2208 Y-5.3852
G01 X25.2125 Y-5.3892
G01 X25.2048 Y-5.3943
G01 X25.1978 Y-5.4002
G01 X25.1915 Y-5.4069
G01 X25.1861 Y-5.4144
G01 X25.1813 Y-5.4233
G01 X25.1777 Y-5.4327
G01 X25.1755 Y-5.4426
G01 X25.1745 Y-5.4536
G01 X25.1745 Y-7.1295
G01 X24.9245 Y-7.1295
G01 X24.9245 Y-5.1295
G01 X26.1745 Y-5.1295
G00 Z2.0000
G00 X26.2760 Y-3.6876
G01 F70.00
G01 Z-0.0900
G01 F120.00
G01 X26.2882 Y-3.6876
G01 X26.2760 Y-3.6956
G01 X26.2760 Y-3.6876
G00 Z2.0000
G00 X26.2010 Y-3.6576
G01 F70.00
G01 Z-0.0900
G01 F120.00
G01 X26.2015 Y-3.6502
G01 X26.2030 Y-3.6439
G01 X26.2063 Y-3.6359
G01 X26.2097 Y-3.6305
G01 X26.2189 Y-3.6213
G01 X26.2243 Y-3.6179
G01 X26.2323 Y-3.6146
G01 X26.2386 Y-3.6131
G01 X26.2460 Y-3.6126
G01 X26.3275 Y-3.6126
G01 X26.3370 Y-3.6135
G01 X26.3453 Y-3.6160
G01 X26.3519 Y-3.6194
G01 X26.5195 Y-3.7201
G01 X26.5245 Y-3.7239
G01 X26.5295 Y-3.7292
G01 X27.0160 Y-4.3130
G01 X27.0238 Y-4.3210
G01 X27.0343 Y-4.3288
G01 X27.1561 Y-4.4019
G01 X27.1711 Y-4.4088
G01 X27.1819 Y-4.4115
G01 X27.1928 Y-4.4126
G01 X27.2982 Y-4.4126
G01 X27.3064 Y-4.4118
G01 X27.3154 Y-4.4099
G01 X27.3241 Y-4.4069
G01 X27.3324 Y-4.4029
G01 X27.4404 Y-4.3381
G01 X27.4492 Y-4.3316
G01 X27.4570 Y-4.3238
G01 X27.4636 Y-4.3150
G01 X27.4688 Y-4.3053
G01 X27.5286 Y-4.1617
G01 X27.5323 Y-4.1503
G01 X27.5342 Y-4.1375
G01 X27.5343 Y-3.9796
G01 X27.5329 Y-3.9658
G01 X27.5289 Y-3.9525
G01 X27.4663 Y-3.8032
G01 X27.4615 Y-3.7954
G01 X27.4558 Y-3.7882
G01 X27.4492 Y-3.7818
G01 X27.4419 Y-3.7763
G01 X27.3022 Y-3.6921
G01 X27.2930 Y-3.6829
G01 X27.2869 Y-3.6715
G01 X27.2844 Y-3.6588
G01 X27.2857 Y-3.6460
G01 X27.2877 Y-3.6398
G01 X27.2918 Y-3.6322
G01 X27.3005 Y-3.6226
G01 X27.3116 Y-3.6160
G01 X27.3241 Y-3.6129
G01 X27.3370 Y-3.6135
G01 X27.3492 Y-3.6179
G01 X27.5170 Y-3.7184
G01 X27.5230 Y-3.7227
G01 X27.5291 Y-3.7287
G01 X27.5328 Y-3.7340
G01 X27.5361 Y-3.7406
G01 X27.6211 Y-3.9459
G01 X27.6225 Y-3.9576
G01 X27.6225 Y-4.1558
G01 X27.6216 Y-4.1653
G01 X27.6187 Y-4.1745
G01 X27.5339 Y-4.3775
G01 X27.5262 Y-4.3879
G01 X27.5170 Y-4.3950
G01 X27.3519 Y-4.4940
G01 X27.3412 Y-4.4988
G01 X27.3349 Y-4.5003
G01 X27.3275 Y-4.5008
G01 X27.1626 Y-4.5008
G01 X27.1510 Y-4.4994
G01 X27.1409 Y-4.4955
G01 X26.9732 Y-4.3949
G01 X26.9641 Y-4.3880
G01 X26.4711 Y-3.7969
G01 X26.4643 Y-3.7906
G01 X26.4567 Y-3.7851
G01 X26.3971 Y-3.7496
G01 X26.3877 Y-3.7458
G01 X26.3779 Y-3.7433
G01 X26.3679 Y-3.7421
G01 X26.3577 Y-3.7423
G01 X26.3451 Y-3.7445
G01 X26.3321 Y-3.7492
G01 X26.3210 Y-3.7557
G01 X26.3111 Y-3.7640
G01 X26.3028 Y-3.7738
G01 X26.2964 Y-3.7849
G01 X26.2919 Y-3.7970
G01 X26.2895 Y-3.8096
G01 X26.2892 Y-4.4558
G01 X26.2883 Y-4.4653
G01 X26.2849 Y-4.4755
G01 X26.2791 Y-4.4846
G01 X26.2730 Y-4.4907
G01 X26.2639 Y-4.4965
G01 X26.2558 Y-4.4994
G01 X26.2451 Y-4.5007
G01 X26.2344 Y-4.4994
G01 X26.2243 Y-4.4955
G01 X26.2140 Y-4.4878
G01 X26.2073 Y-4.4793
G01 X26.2030 Y-4.4695
G01 X26.2011 Y-4.4589
G01 X26.2010 Y-3.6576
G00 Z2.0000
G00 X28.3909 Y-5.2795
G01 F70.00
G01 Z-0.0900
G01 F120.00
G01 X28.4245 Y-5.2795
G01 X28.4245 Y-5.3131
G01 X28.4086 Y-5.2954
G01 X28.3909 Y-5.2795
G00 Z2.0000
G00 X29.6783 Y-5.3131
G01 F70.00
G01 Z-0.0900
G01 F120.00
G01 X29.6783 Y-5.2795
G01 X29.7119 Y-5.2795
G01 X29.6942 Y-5.2954
G01 X29.6783 Y-5.3131
G00 Z2.0000
G00 X30.7033 Y-5.2045
G01 F70.00
G01 Z-0.0900
G01 F120.00
G01 X30.7033 Y-5.3045
G01 X29.8423 Y-5.3049
G01 X29.8240 Y-5.3074
G01 X29.8062 Y-5.3121
G01 X29.7908 Y-5.3181
G01 X29.7746 Y-5.3268
G01 X29.7596 Y-5.3374
G01 X29.7459 Y-5.3497
G01 X29.7339 Y-5.3637
G01 X29.7246 Y-5.3774
G01 X29.7154 Y-5.3954
G01 X29.7087 Y-5.4145
G01 X29.7049 Y-5.4325
G01 X29.7033 Y-5.4527
G01 X29.7033 Y-7.0545
G01 X29.6033 Y-7.0545
G01 X29.6033 Y-5.2045
G01 X30.7033 Y-5.2045
G00 Z2.0000
G00 X30.7783 Y-5.1295
G01 F70.00
G01 Z-0.0900
G01 F120.00
G01 X30.7783 Y-5.3795
G01 X29.8505 Y-5.3796
G01 X29.8414 Y-5.3805
G01 X29.8333 Y-5.3822
G01 X29.8246 Y-5.3852
G01 X29.8163 Y-5.3892
G01 X29.8086 Y-5.3943
G01 X29.8016 Y-5.4002
G01 X29.7953 Y-5.4069
G01 X29.7899 Y-5.4144
G01 X29.7851 Y-5.4233
G01 X29.7815 Y-5.4327
G01 X29.7793 Y-5.4426
G01 X29.7783 Y-5.4536
G01 X29.7783 Y-7.1295
G01 X29.5283 Y-7.1295
G01 X29.5283 Y-5.1295
G01 X30.7783 Y-5.1295
G00 Z2.0000
G00 X31.8574 Y-4.1258
G01 F70.00
G01 Z-0.0900
G01 F120.00
G01 X31.8665 Y-4.1116
G01 X31.8745 Y-4.0950
G01 X31.8805 Y-4.0776
G01 X31.8841 Y-4.0612
G01 X31.9487 Y-4.1258
G01 X31.8574 Y-4.1258
G00 Z2.0000
G00 X32.0539 Y-4.1249
G01 F70.00
G01 Z-0.0900
G01 F120.00
G01 X32.0588 Y-4.1305
G01 X32.0622 Y-4.1359
G01 X32.0666 Y-4.1481
G01 X32.0672 Y-4.1610
G01 X32.0641 Y-4.1736
G01 X32.0574 Y-4.1846
G01 X32.0479 Y-4.1933
G01 X32.0362 Y-4.1988
G01 X32.0299 Y-4.2003
G01 X32.0225 Y-4.2008
G01 X30.6879 Y-4.2007
G01 X30.6815 Y-4.1999
G01 X30.6732 Y-4.1974
G01 X30.6656 Y-4.1933
G01 X30.6590 Y-4.1878
G01 X30.6535 Y-4.1812
G01 X30.6494 Y-4.1736
G01 X30.6469 Y-4.1653
G01 X30.6461 Y-4.1567
G01 X30.6469 Y-4.1481
G01 X30.6494 Y-4.1398
G01 X30.6535 Y-4.1322
G01 X30.6590 Y-4.1256
G01 X30.6656 Y-4.1201
G01 X30.6732 Y-4.1160
G01 X30.6815 Y-4.1135
G01 X30.6879 Y-4.1127
G01 X31.7369 Y-4.1126
G01 X31.7470 Y-4.1118
G01 X31.7569 Y-4.1097
G01 X31.7664 Y-4.1062
G01 X31.7753 Y-4.1015
G01 X31.7863 Y-4.0932
G01 X31.7962 Y-4.0823
G01 X31.8034 Y-4.0705
G01 X31.8082 Y-4.0576
G01 X31.8107 Y-4.0441
G01 X31.8106 Y-4.0303
G01 X31.8080 Y-4.0168
G01 X31.8025 Y-4.0031
G01 X31.7967 Y-3.9937
G01 X31.7896 Y-3.9853
G01 X31.4880 Y-3.6829
G01 X31.4827 Y-3.6736
G01 X31.4796 Y-3.6610
G01 X31.4802 Y-3.6481
G01 X31.4846 Y-3.6359
G01 X31.4923 Y-3.6256
G01 X31.5008 Y-3.6189
G01 X31.5127 Y-3.6140
G01 X31.5234 Y-3.6127
G01 X31.5320 Y-3.6135
G01 X31.5403 Y-3.6160
G01 X31.5479 Y-3.6201
G01 X31.5552 Y-3.6262
G01 X32.0539 Y-4.1249
G00 Z2.0000
G00 X32.9947 Y-5.2795
G01 F70.00
G01 Z-0.0900
G01 F120.00
G01 X33.0283 Y-5.2795
G01 X33.0283 Y-5.3131
G01 X33.0124 Y-5.2954
G01 X32.9947 Y-5.2795
G00 Z2.0000
G00 X34.2820 Y-5.3131
G01 F70.00
G01 Z-0.0900
G01 F120.00
G01 X34.2820 Y-5.2795
G01 X34.3156 Y-5.2795
G01 X34.2979 Y-5.2954
G01 X34.2820 Y-5.3131
G00 Z2.0000
G00 X35.3070 Y-5.2045
G01 F70.00
G01 Z-0.0900
G01 F120.00
G01 X35.3070 Y-5.3045
G01 X34.4460 Y-5.3049
G01 X34.4277 Y-5.3074
G01 X34.4099 Y-5.3121
G01 X34.3929 Y-5.3189
G01 X34.3783 Y-5.3268
G01 X34.3633 Y-5.3374
G01 X34.3496 Y-5.3497
G01 X34.3376 Y-5.3637
G01 X34.3283 Y-5.3774
G01 X34.3191 Y-5.3954
G01 X34.3129 Y-5.4127
G01 X34.3086 Y-5.4325
G01 X34.3070 Y-5.4527
G01 X34.3070 Y-7.0545
G01 X34.2070 Y-7.0545
G01 X34.2070 Y-5.2045
G01 X35.3070 Y-5.2045
G00 Z2.0000
G00 X35.3820 Y-5.1295
G01 F70.00
G01 Z-0.0900
G01 F120.00
G01 X35.3820 Y-5.3795
G01 X34.4542 Y-5.3796
G01 X34.4451 Y-5.3805
G01 X34.4361 Y-5.3825
G01 X34.4275 Y-5.3856
G01 X34.4192 Y-5.3897
G01 X34.4116 Y-5.3948
G01 X34.4046 Y-5.4008
G01 X34.3984 Y-5.4076
G01 X34.3936 Y-5.4144
G01 X34.3888 Y-5.4233
G01 X34.3852 Y-5.4327
G01 X34.3828 Y-5.4435
G01 X34.3820 Y-5.4536
G01 X34.3820 Y-7.1295
G01 X34.1320 Y-7.1295
G01 X34.1320 Y-5.1295
G01 X35.3820 Y-5.1295
G00 Z2.0000
G00 X35.5447 Y-4.3420
G01 F70.00
G01 Z-0.0900
G01 F120.00
G01 X35.5331 Y-4.3406
G01 X35.5269 Y-4.3386
G01 X35.5203 Y-4.3352
G01 X35.3553 Y-4.2361
G01 X35.3493 Y-4.2319
G01 X35.3446 Y-4.2275
G01 X35.3395 Y-4.2206
G01 X35.3362 Y-4.2140
G01 X35.2511 Y-4.0087
G01 X35.2497 Y-3.9970
G01 X35.2497 Y-3.7988
G01 X35.2506 Y-3.7893
G01 X35.2535 Y-3.7801
G01 X35.3362 Y-3.5818
G01 X35.3419 Y-3.5716
G01 X35.3510 Y-3.5625
G01 X35.5203 Y-3.4606
G01 X35.5289 Y-3.4564
G01 X35.5395 Y-3.4541
G01 X36.3763 Y-3.4538
G01 X36.3879 Y-3.4552
G01 X36.3941 Y-3.4572
G01 X36.4007 Y-3.4606
G01 X36.5657 Y-3.5597
G01 X36.5734 Y-3.5653
G01 X36.5791 Y-3.5716
G01 X36.5848 Y-3.5818
G01 X36.6675 Y-3.7801
G01 X36.6704 Y-3.7893
G01 X36.6713 Y-3.7988
G01 X36.6713 Y-3.9970
G01 X36.6704 Y-4.0065
G01 X36.6675 Y-4.0157
G01 X36.5848 Y-4.2140
G01 X36.5791 Y-4.2242
G01 X36.5700 Y-4.2333
G01 X36.4006 Y-4.3352
G01 X36.3920 Y-4.3394
G01 X36.3815 Y-4.3417
G01 X35.5447 Y-4.3420
G00 Z2.0000
G00 X36.3828 Y-4.2431
G01 F70.00
G01 Z-0.0900
G01 F120.00
G01 X36.4899 Y-4.1788
G01 X36.4993 Y-4.1715
G01 X36.5080 Y-4.1622
G01 X36.5137 Y-4.1538
G01 X36.5182 Y-4.1448
G01 X36.5777 Y-4.0021
G01 X36.5820 Y-3.9870
G01 X36.5831 Y-3.9750
G01 X36.5831 Y-3.8208
G01 X36.5826 Y-3.8125
G01 X36.5809 Y-3.8034
G01 X36.5774 Y-3.7929
G01 X36.5163 Y-3.6468
G01 X36.5108 Y-3.6373
G01 X36.5045 Y-3.6294
G01 X36.4965 Y-3.6219
G01 X36.4884 Y-3.6160
G01 X36.3796 Y-3.5508
G01 X36.3651 Y-3.5449
G01 X36.3507 Y-3.5422
G01 X35.5749 Y-3.5420
G01 X35.5658 Y-3.5428
G01 X35.5568 Y-3.5447
G01 X35.5481 Y-3.5477
G01 X35.5390 Y-3.5522
G01 X35.4303 Y-3.6175
G01 X35.4177 Y-3.6281
G01 X35.4082 Y-3.6404
G01 X35.4028 Y-3.6510
G01 X35.3436 Y-3.7929
G01 X35.3395 Y-3.8061
G01 X35.3379 Y-3.8208
G01 X35.3380 Y-3.9778
G01 X35.3395 Y-3.9897
G01 X35.3429 Y-4.0012
G01 X35.4043 Y-4.1482
G01 X35.4097 Y-4.1577
G01 X35.4165 Y-4.1664
G01 X35.4245 Y-4.1739
G01 X35.4326 Y-4.1798
G01 X35.5414 Y-4.2450
G01 X35.5568 Y-4.2511
G01 X35.5722 Y-4.2537
G01 X36.3451 Y-4.2538
G01 X36.3543 Y-4.2532
G01 X36.3642 Y-4.2511
G01 X36.3738 Y-4.2478
G01 X36.3828 Y-4.2431
G00 Z2.0000
G00 X37.5984 Y-5.2795
G01 F70.00
G01 Z-0.0900
G01 F120.00
G01 X37.6320 Y-5.2795
G01 X37.6320 Y-5.3131
G01 X37.6161 Y-5.2954
G01 X37.5984 Y-5.2795
G00 Z2.0000
G00 X38.8387 Y-4.5158
G01 F70.00
G01 Z-0.0900
G01 F120.00
G01 X38.8546 Y-4.5335
G01 X38.8723 Y-4.5494
G01 X38.8387 Y-4.5494
G01 X38.8387 Y-4.5158
G00 Z2.0000
G00 X38.7637 Y-3.8578
G01 F70.00
G01 Z-0.0900
G01 F120.00
G01 X38.8637 Y-3.8578
G01 X38.8641 Y-4.3854
G01 X38.8659 Y-4.4000
G01 X38.8687 Y-4.4126
G01 X38.8725 Y-4.4249
G01 X38.8773 Y-4.4369
G01 X38.8832 Y-4.4483
G01 X38.8900 Y-4.4593
G01 X38.8977 Y-4.4696
G01 X38.9076 Y-4.4805
G01 X38.9171 Y-4.4892
G01 X38.9273 Y-4.4970
G01 X38.9398 Y-4.5049
G01 X38.9512 Y-4.5108
G01 X38.9632 Y-4.5156
G01 X38.9755 Y-4.5194
G01 X38.9881 Y-4.5222
G01 X39.0027 Y-4.5240
G01 X39.5303 Y-4.5244
G01 X39.5303 Y-4.6244
G01 X38.7637 Y-4.6244
G01 X38.7637 Y-3.8578
G00 Z2.0000
G00 X38.6887 Y-3.7828
G01 F70.00
G01 Z-0.0900
G01 F120.00
G01 X38.9387 Y-3.7828
G01 X38.9388 Y-4.3772
G01 X38.9405 Y-4.3908
G01 X38.9448 Y-4.4039
G01 X38.9513 Y-4.4161
G01 X38.9607 Y-4.4274
G01 X38.9713 Y-4.4362
G01 X38.9833 Y-4.4430
G01 X38.9973 Y-4.4476
G01 X39.0109 Y-4.4493
G01 X39.6053 Y-4.4494
G01 X39.6053 Y-4.6994
G01 X38.6887 Y-4.6994
G01 X38.6887 Y-3.7828
G00 Z2.0000
G00 X38.8387 Y-2.2330
G01 F70.00
G01 Z-0.0900
G01 F120.00
G01 X38.8387 Y-2.1994
G01 X38.8723 Y-2.1994
G01 X38.8546 Y-2.2153
G01 X38.8387 Y-2.2330
G00 Z2.0000
G00 X39.5303 Y-2.1244
G01 F70.00
G01 Z-0.0900
G01 F120.00
G01 X39.5303 Y-2.2244
G01 X39.0027 Y-2.2248
G01 X38.9899 Y-2.2263
G01 X38.9755 Y-2.2294
G01 X38.9632 Y-2.2332
G01 X38.9512 Y-2.2380
G01 X38.9382 Y-2.2448
G01 X38.9273 Y-2.2518
G01 X38.9171 Y-2.2596
G01 X38.9076 Y-2.2683
G01 X38.8977 Y-2.2792
G01 X38.8900 Y-2.2895
G01 X38.8832 Y-2.3005
G01 X38.8773 Y-2.3119
G01 X38.8719 Y-2.3256
G01 X38.8682 Y-2.3380
G01 X38.8656 Y-2.3506
G01 X38.8641 Y-2.3634
G01 X38.8637 Y-2.8911
G01 X38.7637 Y-2.8911
G01 X38.7637 Y-2.1244
G01 X39.5303 Y-2.1244
G00 Z2.0000
G00 X39.6053 Y-2.0494
G01 F70.00
G01 Z-0.0900
G01 F120.00
G01 X39.6053 Y-2.2994
G01 X39.0109 Y-2.2995
G01 X38.9973 Y-2.3012
G01 X38.9842 Y-2.3055
G01 X38.9720 Y-2.3120
G01 X38.9607 Y-2.3214
G01 X38.9513 Y-2.3327
G01 X38.9448 Y-2.3449
G01 X38.9405 Y-2.3580
G01 X38.9388 Y-2.3716
G01 X38.9387 Y-2.9661
G01 X38.6887 Y-2.9661
G01 X38.6887 Y-2.0494
G01 X39.6053 Y-2.0494
G00 Z2.0000
G00 X41.1887 Y-2.2330
G01 F70.00
G01 Z-0.0900
G01 F120.00
G01 X41.1728 Y-2.2153
G01 X41.1551 Y-2.1994
G01 X41.1887 Y-2.1994
G01 X41.1887 Y-2.2330
G00 Z2.0000
G00 X41.4853 Y-2.7758
G01 F70.00
G01 Z-0.0900
G01 F120.00
G01 X41.4721 Y-2.7994
G01 X41.4475 Y-2.8482
G01 X41.4209 Y-2.9082
G01 X41.3985 Y-2.9669
G01 X41.3814 Y-3.0188
G01 X41.3661 Y-3.0741
G01 X41.3522 Y-3.1354
G01 X41.3412 Y-3.2001
G01 X41.3346 Y-3.2543
G01 X41.3305 Y-3.3088
G01 X41.3287 Y-3.3744
G01 X41.3305 Y-3.4400
G01 X41.3346 Y-3.4945
G01 X41.3412 Y-3.5487
G01 X41.3522 Y-3.6134
G01 X41.3661 Y-3.6747
G01 X41.3831 Y-3.7353
G01 X41.4003 Y-3.7871
G01 X41.4209 Y-3.8406
G01 X41.4475 Y-3.9006
G01 X41.4721 Y-3.9494
G01 X41.4853 Y-3.9730
G01 X41.4684 Y-3.9681
G01 X41.4522 Y-3.9647
G01 X41.4358 Y-3.9624
G01 X41.4192 Y-3.9614
G01 X41.3999 Y-3.9618
G01 X41.3834 Y-3.9634
G01 X41.3671 Y-3.9662
G01 X41.3510 Y-3.9703
G01 X41.3327 Y-3.9764
G01 X41.3175 Y-3.9830
G01 X41.3028 Y-3.9906
G01 X41.2887 Y-3.9993
G01 X41.2753 Y-4.0090
G01 X41.2626 Y-4.0196
G01 X41.2507 Y-4.0312
G01 X41.2387 Y-4.0449
G01 X41.2387 Y-2.7039
G01 X41.2507 Y-2.7176
G01 X41.2626 Y-2.7292
G01 X41.2753 Y-2.7398
G01 X41.2887 Y-2.7495
G01 X41.3028 Y-2.7582
G01 X41.3175 Y-2.7658
G01 X41.3353 Y-2.7733
G01 X41.3510 Y-2.7785
G01 X41.3671 Y-2.7826
G01 X41.3834 Y-2.7854
G01 X41.3999 Y-2.7870
G01 X41.4192 Y-2.7874
G01 X41.4358 Y-2.7864
G01 X41.4522 Y-2.7841
G01 X41.4684 Y-2.7807
G01 X41.4853 Y-2.7758
G00 Z2.0000
G00 X41.3610 Y-2.8578
G01 F70.00
G01 Z-0.0900
G01 F120.00
G01 X41.3513 Y-2.8803
G01 X41.3310 Y-2.9330
G01 X41.3137 Y-2.9846
G01 X41.3137 Y-2.8453
G01 X41.3372 Y-2.8525
G01 X41.3610 Y-2.8578
G00 Z2.0000
G00 X41.3137 Y-3.7642
G01 F70.00
G01 Z-0.0900
G01 F120.00
G01 X41.3310 Y-3.8158
G01 X41.3513 Y-3.8685
G01 X41.3610 Y-3.8910
G01 X41.3372 Y-3.8963
G01 X41.3137 Y-3.9035
G01 X41.3137 Y-3.7642
G00 Z2.0000
G00 X41.1887 Y-4.5158
G01 F70.00
G01 Z-0.0900
G01 F120.00
G01 X41.1887 Y-4.5494
G01 X41.1551 Y-4.5494
G01 X41.1728 Y-4.5335
G01 X41.1887 Y-4.5158
G00 Z2.0000
G00 X42.0786 Y-6.2044
G01 F70.00
G01 Z-0.0900
G01 F120.00
G01 X42.0786 Y-6.2762
G01 X42.0631 Y-6.2875
G01 X42.0506 Y-6.2984
G01 X42.0389 Y-6.3101
G01 X42.0280 Y-6.3227
G01 X42.0287 Y-6.3073
G01 X42.0287 Y-6.2501
G01 X42.0418 Y-6.2406
G01 X42.0545 Y-6.2299
G01 X42.0663 Y-6.2183
G01 X42.0786 Y-6.2044
G00 Z2.0000
G00 X41.9794 Y-6.4450
G01 F70.00
G01 Z-0.0900
G01 F120.00
G01 X41.9787 Y-6.4795
G01 X41.9451 Y-6.4795
G01 X41.9628 Y-6.4636
G01 X41.9794 Y-6.4450
G00 Z2.0000
G00 X40.9660 Y-6.5295
G01 F70.00
G01 Z-0.0900
G01 F120.00
G01 X40.9464 Y-6.5474
G01 X40.9300 Y-6.5661
G01 X40.9158 Y-6.5865
G01 X40.9040 Y-6.6083
G01 X40.8946 Y-6.6313
G01 X40.8879 Y-6.6552
G01 X40.8838 Y-6.6797
G01 X40.8824 Y-6.7045
G01 X40.8827 Y-8.3155
G01 X40.8853 Y-8.3402
G01 X40.8898 Y-8.3618
G01 X40.8975 Y-8.3855
G01 X40.9064 Y-8.4057
G01 X40.9188 Y-8.4272
G01 X40.9317 Y-8.4451
G01 X40.9483 Y-8.4636
G01 X40.9659 Y-8.4794
G01 X40.6488 Y-8.4794
G01 X40.6684 Y-8.4615
G01 X40.6848 Y-8.4428
G01 X40.6990 Y-8.4224
G01 X40.7108 Y-8.4006
G01 X40.7202 Y-8.3776
G01 X40.7269 Y-8.3537
G01 X40.7310 Y-8.3292
G01 X40.7324 Y-8.3044
G01 X40.7321 Y-6.6934
G01 X40.7295 Y-6.6687
G01 X40.7250 Y-6.6471
G01 X40.7183 Y-6.6260
G01 X40.7084 Y-6.6032
G01 X40.6960 Y-6.5817
G01 X40.6831 Y-6.5638
G01 X40.6665 Y-6.5453
G01 X40.6489 Y-6.5295
G01 X40.9660 Y-6.5295
G00 Z2.0000
G00 X40.8246 Y-6.6045
G01 F70.00
G01 Z-0.0900
G01 F120.00
G01 X40.8173 Y-6.6280
G01 X40.8118 Y-6.6532
G01 X40.8085 Y-6.6788
G01 X40.8074 Y-6.7045
G01 X40.8074 Y-8.3082
G01 X40.8085 Y-8.3302
G01 X40.8118 Y-8.3558
G01 X40.8173 Y-8.3810
G01 X40.8245 Y-8.4044
G01 X40.7902 Y-8.4044
G01 X40.7975 Y-8.3809
G01 X40.8030 Y-8.3557
G01 X40.8063 Y-8.3301
G01 X40.8074 Y-8.3044
G01 X40.8074 Y-6.7007
G01 X40.8063 Y-6.6787
G01 X40.8030 Y-6.6531
G01 X40.7975 Y-6.6279
G01 X40.7903 Y-6.6045
G01 X40.8246 Y-6.6045
G00 Z2.0000
G00 X39.5658 Y-6.3794
G01 F70.00
G01 Z-0.0900
G01 F120.00
G01 X39.5658 Y-6.6294
G01 X39.2000 Y-6.6298
G01 X39.1910 Y-6.6312
G01 X39.1821 Y-6.6338
G01 X39.1737 Y-6.6374
G01 X39.1657 Y-6.6420
G01 X39.1584 Y-6.6476
G01 X39.1512 Y-6.6547
G01 X39.1456 Y-6.6620
G01 X39.1408 Y-6.6699
G01 X39.1371 Y-6.6783
G01 X39.1346 Y-6.6862
G01 X39.1330 Y-6.6952
G01 X39.1324 Y-6.7035
G01 X39.1324 Y-7.2128
G01 X38.8824 Y-7.2128
G01 X38.8824 Y-6.3794
G01 X39.5658 Y-6.3794
G00 Z2.0000
G00 X39.4908 Y-6.4544
G01 F70.00
G01 Z-0.0900
G01 F120.00
G01 X39.4908 Y-6.5544
G01 X39.2074 Y-6.5544
G01 X39.1854 Y-6.5560
G01 X39.1727 Y-6.5585
G01 X39.1586 Y-6.5626
G01 X39.1449 Y-6.5680
G01 X39.1319 Y-6.5748
G01 X39.1210 Y-6.5818
G01 X39.1094 Y-6.5908
G01 X39.0988 Y-6.6010
G01 X39.0891 Y-6.6121
G01 X39.0769 Y-6.6305
G01 X39.0675 Y-6.6504
G01 X39.0607 Y-6.6733
G01 X39.0577 Y-6.6952
G01 X39.0574 Y-7.1378
G01 X38.9574 Y-7.1378
G01 X38.9574 Y-6.4544
G01 X39.4908 Y-6.4544
G00 Z2.0000
G00 X39.0324 Y-6.5630
G01 F70.00
G01 Z-0.0900
G01 F120.00
G01 X39.0324 Y-6.5294
G01 X39.0660 Y-6.5294
G01 X39.0483 Y-6.5453
G01 X39.0324 Y-6.5630
G00 Z2.0000
G00 X38.8824 Y-7.7961
G01 F70.00
G01 Z-0.0900
G01 F120.00
G01 X39.1324 Y-7.7961
G01 X39.1324 Y-8.3053
G01 X39.1330 Y-8.3136
G01 X39.1346 Y-8.3226
G01 X39.1374 Y-8.3314
G01 X39.1408 Y-8.3389
G01 X39.1456 Y-8.3468
G01 X39.1512 Y-8.3541
G01 X39.1577 Y-8.3606
G01 X39.1650 Y-8.3662
G01 X39.1729 Y-8.3710
G01 X39.1813 Y-8.3747
G01 X39.1910 Y-8.3776
G01 X39.2000 Y-8.3790
G01 X39.5658 Y-8.3794
G01 X39.5658 Y-8.6294
G01 X38.8824 Y-8.6294
G01 X38.8824 Y-7.7961
G00 Z2.0000
G00 X38.9574 Y-7.8711
G01 F70.00
G01 Z-0.0900
G01 F120.00
G01 X39.0574 Y-7.8711
G01 X39.0577 Y-8.3136
G01 X39.0610 Y-8.3373
G01 X39.0675 Y-8.3584
G01 X39.0769 Y-8.3783
G01 X39.0891 Y-8.3967
G01 X39.0975 Y-8.4065
G01 X39.1080 Y-8.4168
G01 X39.1195 Y-8.4260
G01 X39.1319 Y-8.4340
G01 X39.1433 Y-8.4400
G01 X39.1569 Y-8.4456
G01 X39.1710 Y-8.4499
G01 X39.1854 Y-8.4528
G01 X39.2074 Y-8.4544
G01 X39.4908 Y-8.4544
G01 X39.4908 Y-8.5544
G01 X38.9574 Y-8.5544
G01 X38.9574 Y-7.8711
G00 Z2.0000
G00 X39.0324 Y-8.4458
G01 F70.00
G01 Z-0.0900
G01 F120.00
G01 X39.0483 Y-8.4635
G01 X39.0660 Y-8.4794
G01 X39.0324 Y-8.4794
G01 X39.0324 Y-8.4458
G00 Z2.0000
G00 X37.7820 Y-7.1295
G01 F70.00
G01 Z-0.0900
G01 F120.00
G01 X37.5320 Y-7.1295
G01 X37.5320 Y-5.4536
G01 X37.5312 Y-5.4435
G01 X37.5288 Y-5.4327
G01 X37.5252 Y-5.4233
G01 X37.5204 Y-5.4144
G01 X37.5150 Y-5.4069
G01 X37.5087 Y-5.4002
G01 X37.5017 Y-5.3943
G01 X37.4940 Y-5.3892
G01 X37.4865 Y-5.3856
G01 X37.4779 Y-5.3825
G01 X37.4689 Y-5.3805
G01 X37.4598 Y-5.3796
G01 X36.5320 Y-5.3795
G01 X36.5320 Y-5.1295
G01 X37.7820 Y-5.1295
G01 X37.7820 Y-7.1295
G00 Z2.0000
G00 X37.7070 Y-7.0545
G01 F70.00
G01 Z-0.0900
G01 F120.00
G01 X37.6070 Y-7.0545
G01 X37.6070 Y-5.4527
G01 X37.6054 Y-5.4325
G01 X37.6011 Y-5.4127
G01 X37.5941 Y-5.3937
G01 X37.5857 Y-5.3774
G01 X37.5753 Y-5.3622
G01 X37.5644 Y-5.3497
G01 X37.5507 Y-5.3374
G01 X37.5357 Y-5.3268
G01 X37.5195 Y-5.3181
G01 X37.5023 Y-5.3115
G01 X37.4845 Y-5.3070
G01 X37.4680 Y-5.3049
G01 X36.6070 Y-5.3045
G01 X36.6070 Y-5.2045
G01 X37.7070 Y-5.2045
G01 X37.7070 Y-7.0545
G00 Z2.0000
G00 X41.1074 Y-8.3795
G01 F70.00
G01 Z-0.0900
G01 F120.00
G01 X42.1287 Y-8.3795
G01 X42.1287 Y-8.6632
G01 X42.1298 Y-8.6760
G01 X42.1328 Y-8.6876
G01 X42.1371 Y-8.6977
G01 X42.1429 Y-8.7071
G01 X42.1507 Y-8.7162
G01 X42.1598 Y-8.7240
G01 X42.1700 Y-8.7302
G01 X42.1802 Y-8.7344
G01 X42.1918 Y-8.7372
G01 X42.2037 Y-8.7382
G01 X42.9092 Y-8.7380
G01 X42.9201 Y-8.7364
G01 X42.9315 Y-8.7328
G01 X42.9423 Y-8.7275
G01 X42.9520 Y-8.7206
G01 X42.9599 Y-8.7129
G01 X42.9671 Y-8.7033
G01 X42.9726 Y-8.6927
G01 X42.9762 Y-8.6823
G01 X42.9780 Y-8.6733
G01 X42.9787 Y-8.6632
G01 X42.9787 Y-6.4614
G01 X42.9779 Y-6.4522
G01 X42.9762 Y-6.4441
G01 X42.9703 Y-6.4287
G01 X42.9611 Y-6.4149
G01 X42.9554 Y-6.4089
G01 X42.9484 Y-6.4030
G01 X42.9349 Y-6.3950
G01 X42.9192 Y-6.3898
G01 X42.9065 Y-6.3883
G01 X42.8788 Y-6.3882
G01 X42.8788 Y-4.3988
G01 X42.9159 Y-4.3866
G01 X42.9651 Y-4.3676
G01 X43.0133 Y-4.3462
G01 X43.0588 Y-4.3233
G01 X43.1079 Y-4.2955
G01 X43.1509 Y-4.2682
G01 X43.1933 Y-4.2384
G01 X43.2371 Y-4.2042
G01 X43.2756 Y-4.1709
G01 X43.3138 Y-4.1345
G01 X43.3502 Y-4.0963
G01 X43.3835 Y-4.0578
G01 X43.4177 Y-4.0140
G01 X43.4475 Y-3.9716
G01 X43.4748 Y-3.9286
G01 X43.5026 Y-3.8795
G01 X43.5255 Y-3.8340
G01 X43.5469 Y-3.7858
G01 X43.5659 Y-3.7366
G01 X43.5819 Y-3.6882
G01 X43.5969 Y-3.6338
G01 X43.6080 Y-3.5841
G01 X43.6171 Y-3.5321
G01 X43.6235 Y-3.4798
G01 X43.6273 Y-3.4290
G01 X43.6287 Y-3.3735
G01 X43.6274 Y-3.3217
G01 X43.6237 Y-3.2709
G01 X43.6168 Y-3.2148
G01 X43.6080 Y-3.1647
G01 X43.5965 Y-3.1132
G01 X43.5824 Y-3.0623
G01 X43.5665 Y-3.0140
G01 X43.5461 Y-2.9613
G01 X43.5255 Y-2.9148
G01 X43.5018 Y-2.8676
G01 X43.4748 Y-2.8202
G01 X43.4475 Y-2.7772
G01 X43.4171 Y-2.7340
G01 X43.3835 Y-2.6910
G01 X43.3502 Y-2.6525
G01 X43.3138 Y-2.6143
G01 X43.2756 Y-2.5779
G01 X43.2371 Y-2.5446
G01 X43.1926 Y-2.5099
G01 X43.1509 Y-2.4806
G01 X43.1079 Y-2.4533
G01 X43.0588 Y-2.4255
G01 X43.0133 Y-2.4026
G01 X42.9651 Y-2.3812
G01 X42.9159 Y-2.3622
G01 X42.8788 Y-2.3500
G01 X42.8788 Y-1.7945
G01 X52.2298 Y-1.7945
G01 X52.2298 Y-4.0269
G01 X49.9506 Y-6.1543
G01 X49.9300 Y-6.1755
G01 X49.9104 Y-6.2000
G01 X49.8933 Y-6.2262
G01 X49.8780 Y-6.2556
G01 X49.8669 Y-6.2830
G01 X49.8576 Y-6.3148
G01 X49.8517 Y-6.3456
G01 X49.8499 Y-6.3612
G01 X49.8486 Y-6.3882
G01 X49.8219 Y-6.3882
G01 X49.8118 Y-6.3892
G01 X49.7984 Y-6.3926
G01 X49.7859 Y-6.3984
G01 X49.7733 Y-6.4076
G01 X49.7635 Y-6.4185
G01 X49.7559 Y-6.4311
G01 X49.7507 Y-6.4459
G01 X49.7492 Y-6.4549
G01 X49.7487 Y-6.4632
G01 X49.7487 Y-8.6632
G01 X49.7498 Y-8.6760
G01 X49.7531 Y-8.6885
G01 X49.7576 Y-8.6986
G01 X49.7635 Y-8.7079
G01 X49.7707 Y-8.7162
G01 X49.7790 Y-8.7234
G01 X49.7883 Y-8.7293
G01 X49.7984 Y-8.7338
G01 X49.8091 Y-8.7368
G01 X49.8200 Y-8.7381
G01 X50.5246 Y-8.7382
G01 X50.5347 Y-8.7374
G01 X50.5437 Y-8.7355
G01 X50.5532 Y-8.7321
G01 X50.5623 Y-8.7275
G01 X50.5698 Y-8.7223
G01 X50.5767 Y-8.7162
G01 X50.5834 Y-8.7086
G01 X50.5885 Y-8.7010
G01 X50.5926 Y-8.6927
G01 X50.5960 Y-8.6832
G01 X50.5980 Y-8.6733
G01 X50.5987 Y-8.6641
G01 X50.5987 Y-6.4632
G01 X50.5979 Y-6.4522
G01 X50.5956 Y-6.4417
G01 X52.7774 Y-4.4053
G01 X52.7892 Y-4.3936
G01 X52.8075 Y-4.3728
G01 X52.8281 Y-4.3445
G01 X52.8421 Y-4.3206
G01 X52.8499 Y-4.3049
G01 X52.8568 Y-4.2889
G01 X52.8662 Y-4.2618
G01 X52.8710 Y-4.2441
G01 X52.8766 Y-4.2151
G01 X52.8795 Y-4.1857
G01 X52.8800 Y-4.1682
G01 X52.8800 Y-1.4685
G01 X52.8786 Y-1.4394
G01 X52.8765 Y-1.4217
G01 X52.8734 Y-1.4042
G01 X52.8665 Y-1.3768
G01 X52.8610 Y-1.3599
G01 X52.8546 Y-1.3433
G01 X52.8425 Y-1.3178
G01 X52.8338 Y-1.3023
G01 X52.8242 Y-1.2873
G01 X52.8074 Y-1.2646
G01 X52.7848 Y-1.2395
G01 X52.7719 Y-1.2273
G01 X52.7500 Y-1.2094
G01 X52.7355 Y-1.1991
G01 X52.7205 Y-1.1896
G01 X52.6956 Y-1.1763
G01 X52.6793 Y-1.1690
G01 X52.6627 Y-1.1627
G01 X52.6357 Y-1.1545
G01 X52.6183 Y-1.1505
G01 X52.6008 Y-1.1475
G01 X52.5727 Y-1.1448
G01 X52.5558 Y-1.1443
G01 X42.5537 Y-1.1443
G01 X42.5359 Y-1.1448
G01 X42.5078 Y-1.1475
G01 X42.4903 Y-1.1505
G01 X42.4729 Y-1.1545
G01 X42.4459 Y-1.1627
G01 X42.4293 Y-1.1690
G01 X42.4021 Y-1.1818
G01 X42.3866 Y-1.1905
G01 X42.3600 Y-1.2083
G01 X42.3340 Y-1.2298
G01 X42.3141 Y-1.2497
G01 X42.3036 Y-1.2617
G01 X42.2834 Y-1.2888
G01 X42.2661 Y-1.3178
G01 X42.2540 Y-1.3433
G01 X42.2482 Y-1.3581
G01 X42.2383 Y-1.3904
G01 X42.2320 Y-1.4226
G01 X42.2291 Y-1.4516
G01 X42.2286 Y-1.4694
G01 X42.2286 Y-2.3500
G01 X42.1915 Y-2.3622
G01 X42.1423 Y-2.3812
G01 X42.0941 Y-2.4026
G01 X42.0486 Y-2.4255
G01 X41.9995 Y-2.4533
G01 X41.9565 Y-2.4806
G01 X41.9148 Y-2.5099
G01 X41.8703 Y-2.5446
G01 X41.8318 Y-2.5779
G01 X41.7936 Y-2.6143
G01 X41.7560 Y-2.6539
G01 X41.7227 Y-2.6924
G01 X41.6908 Y-2.7333
G01 X41.6589 Y-2.7787
G01 X41.6316 Y-2.8217
G01 X41.6056 Y-2.8676
G01 X41.5819 Y-2.9148
G01 X41.5613 Y-2.9613
G01 X41.5415 Y-3.0122
G01 X41.5250 Y-3.0623
G01 X41.5114 Y-3.1114
G01 X41.4994 Y-3.1647
G01 X41.4903 Y-3.2167
G01 X41.4841 Y-3.2672
G01 X41.4799 Y-3.3235
G01 X41.4787 Y-3.3744
G01 X41.4800 Y-3.4271
G01 X41.4839 Y-3.4798
G01 X41.4901 Y-3.5303
G01 X41.4997 Y-3.5859
G01 X41.5109 Y-3.6356
G01 X41.5245 Y-3.6847
G01 X41.5422 Y-3.7383
G01 X41.5605 Y-3.7858
G01 X41.5819 Y-3.8340
G01 X41.6056 Y-3.8812
G01 X41.6307 Y-3.9255
G01 X41.6609 Y-3.9732
G01 X41.6903 Y-4.0148
G01 X41.7227 Y-4.0564
G01 X41.7572 Y-4.0963
G01 X41.7923 Y-4.1332
G01 X41.8332 Y-4.1721
G01 X41.8717 Y-4.2054
G01 X41.9133 Y-4.2378
G01 X41.9565 Y-4.2682
G01 X41.9995 Y-4.2955
G01 X42.0486 Y-4.3233
G01 X42.0941 Y-4.3462
G01 X42.1423 Y-4.3676
G01 X42.1915 Y-4.3866
G01 X42.2286 Y-4.3988
G01 X42.2286 Y-6.3882
G01 X42.1936 Y-6.3889
G01 X42.1819 Y-6.3914
G01 X42.1708 Y-6.3958
G01 X42.1590 Y-6.4030
G01 X42.1488 Y-6.4122
G01 X42.1408 Y-6.4223
G01 X42.1344 Y-6.4345
G01 X42.1303 Y-6.4477
G01 X42.1287 Y-6.4614
G01 X42.1287 Y-6.6295
G01 X41.1046 Y-6.6296
G01 X41.0955 Y-6.6305
G01 X41.0856 Y-6.6327
G01 X41.0770 Y-6.6359
G01 X41.0688 Y-6.6402
G01 X41.0605 Y-6.6459
G01 X41.0537 Y-6.6521
G01 X41.0472 Y-6.6598
G01 X41.0421 Y-6.6675
G01 X41.0378 Y-6.6767
G01 X41.0349 Y-6.6854
G01 X41.0331 Y-6.6944
G01 X41.0324 Y-6.7045
G01 X41.0325 Y-8.3073
G01 X41.0344 Y-8.3218
G01 X41.0388 Y-8.3349
G01 X41.0461 Y-8.3477
G01 X41.0550 Y-8.3582
G01 X41.0657 Y-8.3669
G01 X41.0787 Y-8.3738
G01 X41.0928 Y-8.3781
G01 X41.1074 Y-8.3795
G00 Z2.0000
G00 X41.1074 Y-8.4545
G01 F70.00
G01 Z-0.0900
G01 F120.00
G01 X42.0537 Y-8.4545
G01 X42.0538 Y-8.6687
G01 X42.0566 Y-8.6925
G01 X42.0631 Y-8.7155
G01 X42.0714 Y-8.7339
G01 X42.0821 Y-8.7511
G01 X42.0951 Y-8.7666
G01 X42.1100 Y-8.7803
G01 X42.1266 Y-8.7919
G01 X42.1463 Y-8.8018
G01 X42.1655 Y-8.8082
G01 X42.1853 Y-8.8121
G01 X42.2037 Y-8.8132
G01 X42.9037 Y-8.8132
G01 X42.9221 Y-8.8121
G01 X42.9437 Y-8.8078
G01 X42.9645 Y-8.8003
G01 X42.9839 Y-8.7899
G01 X43.0017 Y-8.7768
G01 X43.0173 Y-8.7612
G01 X43.0304 Y-8.7434
G01 X43.0408 Y-8.7240
G01 X43.0483 Y-8.7032
G01 X43.0523 Y-8.6834
G01 X43.0537 Y-8.6632
G01 X43.0537 Y-6.4595
G01 X43.0512 Y-6.4357
G01 X43.0455 Y-6.4144
G01 X43.0368 Y-6.3941
G01 X43.0253 Y-6.3753
G01 X43.0111 Y-6.3584
G01 X42.9931 Y-6.3427
G01 X42.9744 Y-6.3309
G01 X42.9538 Y-6.3218
G01 X42.9538 Y-4.4523
G01 X42.9938 Y-4.4369
G01 X43.0454 Y-4.4140
G01 X43.0958 Y-4.3886
G01 X43.1417 Y-4.3626
G01 X43.1956 Y-4.3285
G01 X43.2388 Y-4.2981
G01 X43.2804 Y-4.2657
G01 X43.3287 Y-4.2240
G01 X43.3669 Y-4.1876
G01 X43.4058 Y-4.1467
G01 X43.4450 Y-4.1011
G01 X43.4774 Y-4.0595
G01 X43.5089 Y-4.0148
G01 X43.5419 Y-3.9624
G01 X43.5679 Y-3.9165
G01 X43.5933 Y-3.8661
G01 X43.6162 Y-3.8145
G01 X43.6352 Y-3.7653
G01 X43.6542 Y-3.7082
G01 X43.6692 Y-3.6538
G01 X43.6808 Y-3.6024
G01 X43.6913 Y-3.5431
G01 X43.6982 Y-3.4871
G01 X43.7021 Y-3.4345
G01 X43.7037 Y-3.3726
G01 X43.7023 Y-3.3180
G01 X43.6985 Y-3.2653
G01 X43.6913 Y-3.2057
G01 X43.6816 Y-3.1500
G01 X43.6701 Y-3.0986
G01 X43.6542 Y-3.0406
G01 X43.6365 Y-2.9870
G01 X43.6175 Y-2.9377
G01 X43.5933 Y-2.8827
G01 X43.5679 Y-2.8323
G01 X43.5419 Y-2.7864
G01 X43.5078 Y-2.7325
G01 X43.4774 Y-2.6893
G01 X43.4450 Y-2.6477
G01 X43.4058 Y-2.6021
G01 X43.3669 Y-2.5612
G01 X43.3287 Y-2.5248
G01 X43.2804 Y-2.4831
G01 X43.2388 Y-2.4507
G01 X43.1956 Y-2.4203
G01 X43.1417 Y-2.3862
G01 X43.0958 Y-2.3602
G01 X43.0454 Y-2.3348
G01 X42.9938 Y-2.3119
G01 X42.9538 Y-2.2965
G01 X42.9538 Y-1.8695
G01 X52.1548 Y-1.8695
G01 X52.1548 Y-3.9943
G01 X49.8895 Y-6.1091
G01 X49.8714 Y-6.1286
G01 X49.8497 Y-6.1560
G01 X49.8304 Y-6.1852
G01 X49.8192 Y-6.2051
G01 X49.8044 Y-6.2368
G01 X49.7956 Y-6.2599
G01 X49.7856 Y-6.2934
G01 X49.7800 Y-6.3197
G01 X49.7612 Y-6.3268
G01 X49.7435 Y-6.3365
G01 X49.7285 Y-6.3472
G01 X49.7138 Y-6.3611
G01 X49.7011 Y-6.3768
G01 X49.6906 Y-6.3941
G01 X49.6831 Y-6.4109
G01 X49.6773 Y-6.4303
G01 X49.6746 Y-6.4467
G01 X49.6737 Y-6.4632
G01 X49.6737 Y-8.6632
G01 X49.6744 Y-8.6779
G01 X49.6762 Y-8.6907
G01 X49.6796 Y-8.7050
G01 X49.6838 Y-8.7172
G01 X49.6923 Y-8.7355
G01 X49.7043 Y-8.7540
G01 X49.7176 Y-8.7693
G01 X49.7329 Y-8.7826
G01 X49.7514 Y-8.7946
G01 X49.7697 Y-8.8031
G01 X49.7890 Y-8.8091
G01 X49.8108 Y-8.8126
G01 X49.8237 Y-8.8132
G01 X50.5274 Y-8.8132
G01 X50.5475 Y-8.8113
G01 X50.5672 Y-8.8067
G01 X50.5845 Y-8.8003
G01 X50.6024 Y-8.7909
G01 X50.6174 Y-8.7803
G01 X50.6311 Y-8.7680
G01 X50.6431 Y-8.7540
G01 X50.6533 Y-8.7387
G01 X50.6616 Y-8.7223
G01 X50.6678 Y-8.7050
G01 X50.6718 Y-8.6870
G01 X50.6736 Y-8.6687
G01 X50.6737 Y-6.4714
G01 X52.8292 Y-4.4595
G01 X52.8442 Y-4.4446
G01 X52.8661 Y-4.4197
G01 X52.8789 Y-4.4029
G01 X52.8918 Y-4.3840
G01 X52.9077 Y-4.3570
G01 X52.9179 Y-4.3365
G01 X52.9269 Y-4.3154
G01 X52.9379 Y-4.2841
G01 X52.9443 Y-4.2602
G01 X52.9508 Y-4.2259
G01 X52.9535 Y-4.2031
G01 X52.9550 Y-4.1700
G01 X52.9550 Y-1.4676
G01 X52.9534 Y-1.4338
G01 X52.9507 Y-1.4107
G01 X52.9466 Y-1.3877
G01 X52.9388 Y-1.3568
G01 X52.9316 Y-1.3346
G01 X52.9231 Y-1.3129
G01 X52.9086 Y-1.2824
G01 X52.8971 Y-1.2621
G01 X52.8784 Y-1.2340
G01 X52.8654 Y-1.2170
G01 X52.8514 Y-1.2007
G01 X52.8352 Y-1.1839
G01 X52.8116 Y-1.1625
G01 X52.7933 Y-1.1480
G01 X52.7741 Y-1.1347
G01 X52.7467 Y-1.1183
G01 X52.7260 Y-1.1077
G01 X52.7063 Y-1.0990
G01 X52.6746 Y-1.0876
G01 X52.6539 Y-1.0817
G01 X52.6330 Y-1.0770
G01 X52.6100 Y-1.0731
G01 X52.5782 Y-1.0700
G01 X52.5567 Y-1.0693
G01 X42.5537 Y-1.0693
G01 X42.5304 Y-1.0700
G01 X42.4950 Y-1.0736
G01 X42.4720 Y-1.0777
G01 X42.4411 Y-1.0855
G01 X42.4189 Y-1.0927
G01 X42.3972 Y-1.1012
G01 X42.3667 Y-1.1157
G01 X42.3464 Y-1.1272
G01 X42.3299 Y-1.1377
G01 X42.3124 Y-1.1502
G01 X42.2970 Y-1.1625
G01 X42.2734 Y-1.1839
G01 X42.2572 Y-1.2007
G01 X42.2444 Y-1.2156
G01 X42.2210 Y-1.2471
G01 X42.2008 Y-1.2808
G01 X42.1920 Y-1.2983
G01 X42.1827 Y-1.3197
G01 X42.1758 Y-1.3381
G01 X42.1665 Y-1.3686
G01 X42.1616 Y-1.3895
G01 X42.1582 Y-1.4089
G01 X42.1552 Y-1.4338
G01 X42.1536 Y-1.4694
G01 X42.1536 Y-2.2965
G01 X42.1136 Y-2.3119
G01 X42.0654 Y-2.3333
G01 X42.0116 Y-2.3602
G01 X41.9625 Y-2.3880
G01 X41.9179 Y-2.4162
G01 X41.8672 Y-2.4518
G01 X41.8241 Y-2.4854
G01 X41.7842 Y-2.5199
G01 X41.7405 Y-2.5612
G01 X41.7016 Y-2.6021
G01 X41.6671 Y-2.6420
G01 X41.6289 Y-2.6908
G01 X41.5975 Y-2.7355
G01 X41.5692 Y-2.7800
G01 X41.5395 Y-2.8323
G01 X41.5141 Y-2.8827
G01 X41.4927 Y-2.9309
G01 X41.4709 Y-2.9870
G01 X41.4532 Y-3.0406
G01 X41.4391 Y-3.0914
G01 X41.4258 Y-3.1500
G01 X41.4161 Y-3.2057
G01 X41.4096 Y-3.2580
G01 X41.4050 Y-3.3198
G01 X41.4037 Y-3.3744
G01 X41.4049 Y-3.4271
G01 X41.4096 Y-3.4908
G01 X41.4161 Y-3.5431
G01 X41.4258 Y-3.5988
G01 X41.4382 Y-3.6538
G01 X41.4522 Y-3.7047
G01 X41.4722 Y-3.7653
G01 X41.4912 Y-3.8145
G01 X41.5141 Y-3.8661
G01 X41.5395 Y-3.9165
G01 X41.5655 Y-3.9624
G01 X41.5975 Y-4.0133
G01 X41.6300 Y-4.0595
G01 X41.6624 Y-4.1011
G01 X41.7016 Y-4.1467
G01 X41.7405 Y-4.1876
G01 X41.7787 Y-4.2240
G01 X41.8270 Y-4.2657
G01 X41.8686 Y-4.2981
G01 X41.9118 Y-4.3285
G01 X41.9657 Y-4.3626
G01 X42.0116 Y-4.3886
G01 X42.0620 Y-4.4140
G01 X42.1136 Y-4.4369
G01 X42.1536 Y-4.4523
G01 X42.1536 Y-6.3218
G01 X42.1396 Y-6.3276
G01 X42.1266 Y-6.3345
G01 X42.1143 Y-6.3427
G01 X42.1016 Y-6.3533
G01 X42.0913 Y-6.3638
G01 X42.0811 Y-6.3768
G01 X42.0723 Y-6.3909
G01 X42.0658 Y-6.4041
G01 X42.0582 Y-6.4268
G01 X42.0543 Y-6.4503
G01 X42.0537 Y-6.5545
G01 X41.0964 Y-6.5549
G01 X41.0763 Y-6.5578
G01 X41.0569 Y-6.5633
G01 X41.0400 Y-6.5705
G01 X41.0225 Y-6.5808
G01 X41.0067 Y-6.5934
G01 X40.9938 Y-6.6065
G01 X40.9827 Y-6.6212
G01 X40.9726 Y-6.6387
G01 X40.9662 Y-6.6540
G01 X40.9615 Y-6.6698
G01 X40.9585 Y-6.6861
G01 X40.9574 Y-6.7027
G01 X40.9578 Y-8.3155
G01 X40.9596 Y-8.3301
G01 X40.9624 Y-8.3427
G01 X40.9662 Y-8.3550
G01 X40.9718 Y-8.3686
G01 X40.9787 Y-8.3816
G01 X40.9858 Y-8.3924
G01 X40.9950 Y-8.4039
G01 X41.0053 Y-8.4144
G01 X41.0166 Y-8.4239
G01 X41.0272 Y-8.4312
G01 X41.0400 Y-8.4385
G01 X41.0517 Y-8.4438
G01 X41.0656 Y-8.4486
G01 X41.0799 Y-8.4520
G01 X41.0927 Y-8.4538
G01 X41.1074 Y-8.4545
G00 Z2.0000
G00 X41.9451 Y-8.5295
G01 F70.00
G01 Z-0.0900
G01 F120.00
G01 X41.9787 Y-8.5295
G01 X41.9787 Y-8.5631
G01 X41.9628 Y-8.5454
G01 X41.9451 Y-8.5295
G00 Z2.0000
G00 X42.0287 Y-8.8046
G01 F70.00
G01 Z-0.0900
G01 F120.00
G01 X42.0446 Y-8.8223
G01 X42.0623 Y-8.8382
G01 X42.0287 Y-8.8382
G01 X42.0287 Y-8.8046
G00 Z2.0000
G00 X43.1909 Y-8.7632
G01 F70.00
G01 Z-0.0900
G01 F120.00
G01 X43.1865 Y-8.7632
G01 X43.1887 Y-8.7569
G01 X43.1900 Y-8.7608
G01 X43.1909 Y-8.7632
G00 Z2.0000
G00 X43.3955 Y-8.9224
G01 F70.00
G01 Z-0.0900
G01 F120.00
G01 X43.3832 Y-8.9082
G01 X43.3692 Y-8.8948
G01 X43.3542 Y-8.8826
G01 X43.3406 Y-8.8732
G01 X43.3238 Y-8.8636
G01 X43.3088 Y-8.8565
G01 X43.2907 Y-8.8496
G01 X43.2721 Y-8.8443
G01 X43.2503 Y-8.8403
G01 X43.2256 Y-8.8383
G01 X43.0451 Y-8.8382
G01 X43.0628 Y-8.8223
G01 X43.0794 Y-8.8038
G01 X43.0938 Y-8.7836
G01 X43.1047 Y-8.7644
G01 X43.1146 Y-8.7416
G01 X43.1213 Y-8.7205
G01 X43.1263 Y-8.6962
G01 X43.1285 Y-8.6715
G01 X43.1287 Y-6.4604
G01 X43.1267 Y-6.4329
G01 X43.1213 Y-6.4059
G01 X43.1126 Y-6.3797
G01 X43.1021 Y-6.3571
G01 X43.0877 Y-6.3336
G01 X43.0704 Y-6.3121
G01 X43.0507 Y-6.2928
G01 X43.0288 Y-6.2762
G01 X43.0288 Y-6.2044
G01 X43.0411 Y-6.2183
G01 X43.0529 Y-6.2299
G01 X43.0678 Y-6.2423
G01 X43.0813 Y-6.2518
G01 X43.0955 Y-6.2603
G01 X43.1103 Y-6.2678
G01 X43.1256 Y-6.2741
G01 X43.1440 Y-6.2800
G01 X43.1683 Y-6.2853
G01 X43.1930 Y-6.2879
G01 X43.3323 Y-6.2882
G01 X43.3146 Y-6.3041
G01 X43.2980 Y-6.3226
G01 X43.2836 Y-6.3428
G01 X43.2727 Y-6.3620
G01 X43.2628 Y-6.3848
G01 X43.2561 Y-6.4059
G01 X43.2511 Y-6.4302
G01 X43.2489 Y-6.4549
G01 X43.2488 Y-8.6687
G01 X43.2511 Y-8.6962
G01 X43.2569 Y-8.7232
G01 X43.2609 Y-8.7364
G01 X43.2669 Y-8.7518
G01 X43.2793 Y-8.7765
G01 X43.2897 Y-8.7928
G01 X43.3015 Y-8.8081
G01 X43.3146 Y-8.8223
G01 X43.3288 Y-8.8354
G01 X43.3441 Y-8.8472
G01 X43.3604 Y-8.8576
G01 X43.3775 Y-8.8666
G01 X43.3956 Y-8.8742
G01 X43.3955 Y-8.9224
G00 Z2.0000
G00 X44.4587 Y-8.7569
G01 F70.00
G01 Z-0.0900
G01 F120.00
G01 X44.4609 Y-8.7632
G01 X44.4565 Y-8.7632
G01 X44.4574 Y-8.7608
G01 X44.4587 Y-8.7569
G00 Z2.0000
G00 X44.7437 Y-8.7382
G01 F70.00
G01 Z-0.0900
G01 F120.00
G01 X45.4492 Y-8.7380
G01 X45.4601 Y-8.7364
G01 X45.4715 Y-8.7328
G01 X45.4823 Y-8.7275
G01 X45.4920 Y-8.7206
G01 X45.4999 Y-8.7129
G01 X45.5071 Y-8.7033
G01 X45.5126 Y-8.6927
G01 X45.5162 Y-8.6823
G01 X45.5180 Y-8.6733
G01 X45.5187 Y-8.6632
G01 X45.5187 Y-6.4614
G01 X45.5180 Y-6.4531
G01 X45.5162 Y-6.4441
G01 X45.5103 Y-6.4287
G01 X45.5011 Y-6.4149
G01 X45.4954 Y-6.4089
G01 X45.4884 Y-6.4030
G01 X45.4749 Y-6.3950
G01 X45.4601 Y-6.3900
G01 X45.4474 Y-6.3883
G01 X45.4209 Y-6.3882
G01 X45.4245 Y-4.3969
G01 X45.4567 Y-4.3862
G01 X45.5059 Y-4.3672
G01 X45.5533 Y-4.3462
G01 X45.5996 Y-4.3229
G01 X45.6479 Y-4.2955
G01 X45.6909 Y-4.2682
G01 X45.7333 Y-4.2384
G01 X45.7771 Y-4.2042
G01 X45.8156 Y-4.1709
G01 X45.8538 Y-4.1345
G01 X45.8914 Y-4.0949
G01 X45.9247 Y-4.0564
G01 X45.9566 Y-4.0155
G01 X45.9885 Y-3.9701
G01 X46.0158 Y-3.9271
G01 X46.0418 Y-3.8812
G01 X46.0655 Y-3.8340
G01 X46.0861 Y-3.7875
G01 X46.1059 Y-3.7366
G01 X46.1229 Y-3.6847
G01 X46.1365 Y-3.6356
G01 X46.1480 Y-3.5841
G01 X46.1573 Y-3.5303
G01 X46.1635 Y-3.4798
G01 X46.1674 Y-3.4281
G01 X46.1687 Y-3.3744
G01 X46.1674 Y-3.3217
G01 X46.1635 Y-3.2690
G01 X46.1571 Y-3.2167
G01 X46.1480 Y-3.1647
G01 X46.1365 Y-3.1132
G01 X46.1224 Y-3.0623
G01 X46.1059 Y-3.0122
G01 X46.0869 Y-2.9630
G01 X46.0655 Y-2.9148
G01 X46.0418 Y-2.8676
G01 X46.0158 Y-2.8217
G01 X45.9875 Y-2.7772
G01 X45.9571 Y-2.7340
G01 X45.9247 Y-2.6924
G01 X45.8902 Y-2.6525
G01 X45.8538 Y-2.6143
G01 X45.8156 Y-2.5779
G01 X45.7757 Y-2.5434
G01 X45.7341 Y-2.5110
G01 X45.6909 Y-2.4806
G01 X45.6464 Y-2.4523
G01 X45.6005 Y-2.4263
G01 X45.5533 Y-2.4026
G01 X45.5051 Y-2.3812
G01 X45.4559 Y-2.3622
G01 X45.4058 Y-2.3457
G01 X45.3549 Y-2.3316
G01 X45.3034 Y-2.3201
G01 X45.2514 Y-2.3110
G01 X45.1991 Y-2.3046
G01 X45.1474 Y-2.3007
G01 X45.0937 Y-2.2994
G01 X45.0410 Y-2.3007
G01 X44.9883 Y-2.3046
G01 X44.9360 Y-2.3110
G01 X44.8840 Y-2.3201
G01 X44.8325 Y-2.3316
G01 X44.7816 Y-2.3457
G01 X44.7315 Y-2.3622
G01 X44.6823 Y-2.3812
G01 X44.6341 Y-2.4026
G01 X44.5869 Y-2.4263
G01 X44.5410 Y-2.4523
G01 X44.4965 Y-2.4806
G01 X44.4533 Y-2.5110
G01 X44.4117 Y-2.5434
G01 X44.3718 Y-2.5779
G01 X44.3336 Y-2.6143
G01 X44.2972 Y-2.6525
G01 X44.2627 Y-2.6924
G01 X44.2303 Y-2.7340
G01 X44.1999 Y-2.7772
G01 X44.1716 Y-2.8217
G01 X44.1456 Y-2.8676
G01 X44.1219 Y-2.9148
G01 X44.1005 Y-2.9630
G01 X44.0815 Y-3.0122
G01 X44.0650 Y-3.0623
G01 X44.0509 Y-3.1132
G01 X44.0394 Y-3.1647
G01 X44.0303 Y-3.2167
G01 X44.0239 Y-3.2690
G01 X44.0200 Y-3.3207
G01 X44.0187 Y-3.3744
G01 X44.0199 Y-3.4253
G01 X44.0241 Y-3.4816
G01 X44.0303 Y-3.5321
G01 X44.0394 Y-3.5841
G01 X44.0509 Y-3.6356
G01 X44.0645 Y-3.6847
G01 X44.0822 Y-3.7383
G01 X44.1005 Y-3.7858
G01 X44.1219 Y-3.8340
G01 X44.1456 Y-3.8812
G01 X44.1707 Y-3.9255
G01 X44.2009 Y-3.9732
G01 X44.2303 Y-4.0148
G01 X44.2627 Y-4.0564
G01 X44.2972 Y-4.0963
G01 X44.3323 Y-4.1332
G01 X44.3732 Y-4.1721
G01 X44.4117 Y-4.2054
G01 X44.4533 Y-4.2378
G01 X44.4965 Y-4.2682
G01 X44.5395 Y-4.2955
G01 X44.5886 Y-4.3233
G01 X44.6341 Y-4.3462
G01 X44.6823 Y-4.3676
G01 X44.7315 Y-4.3866
G01 X44.7742 Y-4.4007
G01 X44.7707 Y-6.3882
G01 X44.7409 Y-6.3883
G01 X44.7291 Y-6.3896
G01 X44.7133 Y-6.3946
G01 X44.6998 Y-6.4024
G01 X44.6927 Y-6.4083
G01 X44.6869 Y-6.4142
G01 X44.6819 Y-6.4208
G01 X44.6771 Y-6.4287
G01 X44.6734 Y-6.4371
G01 X44.6709 Y-6.4450
G01 X44.6694 Y-6.4531
G01 X44.6687 Y-6.4623
G01 X44.6688 Y-8.6660
G01 X44.6707 Y-8.6805
G01 X44.6751 Y-8.6936
G01 X44.6819 Y-8.7056
G01 X44.6913 Y-8.7169
G01 X44.7028 Y-8.7261
G01 X44.7159 Y-8.7328
G01 X44.7291 Y-8.7368
G01 X44.7437 Y-8.7382
G00 Z2.0000
G00 X45.5851 Y-8.8382
G01 F70.00
G01 Z-0.0900
G01 F120.00
G01 X45.6028 Y-8.8223
G01 X45.6194 Y-8.8038
G01 X45.6338 Y-8.7836
G01 X45.6447 Y-8.7644
G01 X45.6546 Y-8.7416
G01 X45.6613 Y-8.7205
G01 X45.6663 Y-8.6962
G01 X45.6685 Y-8.6715
G01 X45.6687 Y-6.4632
G01 X45.6673 Y-6.4384
G01 X45.6626 Y-6.4112
G01 X45.6546 Y-6.3848
G01 X45.6434 Y-6.3596
G01 X45.6292 Y-6.3359
G01 X45.6123 Y-6.3142
G01 X45.5927 Y-6.2946
G01 X45.5711 Y-6.2778
G01 X45.5713 Y-6.2041
G01 X45.5836 Y-6.2182
G01 X45.5955 Y-6.2298
G01 X45.6103 Y-6.2422
G01 X45.6239 Y-6.2517
G01 X45.6381 Y-6.2603
G01 X45.6554 Y-6.2689
G01 X45.6708 Y-6.2750
G01 X45.6866 Y-6.2800
G01 X45.7109 Y-6.2853
G01 X45.7357 Y-6.2879
G01 X45.8723 Y-6.2882
G01 X45.8546 Y-6.3041
G01 X45.8380 Y-6.3226
G01 X45.8236 Y-6.3428
G01 X45.8127 Y-6.3620
G01 X45.8028 Y-6.3848
G01 X45.7961 Y-6.4059
G01 X45.7911 Y-6.4302
G01 X45.7889 Y-6.4549
G01 X45.7887 Y-8.6632
G01 X45.7901 Y-8.6880
G01 X45.7942 Y-8.7125
G01 X45.8009 Y-8.7364
G01 X45.8103 Y-8.7594
G01 X45.8221 Y-8.7812
G01 X45.8363 Y-8.8016
G01 X45.8527 Y-8.8203
G01 X45.8723 Y-8.8382
G01 X45.5851 Y-8.8382
G00 Z2.0000
G00 X45.7265 Y-8.7632
G01 F70.00
G01 Z-0.0900
G01 F120.00
G01 X45.7274 Y-8.7608
G01 X45.7287 Y-8.7569
G01 X45.7309 Y-8.7632
G01 X45.7265 Y-8.7632
G00 Z2.0000
G00 X46.9987 Y-8.7569
G01 F70.00
G01 Z-0.0900
G01 F120.00
G01 X47.0000 Y-8.7608
G01 X47.0009 Y-8.7632
G01 X46.9965 Y-8.7632
G01 X46.9987 Y-8.7569
G00 Z2.0000
G00 X47.2837 Y-8.7382
G01 F70.00
G01 Z-0.0900
G01 F120.00
G01 X47.9892 Y-8.7380
G01 X48.0001 Y-8.7364
G01 X48.0115 Y-8.7328
G01 X48.0223 Y-8.7275
G01 X48.0320 Y-8.7206
G01 X48.0399 Y-8.7129
G01 X48.0471 Y-8.7033
G01 X48.0526 Y-8.6927
G01 X48.0562 Y-8.6823
G01 X48.0580 Y-8.6733
G01 X48.0587 Y-8.6632
G01 X48.0587 Y-6.4614
G01 X48.0580 Y-6.4531
G01 X48.0562 Y-6.4441
G01 X48.0503 Y-6.4287
G01 X48.0411 Y-6.4149
G01 X48.0354 Y-6.4089
G01 X48.0284 Y-6.4030
G01 X48.0149 Y-6.3950
G01 X48.0001 Y-6.3900
G01 X47.9874 Y-6.3883
G01 X47.9609 Y-6.3882
G01 X47.9645 Y-4.3969
G01 X47.9967 Y-4.3862
G01 X48.0459 Y-4.3672
G01 X48.0933 Y-4.3462
G01 X48.1396 Y-4.3229
G01 X48.1879 Y-4.2955
G01 X48.2309 Y-4.2682
G01 X48.2733 Y-4.2384
G01 X48.3171 Y-4.2042
G01 X48.3556 Y-4.1709
G01 X48.3938 Y-4.1345
G01 X48.4314 Y-4.0949
G01 X48.4647 Y-4.0564
G01 X48.4966 Y-4.0155
G01 X48.5285 Y-3.9701
G01 X48.5558 Y-3.9271
G01 X48.5818 Y-3.8812
G01 X48.6055 Y-3.8340
G01 X48.6261 Y-3.7875
G01 X48.6459 Y-3.7366
G01 X48.6629 Y-3.6847
G01 X48.6765 Y-3.6356
G01 X48.6880 Y-3.5841
G01 X48.6973 Y-3.5303
G01 X48.7035 Y-3.4798
G01 X48.7074 Y-3.4281
G01 X48.7087 Y-3.3744
G01 X48.7074 Y-3.3217
G01 X48.7035 Y-3.2690
G01 X48.6971 Y-3.2167
G01 X48.6880 Y-3.1647
G01 X48.6765 Y-3.1132
G01 X48.6624 Y-3.0623
G01 X48.6459 Y-3.0122
G01 X48.6269 Y-2.9630
G01 X48.6055 Y-2.9148
G01 X48.5818 Y-2.8676
G01 X48.5558 Y-2.8217
G01 X48.5275 Y-2.7772
G01 X48.4971 Y-2.7340
G01 X48.4647 Y-2.6924
G01 X48.4302 Y-2.6525
G01 X48.3938 Y-2.6143
G01 X48.3556 Y-2.5779
G01 X48.3157 Y-2.5434
G01 X48.2741 Y-2.5110
G01 X48.2309 Y-2.4806
G01 X48.1864 Y-2.4523
G01 X48.1405 Y-2.4263
G01 X48.0933 Y-2.4026
G01 X48.0451 Y-2.3812
G01 X47.9959 Y-2.3622
G01 X47.9458 Y-2.3457
G01 X47.8949 Y-2.3316
G01 X47.8434 Y-2.3201
G01 X47.7914 Y-2.3110
G01 X47.7391 Y-2.3046
G01 X47.6874 Y-2.3007
G01 X47.6337 Y-2.2994
G01 X47.5810 Y-2.3007
G01 X47.5283 Y-2.3046
G01 X47.4760 Y-2.3110
G01 X47.4240 Y-2.3201
G01 X47.3725 Y-2.3316
G01 X47.3216 Y-2.3457
G01 X47.2715 Y-2.3622
G01 X47.2223 Y-2.3812
G01 X47.1741 Y-2.4026
G01 X47.1269 Y-2.4263
G01 X47.0810 Y-2.4523
G01 X47.0365 Y-2.4806
G01 X46.9933 Y-2.5110
G01 X46.9517 Y-2.5434
G01 X46.9118 Y-2.5779
G01 X46.8736 Y-2.6143
G01 X46.8372 Y-2.6525
G01 X46.8027 Y-2.6924
G01 X46.7703 Y-2.7340
G01 X46.7399 Y-2.7772
G01 X46.7116 Y-2.8217
G01 X46.6856 Y-2.8676
G01 X46.6619 Y-2.9148
G01 X46.6405 Y-2.9630
G01 X46.6215 Y-3.0122
G01 X46.6050 Y-3.0623
G01 X46.5909 Y-3.1132
G01 X46.5794 Y-3.1647
G01 X46.5703 Y-3.2167
G01 X46.5639 Y-3.2690
G01 X46.5600 Y-3.3207
G01 X46.5587 Y-3.3744
G01 X46.5599 Y-3.4253
G01 X46.5641 Y-3.4816
G01 X46.5703 Y-3.5321
G01 X46.5794 Y-3.5841
G01 X46.5909 Y-3.6356
G01 X46.6045 Y-3.6847
G01 X46.6222 Y-3.7383
G01 X46.6405 Y-3.7858
G01 X46.6619 Y-3.8340
G01 X46.6856 Y-3.8812
G01 X46.7107 Y-3.9255
G01 X46.7409 Y-3.9732
G01 X46.7703 Y-4.0148
G01 X46.8027 Y-4.0564
G01 X46.8372 Y-4.0963
G01 X46.8723 Y-4.1332
G01 X46.9132 Y-4.1721
G01 X46.9517 Y-4.2054
G01 X46.9933 Y-4.2378
G01 X47.0365 Y-4.2682
G01 X47.0795 Y-4.2955
G01 X47.1286 Y-4.3233
G01 X47.1741 Y-4.3462
G01 X47.2223 Y-4.3676
G01 X47.2715 Y-4.3866
G01 X47.3142 Y-4.4007
G01 X47.3107 Y-6.3882
G01 X47.2809 Y-6.3883
G01 X47.2691 Y-6.3896
G01 X47.2533 Y-6.3946
G01 X47.2398 Y-6.4024
G01 X47.2327 Y-6.4083
G01 X47.2269 Y-6.4142
G01 X47.2219 Y-6.4208
G01 X47.2171 Y-6.4287
G01 X47.2134 Y-6.4371
G01 X47.2109 Y-6.4450
G01 X47.2094 Y-6.4531
G01 X47.2087 Y-6.4623
G01 X47.2088 Y-8.6660
G01 X47.2107 Y-8.6805
G01 X47.2151 Y-8.6936
G01 X47.2219 Y-8.7056
G01 X47.2313 Y-8.7169
G01 X47.2428 Y-8.7261
G01 X47.2559 Y-8.7328
G01 X47.2691 Y-8.7368
G01 X47.2837 Y-8.7382
G00 Z2.0000
G00 X48.2665 Y-8.7632
G01 F70.00
G01 Z-0.0900
G01 F120.00
G01 X48.2674 Y-8.7608
G01 X48.2687 Y-8.7569
G01 X48.2709 Y-8.7632
G01 X48.2665 Y-8.7632
G00 Z2.0000
G00 X48.5537 Y-8.7382
G01 F70.00
G01 Z-0.0900
G01 F120.00
G01 X49.2583 Y-8.7381
G01 X49.2692 Y-8.7366
G01 X49.2798 Y-8.7335
G01 X49.2899 Y-8.7289
G01 X49.2991 Y-8.7229
G01 X49.3074 Y-8.7156
G01 X49.3145 Y-8.7071
G01 X49.3203 Y-8.6977
G01 X49.3246 Y-8.6876
G01 X49.3276 Y-8.6760
G01 X49.3287 Y-8.6632
G01 X49.3286 Y-6.4604
G01 X49.3262 Y-6.4441
G01 X49.3237 Y-6.4362
G01 X49.3198 Y-6.4278
G01 X49.3150 Y-6.4200
G01 X49.3099 Y-6.4135
G01 X49.2976 Y-6.4024
G01 X49.2841 Y-6.3946
G01 X49.2692 Y-6.3898
G01 X49.2565 Y-6.3883
G01 X49.2288 Y-6.3882
G01 X49.2288 Y-6.3013
G01 X50.0595 Y-4.4432
G01 X50.1228 Y-4.4482
G01 X50.1737 Y-4.4494
G01 X50.2283 Y-4.4480
G01 X50.2791 Y-4.4442
G01 X50.3314 Y-4.4378
G01 X50.3834 Y-4.4287
G01 X50.4349 Y-4.4172
G01 X50.4858 Y-4.4031
G01 X50.5359 Y-4.3866
G01 X50.5851 Y-4.3676
G01 X50.6316 Y-4.3470
G01 X50.6821 Y-4.3216
G01 X50.7264 Y-4.2965
G01 X50.7709 Y-4.2682
G01 X50.8141 Y-4.2378
G01 X50.8557 Y-4.2054
G01 X50.8956 Y-4.1709
G01 X50.9325 Y-4.1358
G01 X50.9714 Y-4.0949
G01 X51.0047 Y-4.0564
G01 X51.0371 Y-4.0148
G01 X51.0675 Y-3.9716
G01 X51.0958 Y-3.9271
G01 X51.1218 Y-3.8812
G01 X51.1447 Y-3.8357
G01 X51.1676 Y-3.7841
G01 X51.1859 Y-3.7366
G01 X51.2024 Y-3.6865
G01 X51.2165 Y-3.6356
G01 X51.2280 Y-3.5841
G01 X51.2371 Y-3.5321
G01 X51.2435 Y-3.4798
G01 X51.2474 Y-3.4271
G01 X51.2487 Y-3.3744
G01 X51.2474 Y-3.3217
G01 X51.2435 Y-3.2690
G01 X51.2371 Y-3.2167
G01 X51.2280 Y-3.1647
G01 X51.2165 Y-3.1132
G01 X51.2024 Y-3.0623
G01 X51.1859 Y-3.0122
G01 X51.1669 Y-2.9630
G01 X51.1455 Y-2.9148
G01 X51.1218 Y-2.8676
G01 X51.0958 Y-2.8217
G01 X51.0675 Y-2.7772
G01 X51.0371 Y-2.7340
G01 X51.0047 Y-2.6924
G01 X50.9702 Y-2.6525
G01 X50.9338 Y-2.6143
G01 X50.8956 Y-2.5779
G01 X50.8557 Y-2.5434
G01 X50.8141 Y-2.5110
G01 X50.7709 Y-2.4806
G01 X50.7264 Y-2.4523
G01 X50.6805 Y-2.4263
G01 X50.6333 Y-2.4026
G01 X50.5851 Y-2.3812
G01 X50.5359 Y-2.3622
G01 X50.4858 Y-2.3457
G01 X50.4349 Y-2.3316
G01 X50.3834 Y-2.3201
G01 X50.3314 Y-2.3110
G01 X50.2791 Y-2.3046
G01 X50.2264 Y-2.3007
G01 X50.1737 Y-2.2994
G01 X50.1210 Y-2.3007
G01 X50.0683 Y-2.3046
G01 X50.0160 Y-2.3110
G01 X49.9640 Y-2.3201
G01 X49.9125 Y-2.3316
G01 X49.8616 Y-2.3457
G01 X49.8115 Y-2.3622
G01 X49.7623 Y-2.3812
G01 X49.7141 Y-2.4026
G01 X49.6669 Y-2.4263
G01 X49.6210 Y-2.4523
G01 X49.5765 Y-2.4806
G01 X49.5333 Y-2.5110
G01 X49.4917 Y-2.5434
G01 X49.4518 Y-2.5779
G01 X49.4136 Y-2.6143
G01 X49.3772 Y-2.6525
G01 X49.3427 Y-2.6924
G01 X49.3103 Y-2.7340
G01 X49.2799 Y-2.7772
G01 X49.2516 Y-2.8217
G01 X49.2256 Y-2.8676
G01 X49.2019 Y-2.9148
G01 X49.1805 Y-2.9630
G01 X49.1615 Y-3.0122
G01 X49.1450 Y-3.0623
G01 X49.1305 Y-3.1150
G01 X49.1194 Y-3.1647
G01 X49.1103 Y-3.2167
G01 X49.1037 Y-3.2709
G01 X49.1000 Y-3.3217
G01 X49.0987 Y-3.3744
G01 X49.1001 Y-3.4290
G01 X49.1039 Y-3.4798
G01 X49.1103 Y-3.5321
G01 X49.1197 Y-3.5859
G01 X49.1309 Y-3.6356
G01 X49.1447 Y-3.6856
G01 X49.1622 Y-3.7383
G01 X49.1805 Y-3.7858
G01 X49.2019 Y-3.8340
G01 X49.2265 Y-3.8828
G01 X49.2516 Y-3.9271
G01 X49.2794 Y-3.9709
G01 X49.3114 Y-4.0162
G01 X49.3427 Y-4.0564
G01 X49.3766 Y-4.0956
G01 X49.4142 Y-4.1352
G01 X49.4511 Y-4.1703
G01 X49.4642 Y-4.1816
G01 X48.6013 Y-6.1124
G01 X48.5953 Y-6.1291
G01 X48.5874 Y-6.1567
G01 X48.5820 Y-6.1848
G01 X48.5799 Y-6.2024
G01 X48.5786 Y-6.2310
G01 X48.5786 Y-6.3882
G01 X48.5519 Y-6.3882
G01 X48.5409 Y-6.3893
G01 X48.5276 Y-6.3929
G01 X48.5144 Y-6.3993
G01 X48.5020 Y-6.4089
G01 X48.4924 Y-6.4200
G01 X48.4848 Y-6.4337
G01 X48.4801 Y-6.4486
G01 X48.4787 Y-6.4632
G01 X48.4788 Y-8.6660
G01 X48.4807 Y-8.6805
G01 X48.4851 Y-8.6936
G01 X48.4919 Y-8.7056
G01 X48.5013 Y-8.7169
G01 X48.5128 Y-8.7261
G01 X48.5259 Y-8.7328
G01 X48.5391 Y-8.7368
G01 X48.5537 Y-8.7382
G00 Z2.0000
G00 X49.5387 Y-8.7569
G01 F70.00
G01 Z-0.0900
G01 F120.00
G01 X49.5400 Y-8.7608
G01 X49.5409 Y-8.7632
G01 X49.5365 Y-8.7632
G01 X49.5387 Y-8.7569
G00 Z2.0000
G00 X50.6651 Y-8.8382
G01 F70.00
G01 Z-0.0900
G01 F120.00
G01 X50.6828 Y-8.8223
G01 X50.6994 Y-8.8038
G01 X50.7138 Y-8.7836
G01 X50.7247 Y-8.7644
G01 X50.7346 Y-8.7416
G01 X50.7413 Y-8.7205
G01 X50.7463 Y-8.6962
G01 X50.7485 Y-8.6715
G01 X50.7487 Y-6.5039
G01 X50.8866 Y-6.3752
G01 X50.8792 Y-6.3952
G01 X50.8736 Y-6.4166
G01 X50.8701 Y-6.4384
G01 X50.8687 Y-6.4604
G01 X50.8688 Y-8.6687
G01 X50.8704 Y-8.6907
G01 X50.8748 Y-8.7152
G01 X50.8819 Y-8.7390
G01 X50.8915 Y-8.7619
G01 X50.9036 Y-8.7836
G01 X50.9180 Y-8.8038
G01 X50.9346 Y-8.8223
G01 X50.9523 Y-8.8382
G01 X50.6651 Y-8.8382
G00 Z2.0000
G00 X50.8065 Y-8.7632
G01 F70.00
G01 Z-0.0900
G01 F120.00
G01 X50.8074 Y-8.7608
G01 X50.8087 Y-8.7569
G01 X50.8109 Y-8.7632
G01 X50.8065 Y-8.7632
G00 Z2.0000
G00 X51.0937 Y-8.7382
G01 F70.00
G01 Z-0.0900
G01 F120.00
G01 X51.7992 Y-8.7380
G01 X51.8101 Y-8.7364
G01 X51.8215 Y-8.7328
G01 X51.8315 Y-8.7280
G01 X51.8406 Y-8.7218
G01 X51.8486 Y-8.7142
G01 X51.8555 Y-8.7056
G01 X51.8611 Y-8.6961
G01 X51.8655 Y-8.6850
G01 X51.8679 Y-8.6742
G01 X51.8687 Y-8.6632
G01 X51.8687 Y-6.4614
G01 X51.8676 Y-6.4504
G01 X51.8646 Y-6.4388
G01 X51.8598 Y-6.4278
G01 X51.8534 Y-6.4178
G01 X51.8454 Y-6.4089
G01 X51.8369 Y-6.4019
G01 X51.8266 Y-6.3958
G01 X51.8155 Y-6.3914
G01 X51.8047 Y-6.3890
G01 X51.7937 Y-6.3882
G01 X51.0891 Y-6.3883
G01 X51.0782 Y-6.3898
G01 X51.0667 Y-6.3932
G01 X51.0559 Y-6.3984
G01 X51.0468 Y-6.4046
G01 X51.0388 Y-6.4122
G01 X51.0319 Y-6.4208
G01 X51.0259 Y-6.4311
G01 X51.0219 Y-6.4414
G01 X51.0195 Y-6.4522
G01 X51.0187 Y-6.4632
G01 X51.0188 Y-8.6660
G01 X51.0207 Y-8.6805
G01 X51.0251 Y-8.6936
G01 X51.0319 Y-8.7056
G01 X51.0413 Y-8.7169
G01 X51.0528 Y-8.7261
G01 X51.0659 Y-8.7328
G01 X51.0791 Y-8.7368
G01 X51.0937 Y-8.7382
G00 Z2.0000
G00 X51.0937 Y-8.8132
G01 F70.00
G01 Z-0.0900
G01 F120.00
G01 X51.7937 Y-8.8132
G01 X51.8121 Y-8.8121
G01 X51.8337 Y-8.8078
G01 X51.8545 Y-8.8003
G01 X51.8724 Y-8.7909
G01 X51.8903 Y-8.7780
G01 X51.9061 Y-8.7626
G01 X51.9194 Y-8.7450
G01 X51.9301 Y-8.7257
G01 X51.9372 Y-8.7067
G01 X51.9421 Y-8.6852
G01 X51.9437 Y-8.6632
G01 X51.9436 Y-6.4577
G01 X51.9408 Y-6.4339
G01 X51.9343 Y-6.4109
G01 X51.9251 Y-6.3909
G01 X51.9120 Y-6.3709
G01 X51.8958 Y-6.3533
G01 X51.8786 Y-6.3395
G01 X51.8578 Y-6.3276
G01 X51.8372 Y-6.3197
G01 X51.8157 Y-6.3148
G01 X51.7955 Y-6.3132
G01 X51.0937 Y-6.3132
G01 X51.0772 Y-6.3141
G01 X51.0555 Y-6.3182
G01 X51.0346 Y-6.3253
G01 X51.0150 Y-6.3355
G01 X50.9985 Y-6.3472
G01 X50.9826 Y-6.3625
G01 X50.9690 Y-6.3799
G01 X50.9581 Y-6.3991
G01 X50.9502 Y-6.4197
G01 X50.9453 Y-6.4412
G01 X50.9437 Y-6.4632
G01 X50.9440 Y-8.6724
G01 X50.9456 Y-8.6870
G01 X50.9482 Y-8.6996
G01 X50.9525 Y-8.7137
G01 X50.9581 Y-8.7273
G01 X50.9641 Y-8.7387
G01 X50.9721 Y-8.7511
G01 X50.9813 Y-8.7626
G01 X50.9903 Y-8.7718
G01 X51.0014 Y-8.7815
G01 X51.0119 Y-8.7889
G01 X51.0246 Y-8.7963
G01 X51.0380 Y-8.8025
G01 X51.0519 Y-8.8073
G01 X51.0662 Y-8.8107
G01 X51.0808 Y-8.8126
G01 X51.0937 Y-8.8132
G00 Z2.0000
G00 X51.9351 Y-8.8382
G01 F70.00
G01 Z-0.0900
G01 F120.00
G01 X51.9528 Y-8.8223
G01 X51.9687 Y-8.8046
G01 X51.9687 Y-8.8382
G01 X51.9351 Y-8.8382
G00 Z2.0000
G00 X51.9687 Y-6.3218
G01 F70.00
G01 Z-0.0900
G01 F120.00
G01 X51.9528 Y-6.3041
G01 X51.9351 Y-6.2882
G01 X51.9687 Y-6.2882
G01 X51.9687 Y-6.3218
G00 Z2.0000
G00 X51.0202 Y-6.2505
G01 F70.00
G01 Z-0.0900
G01 F120.00
G01 X51.2549 Y-6.0314
G01 X51.2527 Y-6.0608
G01 X51.2541 Y-6.0883
G01 X51.2565 Y-6.1047
G01 X51.2595 Y-6.1182
G01 X51.2679 Y-6.1444
G01 X51.2794 Y-6.1695
G01 X51.2877 Y-6.1838
G01 X51.2955 Y-6.1952
G01 X51.3039 Y-6.2061
G01 X51.3149 Y-6.2185
G01 X51.3363 Y-6.2382
G01 X51.0854 Y-6.2384
G01 X51.0689 Y-6.2396
G01 X51.0525 Y-6.2420
G01 X51.0364 Y-6.2456
G01 X51.0202 Y-6.2505
G00 Z2.0000
G00 X49.5705 Y-6.0883
G01 F70.00
G01 Z-0.0900
G01 F120.00
G01 X49.5956 Y-6.1097
G01 X49.6200 Y-6.1264
G01 X49.6491 Y-6.1422
G01 X49.6772 Y-6.1538
G01 X49.6640 Y-6.1837
G01 X49.6516 Y-6.2175
G01 X49.6334 Y-6.2313
G01 X49.6142 Y-6.2485
G01 X49.5990 Y-6.2645
G01 X49.5827 Y-6.2845
G01 X49.5683 Y-6.3058
G01 X49.5574 Y-6.3250
G01 X49.5465 Y-6.3484
G01 X49.5387 Y-6.3695
G01 X49.5294 Y-6.3450
G01 X49.5165 Y-6.3185
G01 X49.5031 Y-6.2965
G01 X49.4871 Y-6.2748
G01 X49.5705 Y-6.0883
G00 Z2.0000
G00 X49.5598 Y-5.9284
G01 F70.00
G01 Z-0.0900
G01 F120.00
G01 X49.5664 Y-5.9491
G01 X49.5739 Y-5.9669
G01 X49.5829 Y-5.9841
G01 X49.5933 Y-6.0004
G01 X49.6051 Y-6.0157
G01 X49.6182 Y-6.0300
G01 X49.6324 Y-6.0431
G01 X49.6500 Y-6.0565
G01 X49.6665 Y-6.0668
G01 X49.6837 Y-6.0756
G01 X49.7016 Y-6.0829
G01 X49.7228 Y-6.0893
G01 X49.7418 Y-6.0932
G01 X49.7610 Y-6.0954
G01 X49.7804 Y-6.0960
G01 X49.8021 Y-6.0946
G01 X49.7889 Y-6.1120
G01 X49.7759 Y-6.1308
G01 X49.7639 Y-6.1503
G01 X49.7515 Y-6.1728
G01 X49.7426 Y-6.1909
G01 X49.7325 Y-6.2144
G01 X49.7245 Y-6.2359
G01 X49.7153 Y-6.2660
G01 X49.7033 Y-6.2731
G01 X49.6897 Y-6.2825
G01 X49.6767 Y-6.2928
G01 X49.6666 Y-6.3022
G01 X49.6551 Y-6.3142
G01 X49.6446 Y-6.3270
G01 X49.6366 Y-6.3382
G01 X49.6279 Y-6.3523
G01 X49.6169 Y-6.3746
G01 X49.6076 Y-6.4005
G01 X49.6016 Y-6.4275
G01 X49.5990 Y-6.4522
G01 X49.5989 Y-8.6715
G01 X49.6011 Y-8.6962
G01 X49.6061 Y-8.7205
G01 X49.6128 Y-8.7416
G01 X49.6227 Y-8.7644
G01 X49.6351 Y-8.7859
G01 X49.6480 Y-8.8038
G01 X49.6646 Y-8.8223
G01 X49.6823 Y-8.8382
G01 X49.3951 Y-8.8382
G01 X49.4147 Y-8.8203
G01 X49.4311 Y-8.8016
G01 X49.4453 Y-8.7812
G01 X49.4571 Y-8.7594
G01 X49.4665 Y-8.7364
G01 X49.4732 Y-8.7125
G01 X49.4773 Y-8.6880
G01 X49.4787 Y-8.6632
G01 X49.4785 Y-6.4549
G01 X49.4767 Y-6.4329
G01 X49.4720 Y-6.4085
G01 X49.4655 Y-6.3874
G01 X49.4559 Y-6.3645
G01 X49.4453 Y-6.3452
G01 X49.4311 Y-6.3248
G01 X49.4147 Y-6.3061
G01 X49.3979 Y-6.2905
G01 X49.5598 Y-5.9284
G00 Z2.0000
G00 X48.5036 Y-6.3218
G01 F70.00
G01 Z-0.0900
G01 F120.00
G01 X48.4830 Y-6.3309
G01 X48.4643 Y-6.3427
G01 X48.4476 Y-6.3571
G01 X48.4332 Y-6.3738
G01 X48.4214 Y-6.3925
G01 X48.4125 Y-6.4127
G01 X48.4066 Y-6.4339
G01 X48.4038 Y-6.4577
G01 X48.4037 Y-8.6632
G01 X48.4056 Y-8.6870
G01 X48.4107 Y-8.7085
G01 X48.4181 Y-8.7273
G01 X48.4290 Y-8.7465
G01 X48.4426 Y-8.7639
G01 X48.4585 Y-8.7792
G01 X48.4766 Y-8.7919
G01 X48.4963 Y-8.8018
G01 X48.5155 Y-8.8082
G01 X48.5372 Y-8.8123
G01 X48.5537 Y-8.8132
G01 X49.2555 Y-8.8132
G01 X49.2775 Y-8.8113
G01 X49.2990 Y-8.8062
G01 X49.3211 Y-8.7972
G01 X49.3416 Y-8.7848
G01 X49.3585 Y-8.7706
G01 X49.3742 Y-8.7526
G01 X49.3868 Y-8.7323
G01 X49.3961 Y-8.7103
G01 X49.4018 Y-8.6870
G01 X49.4037 Y-8.6632
G01 X49.4036 Y-6.4577
G01 X49.4012 Y-6.4357
G01 X49.3955 Y-6.4144
G01 X49.3877 Y-6.3958
G01 X49.3763 Y-6.3768
G01 X49.3636 Y-6.3611
G01 X49.3489 Y-6.3472
G01 X49.3386 Y-6.3395
G01 X49.3276 Y-6.3327
G01 X49.3162 Y-6.3268
G01 X49.3038 Y-6.3218
G01 X49.3038 Y-6.3173
G01 X50.1063 Y-4.5223
G01 X50.1774 Y-4.5244
G01 X50.2301 Y-4.5230
G01 X50.2901 Y-4.5185
G01 X50.3424 Y-4.5120
G01 X50.3981 Y-4.5023
G01 X50.4531 Y-4.4899
G01 X50.5075 Y-4.4749
G01 X50.5611 Y-4.4572
G01 X50.6138 Y-4.4369
G01 X50.6654 Y-4.4140
G01 X50.7125 Y-4.3903
G01 X50.7681 Y-4.3589
G01 X50.8126 Y-4.3306
G01 X50.8588 Y-4.2981
G01 X50.9033 Y-4.2634
G01 X50.9460 Y-4.2265
G01 X50.9869 Y-4.1876
G01 X51.0233 Y-4.1494
G01 X51.0650 Y-4.1011
G01 X51.0974 Y-4.0595
G01 X51.1299 Y-4.0133
G01 X51.1601 Y-3.9656
G01 X51.1879 Y-3.9165
G01 X51.2133 Y-3.8661
G01 X51.2347 Y-3.8179
G01 X51.2577 Y-3.7583
G01 X51.2742 Y-3.7082
G01 X51.2901 Y-3.6502
G01 X51.3016 Y-3.5988
G01 X51.3113 Y-3.5431
G01 X51.3182 Y-3.4871
G01 X51.3221 Y-3.4345
G01 X51.3237 Y-3.3707
G01 X51.3223 Y-3.3180
G01 X51.3185 Y-3.2653
G01 X51.3107 Y-3.2020
G01 X51.3016 Y-3.1500
G01 X51.2892 Y-3.0950
G01 X51.2742 Y-3.0406
G01 X51.2577 Y-2.9905
G01 X51.2362 Y-2.9343
G01 X51.2133 Y-2.8827
G01 X51.1896 Y-2.8356
G01 X51.1582 Y-2.7800
G01 X51.1299 Y-2.7355
G01 X51.0974 Y-2.6893
G01 X51.0627 Y-2.6448
G01 X51.0282 Y-2.6049
G01 X50.9842 Y-2.5587
G01 X50.9460 Y-2.5223
G01 X50.9033 Y-2.4854
G01 X50.8588 Y-2.4507
G01 X50.8156 Y-2.4203
G01 X50.7617 Y-2.3862
G01 X50.7158 Y-2.3602
G01 X50.6654 Y-2.3348
G01 X50.6138 Y-2.3119
G01 X50.5611 Y-2.2916
G01 X50.5075 Y-2.2739
G01 X50.4531 Y-2.2589
G01 X50.3981 Y-2.2465
G01 X50.3424 Y-2.2368
G01 X50.2864 Y-2.2299
G01 X50.2301 Y-2.2258
G01 X50.1737 Y-2.2244
G01 X50.1173 Y-2.2258
G01 X50.0610 Y-2.2299
G01 X50.0050 Y-2.2368
G01 X49.9493 Y-2.2465
G01 X49.8943 Y-2.2589
G01 X49.8399 Y-2.2739
G01 X49.7863 Y-2.2916
G01 X49.7336 Y-2.3119
G01 X49.6820 Y-2.3348
G01 X49.6316 Y-2.3602
G01 X49.5825 Y-2.3880
G01 X49.5348 Y-2.4182
G01 X49.4886 Y-2.4507
G01 X49.4441 Y-2.4854
G01 X49.4014 Y-2.5223
G01 X49.3605 Y-2.5612
G01 X49.3216 Y-2.6021
G01 X49.2847 Y-2.6448
G01 X49.2500 Y-2.6893
G01 X49.2175 Y-2.7355
G01 X49.1855 Y-2.7864
G01 X49.1595 Y-2.8323
G01 X49.1341 Y-2.8827
G01 X49.1112 Y-2.9343
G01 X49.0922 Y-2.9835
G01 X49.0722 Y-3.0441
G01 X49.0582 Y-3.0950
G01 X49.0458 Y-3.1500
G01 X49.0361 Y-3.2057
G01 X49.0296 Y-3.2580
G01 X49.0249 Y-3.3217
G01 X49.0237 Y-3.3744
G01 X49.0251 Y-3.4308
G01 X49.0292 Y-3.4871
G01 X49.0359 Y-3.5413
G01 X49.0458 Y-3.5988
G01 X49.0573 Y-3.6502
G01 X49.0743 Y-3.7117
G01 X49.0909 Y-3.7618
G01 X49.1112 Y-3.8145
G01 X49.1341 Y-3.8661
G01 X49.1586 Y-3.9149
G01 X49.1892 Y-3.9688
G01 X49.2175 Y-4.0133
G01 X49.2511 Y-4.0609
G01 X49.2847 Y-4.1040
G01 X49.3204 Y-4.1453
G01 X49.3592 Y-4.1863
G01 X49.3737 Y-4.2002
G01 X48.5318 Y-6.0842
G01 X48.5242 Y-6.1050
G01 X48.5153 Y-6.1359
G01 X48.5105 Y-6.1576
G01 X48.5070 Y-6.1795
G01 X48.5039 Y-6.2167
G01 X48.5036 Y-6.3218
G00 Z2.0000
G00 X48.2495 Y-6.3241
G01 F70.00
G01 Z-0.0900
G01 F120.00
G01 X48.2686 Y-6.3258
G01 X48.2867 Y-6.3264
G01 X48.2765 Y-6.3484
G01 X48.2687 Y-6.3695
G01 X48.2594 Y-6.3450
G01 X48.2495 Y-6.3241
G00 Z2.0000
G00 X48.1113 Y-6.1672
G01 F70.00
G01 Z-0.0900
G01 F120.00
G01 X48.1276 Y-6.1854
G01 X48.1440 Y-6.2003
G01 X48.1618 Y-6.2135
G01 X48.1807 Y-6.2248
G01 X48.2007 Y-6.2343
G01 X48.2216 Y-6.2417
G01 X48.2430 Y-6.2471
G01 X48.2649 Y-6.2503
G01 X48.2870 Y-6.2514
G01 X48.3091 Y-6.2503
G01 X48.3310 Y-6.2470
G01 X48.3524 Y-6.2416
G01 X48.3732 Y-6.2341
G01 X48.3932 Y-6.2246
G01 X48.4122 Y-6.2132
G01 X48.4297 Y-6.2002
G01 X48.4286 Y-6.2293
G01 X48.4286 Y-6.2762
G01 X48.4067 Y-6.2928
G01 X48.3870 Y-6.3121
G01 X48.3697 Y-6.3336
G01 X48.3553 Y-6.3571
G01 X48.3438 Y-6.3822
G01 X48.3354 Y-6.4085
G01 X48.3304 Y-6.4357
G01 X48.3287 Y-6.4604
G01 X48.3289 Y-8.6715
G01 X48.3311 Y-8.6962
G01 X48.3361 Y-8.7205
G01 X48.3438 Y-8.7442
G01 X48.3527 Y-8.7644
G01 X48.3651 Y-8.7859
G01 X48.3780 Y-8.8038
G01 X48.3946 Y-8.8223
G01 X48.4123 Y-8.8382
G01 X48.1251 Y-8.8382
G01 X48.1428 Y-8.8223
G01 X48.1594 Y-8.8038
G01 X48.1738 Y-8.7836
G01 X48.1847 Y-8.7644
G01 X48.1946 Y-8.7416
G01 X48.2013 Y-8.7205
G01 X48.2063 Y-8.6962
G01 X48.2085 Y-8.6715
G01 X48.2087 Y-6.4632
G01 X48.2073 Y-6.4384
G01 X48.2026 Y-6.4112
G01 X48.1946 Y-6.3848
G01 X48.1834 Y-6.3596
G01 X48.1692 Y-6.3359
G01 X48.1523 Y-6.3142
G01 X48.1327 Y-6.2946
G01 X48.1111 Y-6.2778
G01 X48.1113 Y-6.1672
G00 Z2.0000
G00 X47.2358 Y-6.3211
G01 F70.00
G01 Z-0.0900
G01 F120.00
G01 X47.2146 Y-6.3301
G01 X47.1958 Y-6.3416
G01 X47.1776 Y-6.3571
G01 X47.1632 Y-6.3738
G01 X47.1514 Y-6.3925
G01 X47.1419 Y-6.4144
G01 X47.1362 Y-6.4357
G01 X47.1338 Y-6.4577
G01 X47.1337 Y-8.6632
G01 X47.1356 Y-8.6870
G01 X47.1407 Y-8.7085
G01 X47.1481 Y-8.7273
G01 X47.1590 Y-8.7465
G01 X47.1726 Y-8.7639
G01 X47.1885 Y-8.7792
G01 X47.2066 Y-8.7919
G01 X47.2263 Y-8.8018
G01 X47.2455 Y-8.8082
G01 X47.2672 Y-8.8123
G01 X47.2837 Y-8.8132
G01 X47.9855 Y-8.8132
G01 X48.0075 Y-8.8113
G01 X48.0290 Y-8.8062
G01 X48.0511 Y-8.7972
G01 X48.0716 Y-8.7848
G01 X48.0885 Y-8.7706
G01 X48.1042 Y-8.7526
G01 X48.1168 Y-8.7323
G01 X48.1261 Y-8.7103
G01 X48.1318 Y-8.6870
G01 X48.1337 Y-8.6632
G01 X48.1337 Y-6.4595
G01 X48.1315 Y-6.4376
G01 X48.1261 Y-6.4161
G01 X48.1177 Y-6.3958
G01 X48.1063 Y-6.3768
G01 X48.0923 Y-6.3598
G01 X48.0760 Y-6.3449
G01 X48.0576 Y-6.3327
G01 X48.0360 Y-6.3226
G01 X48.0394 Y-4.4502
G01 X48.0755 Y-4.4361
G01 X48.1270 Y-4.4132
G01 X48.1758 Y-4.3886
G01 X48.2233 Y-4.3617
G01 X48.2756 Y-4.3285
G01 X48.3188 Y-4.2981
G01 X48.3618 Y-4.2645
G01 X48.4087 Y-4.2240
G01 X48.4469 Y-4.1876
G01 X48.4858 Y-4.1467
G01 X48.5227 Y-4.1040
G01 X48.5552 Y-4.0624
G01 X48.5909 Y-4.0118
G01 X48.6201 Y-3.9656
G01 X48.6461 Y-3.9197
G01 X48.6733 Y-3.8661
G01 X48.6962 Y-3.8145
G01 X48.7152 Y-3.7653
G01 X48.7352 Y-3.7047
G01 X48.7492 Y-3.6538
G01 X48.7616 Y-3.5988
G01 X48.7713 Y-3.5431
G01 X48.7778 Y-3.4908
G01 X48.7825 Y-3.4271
G01 X48.7837 Y-3.3744
G01 X48.7824 Y-3.3198
G01 X48.7782 Y-3.2617
G01 X48.7717 Y-3.2093
G01 X48.7608 Y-3.1464
G01 X48.7492 Y-3.0950
G01 X48.7342 Y-3.0406
G01 X48.7165 Y-2.9870
G01 X48.6962 Y-2.9343
G01 X48.6733 Y-2.8827
G01 X48.6496 Y-2.8356
G01 X48.6182 Y-2.7800
G01 X48.5899 Y-2.7355
G01 X48.5574 Y-2.6893
G01 X48.5227 Y-2.6448
G01 X48.4858 Y-2.6021
G01 X48.4469 Y-2.5612
G01 X48.4060 Y-2.5223
G01 X48.3633 Y-2.4854
G01 X48.3217 Y-2.4529
G01 X48.2695 Y-2.4162
G01 X48.2249 Y-2.3880
G01 X48.1758 Y-2.3602
G01 X48.1254 Y-2.3348
G01 X48.0738 Y-2.3119
G01 X48.0211 Y-2.2916
G01 X47.9710 Y-2.2750
G01 X47.9095 Y-2.2580
G01 X47.8581 Y-2.2465
G01 X47.8006 Y-2.2366
G01 X47.7464 Y-2.2299
G01 X47.6901 Y-2.2258
G01 X47.6337 Y-2.2244
G01 X47.5773 Y-2.2258
G01 X47.5210 Y-2.2299
G01 X47.4650 Y-2.2368
G01 X47.4093 Y-2.2465
G01 X47.3543 Y-2.2589
G01 X47.2999 Y-2.2739
G01 X47.2463 Y-2.2916
G01 X47.1936 Y-2.3119
G01 X47.1420 Y-2.3348
G01 X47.0916 Y-2.3602
G01 X47.0425 Y-2.3880
G01 X46.9948 Y-2.4182
G01 X46.9486 Y-2.4507
G01 X46.9041 Y-2.4854
G01 X46.8614 Y-2.5223
G01 X46.8205 Y-2.5612
G01 X46.7816 Y-2.6021
G01 X46.7447 Y-2.6448
G01 X46.7100 Y-2.6893
G01 X46.6775 Y-2.7355
G01 X46.6473 Y-2.7832
G01 X46.6195 Y-2.8323
G01 X46.5941 Y-2.8827
G01 X46.5712 Y-2.9343
G01 X46.5509 Y-2.9870
G01 X46.5332 Y-3.0406
G01 X46.5182 Y-3.0950
G01 X46.5058 Y-3.1500
G01 X46.4959 Y-3.2075
G01 X46.4892 Y-3.2617
G01 X46.4851 Y-3.3180
G01 X46.4837 Y-3.3744
G01 X46.4849 Y-3.4271
G01 X46.4896 Y-3.4908
G01 X46.4961 Y-3.5431
G01 X46.5058 Y-3.5988
G01 X46.5182 Y-3.6538
G01 X46.5322 Y-3.7047
G01 X46.5522 Y-3.7653
G01 X46.5712 Y-3.8145
G01 X46.5941 Y-3.8661
G01 X46.6195 Y-3.9165
G01 X46.6473 Y-3.9656
G01 X46.6775 Y-4.0133
G01 X46.7079 Y-4.0565
G01 X46.7471 Y-4.1068
G01 X46.7816 Y-4.1467
G01 X46.8205 Y-4.1876
G01 X46.8614 Y-4.2265
G01 X46.9041 Y-4.2634
G01 X46.9486 Y-4.2981
G01 X46.9918 Y-4.3285
G01 X47.0457 Y-4.3626
G01 X47.0916 Y-4.3886
G01 X47.1420 Y-4.4140
G01 X47.1936 Y-4.4369
G01 X47.2391 Y-4.4545
G01 X47.2358 Y-6.3211
G00 Z2.0000
G00 X47.1610 Y-6.2047
G01 F70.00
G01 Z-0.0900
G01 F120.00
G01 X47.1609 Y-6.2747
G01 X47.1388 Y-6.2910
G01 X47.1189 Y-6.3101
G01 X47.1013 Y-6.3314
G01 X47.0866 Y-6.3547
G01 X47.0748 Y-6.3797
G01 X47.0661 Y-6.4059
G01 X47.0607 Y-6.4329
G01 X47.0587 Y-6.4604
G01 X47.0589 Y-8.6715
G01 X47.0611 Y-8.6962
G01 X47.0661 Y-8.7205
G01 X47.0738 Y-8.7442
G01 X47.0827 Y-8.7644
G01 X47.0951 Y-8.7859
G01 X47.1080 Y-8.8038
G01 X47.1246 Y-8.8223
G01 X47.1423 Y-8.8382
G01 X46.8551 Y-8.8382
G01 X46.8728 Y-8.8223
G01 X46.8894 Y-8.8038
G01 X46.9038 Y-8.7836
G01 X46.9147 Y-8.7644
G01 X46.9236 Y-8.7442
G01 X46.9313 Y-8.7205
G01 X46.9363 Y-8.6962
G01 X46.9385 Y-8.6715
G01 X46.9387 Y-6.4632
G01 X46.9373 Y-6.4384
G01 X46.9332 Y-6.4139
G01 X46.9265 Y-6.3900
G01 X46.9171 Y-6.3670
G01 X46.9053 Y-6.3452
G01 X46.8911 Y-6.3248
G01 X46.8747 Y-6.3061
G01 X46.8551 Y-6.2882
G01 X46.9943 Y-6.2880
G01 X47.0190 Y-6.2858
G01 X47.0460 Y-6.2801
G01 X47.0618 Y-6.2751
G01 X47.0771 Y-6.2689
G01 X47.0920 Y-6.2617
G01 X47.1086 Y-6.2519
G01 X47.1222 Y-6.2424
G01 X47.1370 Y-6.2300
G01 X47.1489 Y-6.2185
G01 X47.1610 Y-6.2047
G00 Z2.0000
G00 X47.0010 Y-6.3628
G01 F70.00
G01 Z-0.0900
G01 F120.00
G01 X47.0000 Y-6.3656
G01 X46.9987 Y-6.3695
G01 X46.9965 Y-6.3630
G01 X47.0010 Y-6.3628
G00 Z2.0000
G00 X45.7287 Y-6.3695
G01 F70.00
G01 Z-0.0900
G01 F120.00
G01 X45.7274 Y-6.3656
G01 X45.7263 Y-6.3625
G01 X45.7310 Y-6.3628
G01 X45.7287 Y-6.3695
G00 Z2.0000
G00 X44.6958 Y-6.3211
G01 F70.00
G01 Z-0.0900
G01 F120.00
G01 X44.6746 Y-6.3301
G01 X44.6558 Y-6.3416
G01 X44.6376 Y-6.3571
G01 X44.6232 Y-6.3738
G01 X44.6114 Y-6.3925
G01 X44.6019 Y-6.4144
G01 X44.5962 Y-6.4357
G01 X44.5938 Y-6.4577
G01 X44.5937 Y-8.6632
G01 X44.5956 Y-8.6870
G01 X44.6007 Y-8.7085
G01 X44.6081 Y-8.7273
G01 X44.6190 Y-8.7465
G01 X44.6326 Y-8.7639
G01 X44.6485 Y-8.7792
G01 X44.6666 Y-8.7919
G01 X44.6863 Y-8.8018
G01 X44.7055 Y-8.8082
G01 X44.7272 Y-8.8123
G01 X44.7437 Y-8.8132
G01 X45.4455 Y-8.8132
G01 X45.4675 Y-8.8113
G01 X45.4890 Y-8.8062
G01 X45.5111 Y-8.7972
G01 X45.5316 Y-8.7848
G01 X45.5485 Y-8.7706
G01 X45.5642 Y-8.7526
G01 X45.5768 Y-8.7323
G01 X45.5861 Y-8.7103
G01 X45.5918 Y-8.6870
G01 X45.5937 Y-8.6632
G01 X45.5937 Y-6.4595
G01 X45.5915 Y-6.4376
G01 X45.5861 Y-6.4161
G01 X45.5777 Y-6.3958
G01 X45.5663 Y-6.3768
G01 X45.5523 Y-6.3598
G01 X45.5360 Y-6.3449
G01 X45.5176 Y-6.3327
G01 X45.4960 Y-6.3226
G01 X45.4994 Y-4.4502
G01 X45.5355 Y-4.4361
G01 X45.5870 Y-4.4132
G01 X45.6358 Y-4.3886
G01 X45.6833 Y-4.3617
G01 X45.7356 Y-4.3285
G01 X45.7788 Y-4.2981
G01 X45.8218 Y-4.2645
G01 X45.8687 Y-4.2240
G01 X45.9069 Y-4.1876
G01 X45.9458 Y-4.1467
G01 X45.9827 Y-4.1040
G01 X46.0152 Y-4.0624
G01 X46.0509 Y-4.0118
G01 X46.0801 Y-3.9656
G01 X46.1061 Y-3.9197
G01 X46.1333 Y-3.8661
G01 X46.1562 Y-3.8145
G01 X46.1752 Y-3.7653
G01 X46.1952 Y-3.7047
G01 X46.2092 Y-3.6538
G01 X46.2216 Y-3.5988
G01 X46.2313 Y-3.5431
G01 X46.2378 Y-3.4908
G01 X46.2425 Y-3.4271
G01 X46.2437 Y-3.3744
G01 X46.2424 Y-3.3198
G01 X46.2382 Y-3.2617
G01 X46.2317 Y-3.2093
G01 X46.2208 Y-3.1464
G01 X46.2092 Y-3.0950
G01 X46.1942 Y-3.0406
G01 X46.1765 Y-2.9870
G01 X46.1562 Y-2.9343
G01 X46.1333 Y-2.8827
G01 X46.1096 Y-2.8356
G01 X46.0782 Y-2.7800
G01 X46.0499 Y-2.7355
G01 X46.0174 Y-2.6893
G01 X45.9827 Y-2.6448
G01 X45.9458 Y-2.6021
G01 X45.9069 Y-2.5612
G01 X45.8660 Y-2.5223
G01 X45.8233 Y-2.4854
G01 X45.7817 Y-2.4529
G01 X45.7295 Y-2.4162
G01 X45.6849 Y-2.3880
G01 X45.6358 Y-2.3602
G01 X45.5854 Y-2.3348
G01 X45.5338 Y-2.3119
G01 X45.4811 Y-2.2916
G01 X45.4310 Y-2.2750
G01 X45.3695 Y-2.2580
G01 X45.3181 Y-2.2465
G01 X45.2606 Y-2.2366
G01 X45.2064 Y-2.2299
G01 X45.1501 Y-2.2258
G01 X45.0937 Y-2.2244
G01 X45.0373 Y-2.2258
G01 X44.9810 Y-2.2299
G01 X44.9250 Y-2.2368
G01 X44.8693 Y-2.2465
G01 X44.8143 Y-2.2589
G01 X44.7599 Y-2.2739
G01 X44.7063 Y-2.2916
G01 X44.6536 Y-2.3119
G01 X44.6020 Y-2.3348
G01 X44.5516 Y-2.3602
G01 X44.5025 Y-2.3880
G01 X44.4548 Y-2.4182
G01 X44.4086 Y-2.4507
G01 X44.3641 Y-2.4854
G01 X44.3214 Y-2.5223
G01 X44.2805 Y-2.5612
G01 X44.2416 Y-2.6021
G01 X44.2047 Y-2.6448
G01 X44.1700 Y-2.6893
G01 X44.1375 Y-2.7355
G01 X44.1073 Y-2.7832
G01 X44.0795 Y-2.8323
G01 X44.0541 Y-2.8827
G01 X44.0312 Y-2.9343
G01 X44.0109 Y-2.9870
G01 X43.9932 Y-3.0406
G01 X43.9782 Y-3.0950
G01 X43.9658 Y-3.1500
G01 X43.9559 Y-3.2075
G01 X43.9492 Y-3.2617
G01 X43.9451 Y-3.3180
G01 X43.9437 Y-3.3744
G01 X43.9449 Y-3.4271
G01 X43.9496 Y-3.4908
G01 X43.9561 Y-3.5431
G01 X43.9658 Y-3.5988
G01 X43.9782 Y-3.6538
G01 X43.9922 Y-3.7047
G01 X44.0122 Y-3.7653
G01 X44.0312 Y-3.8145
G01 X44.0541 Y-3.8661
G01 X44.0795 Y-3.9165
G01 X44.1073 Y-3.9656
G01 X44.1375 Y-4.0133
G01 X44.1679 Y-4.0565
G01 X44.2071 Y-4.1068
G01 X44.2416 Y-4.1467
G01 X44.2805 Y-4.1876
G01 X44.3214 Y-4.2265
G01 X44.3641 Y-4.2634
G01 X44.4086 Y-4.2981
G01 X44.4518 Y-4.3285
G01 X44.5057 Y-4.3626
G01 X44.5516 Y-4.3886
G01 X44.6020 Y-4.4140
G01 X44.6536 Y-4.4369
G01 X44.6991 Y-4.4545
G01 X44.6958 Y-6.3211
G00 Z2.0000
G00 X44.4565 Y-6.3630
G01 F70.00
G01 Z-0.0900
G01 F120.00
G01 X44.4610 Y-6.3628
G01 X44.4587 Y-6.3695
G01 X44.4574 Y-6.3656
G01 X44.4565 Y-6.3630
G00 Z2.0000
G00 X44.3151 Y-6.2882
G01 F70.00
G01 Z-0.0900
G01 F120.00
G01 X44.4543 Y-6.2880
G01 X44.4790 Y-6.2858
G01 X44.5060 Y-6.2801
G01 X44.5218 Y-6.2751
G01 X44.5371 Y-6.2689
G01 X44.5520 Y-6.2617
G01 X44.5686 Y-6.2519
G01 X44.5822 Y-6.2424
G01 X44.5970 Y-6.2300
G01 X44.6089 Y-6.2185
G01 X44.6210 Y-6.2047
G01 X44.6209 Y-6.2747
G01 X44.5988 Y-6.2910
G01 X44.5789 Y-6.3101
G01 X44.5613 Y-6.3314
G01 X44.5466 Y-6.3547
G01 X44.5348 Y-6.3797
G01 X44.5261 Y-6.4059
G01 X44.5207 Y-6.4329
G01 X44.5187 Y-6.4604
G01 X44.5189 Y-8.6715
G01 X44.5211 Y-8.6962
G01 X44.5261 Y-8.7205
G01 X44.5338 Y-8.7442
G01 X44.5427 Y-8.7644
G01 X44.5551 Y-8.7859
G01 X44.5680 Y-8.8038
G01 X44.5846 Y-8.8223
G01 X44.6023 Y-8.8382
G01 X44.4151 Y-8.8383
G01 X44.3931 Y-8.8399
G01 X44.3687 Y-8.8443
G01 X44.3528 Y-8.8487
G01 X44.3346 Y-8.8553
G01 X44.3171 Y-8.8634
G01 X44.3004 Y-8.8730
G01 X44.2846 Y-8.8840
G01 X44.2718 Y-8.8945
G01 X44.2579 Y-8.9079
G01 X44.2457 Y-8.9216
G01 X44.2458 Y-8.8763
G01 X44.2649 Y-8.8689
G01 X44.2822 Y-8.8603
G01 X44.2987 Y-8.8503
G01 X44.3143 Y-8.8389
G01 X44.3308 Y-8.8242
G01 X44.3441 Y-8.8102
G01 X44.3561 Y-8.7950
G01 X44.3667 Y-8.7789
G01 X44.3794 Y-8.7544
G01 X44.3846 Y-8.7416
G01 X44.3898 Y-8.7259
G01 X44.3958 Y-8.6989
G01 X44.3976 Y-8.6853
G01 X44.3986 Y-8.6687
G01 X44.3985 Y-6.4549
G01 X44.3963 Y-6.4302
G01 X44.3920 Y-6.4085
G01 X44.3846 Y-6.3848
G01 X44.3747 Y-6.3620
G01 X44.3623 Y-6.3405
G01 X44.3494 Y-6.3226
G01 X44.3328 Y-6.3041
G01 X44.3151 Y-6.2882
G00 Z2.0000
G00 X43.2040 Y-6.2132
G01 F70.00
G01 Z-0.0900
G01 F120.00
G01 X44.4571 Y-6.2128
G01 X44.4789 Y-6.2096
G01 X44.5017 Y-6.2025
G01 X44.5231 Y-6.1919
G01 X44.5411 Y-6.1792
G01 X44.5571 Y-6.1640
G01 X44.5717 Y-6.1451
G01 X44.5831 Y-6.1242
G01 X44.5906 Y-6.1034
G01 X44.5947 Y-6.0836
G01 X44.5961 Y-6.0635
G01 X44.5986 Y-4.6169
G01 X44.5968 Y-4.5930
G01 X44.5917 Y-4.5715
G01 X44.5835 Y-4.5509
G01 X44.5724 Y-4.5318
G01 X44.5586 Y-4.5146
G01 X44.5439 Y-4.5007
G01 X44.5242 Y-4.4870
G01 X44.5045 Y-4.4768
G01 X44.4511 Y-4.4465
G01 X44.3993 Y-4.4137
G01 X44.3491 Y-4.3784
G01 X44.3007 Y-4.3406
G01 X44.2543 Y-4.3006
G01 X44.2098 Y-4.2583
G01 X44.1675 Y-4.2138
G01 X44.1275 Y-4.1674
G01 X44.0897 Y-4.1190
G01 X44.0544 Y-4.0688
G01 X44.0216 Y-4.0170
G01 X43.9913 Y-3.9636
G01 X43.9551 Y-3.8907
G01 X43.9420 Y-3.8707
G01 X43.9258 Y-3.8531
G01 X43.9070 Y-3.8383
G01 X43.8862 Y-3.8266
G01 X43.8637 Y-3.8185
G01 X43.8439 Y-3.8144
G01 X43.8255 Y-3.8130
G01 X43.8053 Y-3.8141
G01 X43.7873 Y-3.8175
G01 X43.7697 Y-3.8231
G01 X43.7514 Y-3.8316
G01 X43.7358 Y-3.8414
G01 X43.7216 Y-3.8531
G01 X43.7066 Y-3.8693
G01 X43.6950 Y-3.8859
G01 X43.6561 Y-3.9636
G01 X43.6258 Y-4.0170
G01 X43.5930 Y-4.0688
G01 X43.5577 Y-4.1190
G01 X43.5199 Y-4.1674
G01 X43.4799 Y-4.2138
G01 X43.4376 Y-4.2583
G01 X43.3931 Y-4.3006
G01 X43.3467 Y-4.3406
G01 X43.2983 Y-4.3784
G01 X43.2481 Y-4.4137
G01 X43.1963 Y-4.4465
G01 X43.1253 Y-4.4862
G01 X43.1060 Y-4.5004
G01 X43.0904 Y-4.5160
G01 X43.0773 Y-4.5337
G01 X43.0669 Y-4.5532
G01 X43.0595 Y-4.5739
G01 X43.0554 Y-4.5938
G01 X43.0540 Y-4.6139
G01 X43.0540 Y-6.0632
G01 X43.0546 Y-6.0761
G01 X43.0566 Y-6.0907
G01 X43.0595 Y-6.1032
G01 X43.0641 Y-6.1172
G01 X43.0692 Y-6.1290
G01 X43.0754 Y-6.1403
G01 X43.0835 Y-6.1526
G01 X43.0929 Y-6.1639
G01 X43.1033 Y-6.1743
G01 X43.1132 Y-6.1826
G01 X43.1253 Y-6.1909
G01 X43.1382 Y-6.1980
G01 X43.1500 Y-6.2031
G01 X43.1622 Y-6.2073
G01 X43.1766 Y-6.2107
G01 X43.1912 Y-6.2126
G01 X43.2040 Y-6.2132
G00 Z2.0000
G00 X43.2040 Y-6.1382
G01 F70.00
G01 Z-0.0900
G01 F120.00
G01 X44.4488 Y-6.1381
G01 X44.4607 Y-6.1368
G01 X44.4722 Y-6.1335
G01 X44.4822 Y-6.1289
G01 X44.4922 Y-6.1224
G01 X44.5010 Y-6.1143
G01 X44.5079 Y-6.1057
G01 X44.5138 Y-6.0954
G01 X44.5181 Y-6.0842
G01 X44.5204 Y-6.0734
G01 X44.5211 Y-6.0633
G01 X44.5236 Y-4.6167
G01 X44.5229 Y-4.6057
G01 X44.5204 Y-4.5949
G01 X44.5165 Y-4.5846
G01 X44.5105 Y-4.5742
G01 X44.5036 Y-4.5656
G01 X44.4948 Y-4.5575
G01 X44.4856 Y-4.5513
G01 X44.4691 Y-4.5429
G01 X44.4125 Y-4.5109
G01 X44.3576 Y-4.4761
G01 X44.3044 Y-4.4386
G01 X44.2531 Y-4.3986
G01 X44.2039 Y-4.3561
G01 X44.1568 Y-4.3113
G01 X44.1120 Y-4.2642
G01 X44.0695 Y-4.2150
G01 X44.0295 Y-4.1637
G01 X43.9920 Y-4.1105
G01 X43.9572 Y-4.0556
G01 X43.9252 Y-3.9990
G01 X43.8903 Y-3.9285
G01 X43.8839 Y-3.9183
G01 X43.8761 Y-3.9093
G01 X43.8669 Y-3.9017
G01 X43.8558 Y-3.8952
G01 X43.8446 Y-3.8910
G01 X43.8338 Y-3.8887
G01 X43.8237 Y-3.8880
G01 X43.8127 Y-3.8888
G01 X43.8019 Y-3.8912
G01 X43.7916 Y-3.8952
G01 X43.7828 Y-3.9002
G01 X43.7740 Y-3.9068
G01 X43.7663 Y-3.9147
G01 X43.7576 Y-3.9277
G01 X43.7222 Y-3.9990
G01 X43.6902 Y-4.0556
G01 X43.6554 Y-4.1105
G01 X43.6179 Y-4.1637
G01 X43.5779 Y-4.2150
G01 X43.5354 Y-4.2642
G01 X43.4906 Y-4.3113
G01 X43.4435 Y-4.3561
G01 X43.3943 Y-4.3986
G01 X43.3430 Y-4.4386
G01 X43.2898 Y-4.4761
G01 X43.2349 Y-4.5109
G01 X43.1671 Y-4.5487
G01 X43.1579 Y-4.5548
G01 X43.1497 Y-4.5622
G01 X43.1422 Y-4.5715
G01 X43.1362 Y-4.5819
G01 X43.1320 Y-4.5930
G01 X43.1298 Y-4.6029
G01 X43.1290 Y-4.6139
G01 X43.1291 Y-6.0669
G01 X43.1313 Y-6.0814
G01 X43.1358 Y-6.0944
G01 X43.1427 Y-6.1064
G01 X43.1523 Y-6.1175
G01 X43.1639 Y-6.1266
G01 X43.1762 Y-6.1328
G01 X43.1894 Y-6.1368
G01 X43.2040 Y-6.1382
G00 Z2.0000
G00 X43.1887 Y-6.3695
G01 F70.00
G01 Z-0.0900
G01 F120.00
G01 X43.1874 Y-6.3656
G01 X43.1864 Y-6.3627
G01 X43.1910 Y-6.3629
G01 X43.1887 Y-6.3695
G00 Z2.0000
G00 X43.7139 Y-3.7666
G01 F70.00
G01 Z-0.0900
G01 F120.00
G01 X43.7267 Y-3.7274
G01 X43.7426 Y-3.6694
G01 X43.7552 Y-3.6134
G01 X43.7650 Y-3.5569
G01 X43.7733 Y-3.4890
G01 X43.7772 Y-3.4345
G01 X43.7787 Y-3.3744
G01 X43.7772 Y-3.3143
G01 X43.7733 Y-3.2598
G01 X43.7650 Y-3.1919
G01 X43.7552 Y-3.1354
G01 X43.7426 Y-3.0794
G01 X43.7267 Y-3.0214
G01 X43.7139 Y-2.9822
G01 X43.7402 Y-2.9947
G01 X43.7664 Y-3.0034
G01 X43.7825 Y-3.0070
G01 X43.7962 Y-3.0091
G01 X43.8237 Y-3.0108
G01 X43.8375 Y-3.0104
G01 X43.8540 Y-3.0087
G01 X43.8810 Y-3.0034
G01 X43.9072 Y-2.9947
G01 X43.9335 Y-2.9822
G01 X43.9207 Y-3.0214
G01 X43.9048 Y-3.0794
G01 X43.8922 Y-3.1354
G01 X43.8824 Y-3.1919
G01 X43.8741 Y-3.2598
G01 X43.8702 Y-3.3143
G01 X43.8687 Y-3.3744
G01 X43.8702 Y-3.4345
G01 X43.8741 Y-3.4890
G01 X43.8824 Y-3.5569
G01 X43.8922 Y-3.6134
G01 X43.9048 Y-3.6694
G01 X43.9207 Y-3.7274
G01 X43.9335 Y-3.7666
G01 X43.9072 Y-3.7541
G01 X43.8810 Y-3.7454
G01 X43.8676 Y-3.7423
G01 X43.8512 Y-3.7397
G01 X43.8237 Y-3.7380
G01 X43.7962 Y-3.7397
G01 X43.7798 Y-3.7423
G01 X43.7664 Y-3.7454
G01 X43.7402 Y-3.7541
G01 X43.7139 Y-3.7666
G00 Z2.0000
G00 X43.8210 Y-3.6630
G01 F70.00
G01 Z-0.0900
G01 F120.00
G01 X43.8237 Y-3.6508
G01 X43.8264 Y-3.6630
G01 X43.8210 Y-3.6630
G00 Z2.0000
G00 X43.8237 Y-3.0980
G01 F70.00
G01 Z-0.0900
G01 F120.00
G01 X43.8210 Y-3.0858
G01 X43.8264 Y-3.0858
G01 X43.8237 Y-3.0980
G00 Z2.0000
G00 X44.6728 Y-2.2241
G01 F70.00
G01 Z-0.0900
G01 F120.00
G01 X44.6813 Y-2.2058
G01 X44.6879 Y-2.1877
G01 X44.6930 Y-2.1690
G01 X44.6964 Y-2.1500
G01 X44.6982 Y-2.1308
G01 X44.6983 Y-2.1114
G01 X44.6968 Y-2.0922
G01 X44.6936 Y-2.0731
G01 X44.6888 Y-2.0544
G01 X44.6824 Y-2.0362
G01 X44.6744 Y-2.0186
G01 X44.6650 Y-2.0017
G01 X44.6542 Y-1.9857
G01 X44.6420 Y-1.9707
G01 X44.6286 Y-1.9568
G01 X44.6146 Y-1.9445
G01 X45.5728 Y-1.9445
G01 X45.5588 Y-1.9568
G01 X45.5454 Y-1.9707
G01 X45.5332 Y-1.9857
G01 X45.5224 Y-2.0017
G01 X45.5130 Y-2.0186
G01 X45.5050 Y-2.0362
G01 X45.4986 Y-2.0544
G01 X45.4938 Y-2.0731
G01 X45.4906 Y-2.0922
G01 X45.4891 Y-2.1114
G01 X45.4892 Y-2.1308
G01 X45.4910 Y-2.1500
G01 X45.4944 Y-2.1690
G01 X45.4995 Y-2.1877
G01 X45.5061 Y-2.2058
G01 X45.5146 Y-2.2241
G01 X45.4440 Y-2.2006
G01 X45.3914 Y-2.1861
G01 X45.3273 Y-2.1719
G01 X45.2734 Y-2.1627
G01 X45.2138 Y-2.1553
G01 X45.1538 Y-2.1509
G01 X45.0937 Y-2.1494
G01 X45.0336 Y-2.1509
G01 X44.9736 Y-2.1553
G01 X44.9140 Y-2.1627
G01 X44.8601 Y-2.1719
G01 X44.7960 Y-2.1861
G01 X44.7434 Y-2.2006
G01 X44.6728 Y-2.2241
G00 Z2.0000
G00 X44.7734 Y-2.1145
G01 F70.00
G01 Z-0.0900
G01 F120.00
G01 X44.7720 Y-2.0903
G01 X44.7684 Y-2.0648
G01 X44.7635 Y-2.0433
G01 X44.7562 Y-2.0195
G01 X45.4312 Y-2.0195
G01 X45.4239 Y-2.0433
G01 X45.4190 Y-2.0648
G01 X45.4154 Y-2.0903
G01 X45.4140 Y-2.1145
G01 X45.3473 Y-2.0994
G01 X45.2772 Y-2.0875
G01 X45.2211 Y-2.0807
G01 X45.1648 Y-2.0764
G01 X45.0937 Y-2.0744
G01 X45.0226 Y-2.0764
G01 X44.9663 Y-2.0807
G01 X44.9102 Y-2.0875
G01 X44.8401 Y-2.0994
G01 X44.7734 Y-2.1145
G00 Z2.0000
G00 X44.4734 Y-2.0447
G01 F70.00
G01 Z-0.0900
G01 F120.00
G01 X43.1985 Y-2.0449
G01 X43.1831 Y-2.0477
G01 X43.1679 Y-2.0540
G01 X43.1543 Y-2.0635
G01 X43.1432 Y-2.0758
G01 X43.1355 Y-2.0893
G01 X43.1307 Y-2.1042
G01 X43.1291 Y-2.1170
G01 X43.1292 Y-2.1404
G01 X43.1317 Y-2.1549
G01 X43.1375 Y-2.1694
G01 X43.1455 Y-2.1817
G01 X43.1564 Y-2.1928
G01 X43.1663 Y-2.1997
G01 X43.2349 Y-2.2379
G01 X43.2898 Y-2.2727
G01 X43.3430 Y-2.3102
G01 X43.3943 Y-2.3502
G01 X43.4435 Y-2.3927
G01 X43.4906 Y-2.4375
G01 X43.5354 Y-2.4846
G01 X43.5779 Y-2.5338
G01 X43.6179 Y-2.5851
G01 X43.6554 Y-2.6383
G01 X43.6902 Y-2.6932
G01 X43.7222 Y-2.7498
G01 X43.7571 Y-2.8203
G01 X43.7651 Y-2.8326
G01 X43.7713 Y-2.8395
G01 X43.7783 Y-2.8455
G01 X43.7859 Y-2.8506
G01 X43.7942 Y-2.8547
G01 X43.8028 Y-2.8578
G01 X43.8118 Y-2.8598
G01 X43.8200 Y-2.8607
G01 X43.8292 Y-2.8606
G01 X43.8446 Y-2.8578
G01 X43.8591 Y-2.8519
G01 X43.8720 Y-2.8432
G01 X43.8828 Y-2.8319
G01 X43.8903 Y-2.8203
G01 X43.9252 Y-2.7498
G01 X43.9572 Y-2.6932
G01 X43.9920 Y-2.6383
G01 X44.0295 Y-2.5851
G01 X44.0695 Y-2.5338
G01 X44.1120 Y-2.4846
G01 X44.1568 Y-2.4375
G01 X44.2039 Y-2.3927
G01 X44.2531 Y-2.3502
G01 X44.3044 Y-2.3102
G01 X44.3576 Y-2.2727
G01 X44.4125 Y-2.2379
G01 X44.4691 Y-2.2059
G01 X44.5136 Y-2.1831
G01 X44.5238 Y-2.1753
G01 X44.5326 Y-2.1659
G01 X44.5382 Y-2.1575
G01 X44.5431 Y-2.1476
G01 X44.5462 Y-2.1379
G01 X44.5481 Y-2.1271
G01 X44.5484 Y-2.1170
G01 X44.5472 Y-2.1060
G01 X44.5447 Y-2.0962
G01 X44.5408 Y-2.0868
G01 X44.5353 Y-2.0773
G01 X44.5290 Y-2.0694
G01 X44.5217 Y-2.0623
G01 X44.5136 Y-2.0564
G01 X44.5047 Y-2.0515
G01 X44.4943 Y-2.0477
G01 X44.4835 Y-2.0454
G01 X44.4734 Y-2.0447
G00 Z2.0000
G00 X44.4734 Y-1.9697
G01 F70.00
G01 Z-0.0900
G01 F120.00
G01 X43.2040 Y-1.9697
G01 X43.1838 Y-1.9711
G01 X43.1694 Y-1.9738
G01 X43.1535 Y-1.9785
G01 X43.1399 Y-1.9841
G01 X43.1253 Y-1.9920
G01 X43.1117 Y-2.0015
G01 X43.1006 Y-2.0111
G01 X43.0904 Y-2.0217
G01 X43.0814 Y-2.0334
G01 X43.0726 Y-2.0474
G01 X43.0662 Y-2.0606
G01 X43.0610 Y-2.0744
G01 X43.0573 Y-2.0887
G01 X43.0552 Y-2.1014
G01 X43.0541 Y-2.1160
G01 X43.0541 Y-2.1404
G01 X43.0554 Y-2.1550
G01 X43.0581 Y-2.1695
G01 X43.0616 Y-2.1819
G01 X43.0662 Y-2.1940
G01 X43.0717 Y-2.2056
G01 X43.0783 Y-2.2167
G01 X43.0869 Y-2.2286
G01 X43.0954 Y-2.2383
G01 X43.1047 Y-2.2472
G01 X43.1147 Y-2.2553
G01 X43.1253 Y-2.2626
G01 X43.1963 Y-2.3023
G01 X43.2481 Y-2.3351
G01 X43.2983 Y-2.3704
G01 X43.3467 Y-2.4082
G01 X43.3931 Y-2.4482
G01 X43.4376 Y-2.4905
G01 X43.4799 Y-2.5350
G01 X43.5199 Y-2.5814
G01 X43.5577 Y-2.6298
G01 X43.5930 Y-2.6800
G01 X43.6258 Y-2.7318
G01 X43.6561 Y-2.7852
G01 X43.6941 Y-2.8613
G01 X43.7043 Y-2.8766
G01 X43.7176 Y-2.8918
G01 X43.7300 Y-2.9029
G01 X43.7450 Y-2.9135
G01 X43.7596 Y-2.9214
G01 X43.7766 Y-2.9282
G01 X43.7926 Y-2.9325
G01 X43.8090 Y-2.9351
G01 X43.8255 Y-2.9358
G01 X43.8439 Y-2.9344
G01 X43.8584 Y-2.9317
G01 X43.8725 Y-2.9276
G01 X43.8845 Y-2.9229
G01 X43.8976 Y-2.9163
G01 X43.9086 Y-2.9095
G01 X43.9203 Y-2.9006
G01 X43.9298 Y-2.8918
G01 X43.9397 Y-2.8809
G01 X43.9474 Y-2.8706
G01 X43.9551 Y-2.8581
G01 X43.9913 Y-2.7852
G01 X44.0216 Y-2.7318
G01 X44.0544 Y-2.6800
G01 X44.0897 Y-2.6298
G01 X44.1275 Y-2.5814
G01 X44.1675 Y-2.5350
G01 X44.2098 Y-2.4905
G01 X44.2543 Y-2.4482
G01 X44.3007 Y-2.4082
G01 X44.3491 Y-2.3704
G01 X44.3993 Y-2.3351
G01 X44.4511 Y-2.3023
G01 X44.5045 Y-2.2720
G01 X44.5442 Y-2.2520
G01 X44.5568 Y-2.2444
G01 X44.5686 Y-2.2357
G01 X44.5808 Y-2.2245
G01 X44.5906 Y-2.2135
G01 X44.5992 Y-2.2015
G01 X44.6090 Y-2.1839
G01 X44.6164 Y-2.1650
