(G-CODE GENERATED BY FLATCAM v8.993 - www.flatcam.org - Version Date: 2020/06/05)

(Name: 74hc595_Cont2_Ф1_верх.gbr_iso_combined_cnc)
(Type: G-code from Geometry)
(Units: MM)

(Created on Thursday, 25 November 2021 at 00:50)

(This preprocessor is the default preprocessor used by FlatCAM.)
(It is made to work with MACH3 compatible motion controllers.)

(TOOL DIAMETER: 0.15 mm)
(Feedrate_XY: 120.0 mm/min)
(Feedrate_Z: 70.0 mm/min)
(Feedrate rapids 1500.0 mm/min)

(Z_Cut: -0.09 mm)
(Z_Move: 2.0 mm)
(Z Start: None mm)
(Z End: 25.0 mm)
(Steps per circle: 128)
(Preprocessor Geometry: default)

(X range:   -0.0794 ...   39.1726  mm)
(Y range:  -23.2699 ...    0.0821  mm)

(Spindle Speed: 10000 RPM)
G21
G90
G94



G01 F120.00
G00 Z2.0000

M03 S10000
G00 X-0.0794 Y0.0061
G01 F70.00
G01 Z-0.0900
G01 F120.00
G01 X-0.0794 Y-23.1939
G01 X-0.0788 Y-23.2032
G01 X-0.0769 Y-23.2133
G01 X-0.0736 Y-23.2230
G01 X-0.0695 Y-23.2314
G01 X-0.0639 Y-23.2399
G01 X-0.0578 Y-23.2470
G01 X-0.0502 Y-23.2538
G01 X-0.0425 Y-23.2591
G01 X-0.0333 Y-23.2638
G01 X-0.0236 Y-23.2672
G01 X-0.0136 Y-23.2692
G01 X-0.0034 Y-23.2699
G01 X39.0966 Y-23.2699
G01 X39.1059 Y-23.2693
G01 X39.1160 Y-23.2674
G01 X39.1257 Y-23.2641
G01 X39.1341 Y-23.2600
G01 X39.1426 Y-23.2544
G01 X39.1497 Y-23.2483
G01 X39.1565 Y-23.2407
G01 X39.1618 Y-23.2330
G01 X39.1665 Y-23.2238
G01 X39.1699 Y-23.2141
G01 X39.1719 Y-23.2041
G01 X39.1726 Y-23.1939
G01 X39.1726 Y0.0061
G01 X39.1720 Y0.0154
G01 X39.1701 Y0.0255
G01 X39.1668 Y0.0352
G01 X39.1627 Y0.0436
G01 X39.1571 Y0.0521
G01 X39.1510 Y0.0592
G01 X39.1434 Y0.0660
G01 X39.1357 Y0.0713
G01 X39.1265 Y0.0760
G01 X39.1168 Y0.0794
G01 X39.1068 Y0.0814
G01 X39.0966 Y0.0821
G01 X-0.0034 Y0.0821
G01 X-0.0182 Y0.0806
G01 X-0.0325 Y0.0763
G01 X-0.0456 Y0.0693
G01 X-0.0571 Y0.0598
G01 X-0.0666 Y0.0483
G01 X-0.0736 Y0.0352
G01 X-0.0779 Y0.0209
G01 X-0.0794 Y0.0061
G00 Z2.0000
G00 X1.1406 Y-1.5860
G01 F70.00
G01 Z-0.0900
G01 F120.00
G01 X1.1618 Y-1.5369
G01 X1.1811 Y-1.4985
G01 X1.2023 Y-1.4612
G01 X1.2253 Y-1.4249
G01 X1.2500 Y-1.3898
G01 X1.2764 Y-1.3559
G01 X1.3045 Y-1.3234
G01 X1.3341 Y-1.2923
G01 X1.3652 Y-1.2627
G01 X1.3977 Y-1.2346
G01 X1.4316 Y-1.2082
G01 X1.4667 Y-1.1835
G01 X1.5030 Y-1.1605
G01 X1.5403 Y-1.1393
G01 X1.5787 Y-1.1200
G01 X1.6278 Y-1.0988
G01 X1.6278 Y-1.1529
G01 X1.6001 Y-1.1652
G01 X1.5655 Y-1.1826
G01 X1.5303 Y-1.2024
G01 X1.4945 Y-1.2250
G01 X1.4621 Y-1.2478
G01 X1.4294 Y-1.2733
G01 X1.3988 Y-1.2997
G01 X1.3694 Y-1.3276
G01 X1.3409 Y-1.3576
G01 X1.3151 Y-1.3876
G01 X1.2913 Y-1.4181
G01 X1.2658 Y-1.4542
G01 X1.2452 Y-1.4869
G01 X1.2252 Y-1.5221
G01 X1.2070 Y-1.5583
G01 X1.1947 Y-1.5860
G01 X1.1406 Y-1.5860
G00 Z2.0000
G00 X1.1406 Y-2.2360
G01 F70.00
G01 Z-0.0900
G01 F120.00
G01 X1.1947 Y-2.2360
G01 X1.2070 Y-2.2637
G01 X1.2244 Y-2.2983
G01 X1.2442 Y-2.3335
G01 X1.2668 Y-2.3693
G01 X1.2896 Y-2.4017
G01 X1.3151 Y-2.4344
G01 X1.3415 Y-2.4650
G01 X1.3694 Y-2.4944
G01 X1.3994 Y-2.5229
G01 X1.4294 Y-2.5487
G01 X1.4599 Y-2.5725
G01 X1.4960 Y-2.5980
G01 X1.5287 Y-2.6186
G01 X1.5639 Y-2.6386
G01 X1.6001 Y-2.6568
G01 X1.6278 Y-2.6691
G01 X1.6278 Y-2.7232
G01 X1.5787 Y-2.7020
G01 X1.5403 Y-2.6827
G01 X1.5030 Y-2.6615
G01 X1.4667 Y-2.6385
G01 X1.4316 Y-2.6138
G01 X1.3977 Y-2.5874
G01 X1.3652 Y-2.5593
G01 X1.3341 Y-2.5297
G01 X1.3045 Y-2.4986
G01 X1.2764 Y-2.4661
G01 X1.2500 Y-2.4322
G01 X1.2253 Y-2.3971
G01 X1.2023 Y-2.3608
G01 X1.1811 Y-2.3235
G01 X1.1618 Y-2.2851
G01 X1.1406 Y-2.2360
G00 Z2.0000
G00 X2.0527 Y-1.9110
G01 F70.00
G01 Z-0.0900
G01 F120.00
G01 X2.0508 Y-1.9305
G01 X2.0451 Y-1.9492
G01 X2.0359 Y-1.9665
G01 X2.0234 Y-1.9816
G01 X2.0083 Y-1.9941
G01 X1.9910 Y-2.0033
G01 X1.9723 Y-2.0090
G01 X1.9528 Y-2.0109
G01 X1.9333 Y-2.0090
G01 X1.9146 Y-2.0033
G01 X1.8973 Y-1.9941
G01 X1.8822 Y-1.9816
G01 X1.8697 Y-1.9665
G01 X1.8605 Y-1.9492
G01 X1.8548 Y-1.9305
G01 X1.8529 Y-1.9110
G01 X1.8548 Y-1.8915
G01 X1.8605 Y-1.8728
G01 X1.8697 Y-1.8555
G01 X1.8822 Y-1.8404
G01 X1.8973 Y-1.8279
G01 X1.9146 Y-1.8187
G01 X1.9333 Y-1.8130
G01 X1.9528 Y-1.8111
G01 X1.9723 Y-1.8130
G01 X1.9910 Y-1.8187
G01 X2.0083 Y-1.8279
G01 X2.0234 Y-1.8404
G01 X2.0359 Y-1.8555
G01 X2.0451 Y-1.8728
G01 X2.0508 Y-1.8915
G01 X2.0527 Y-1.9110
G00 Z2.0000
G00 X2.1277 Y-1.9110
G01 F70.00
G01 Z-0.0900
G01 F120.00
G01 X2.1269 Y-1.9281
G01 X2.1244 Y-1.9451
G01 X2.1202 Y-1.9618
G01 X2.1144 Y-1.9779
G01 X2.1071 Y-1.9935
G01 X2.0983 Y-2.0082
G01 X2.0880 Y-2.0220
G01 X2.0765 Y-2.0347
G01 X2.0638 Y-2.0462
G01 X2.0500 Y-2.0565
G01 X2.0353 Y-2.0653
G01 X2.0197 Y-2.0726
G01 X2.0036 Y-2.0784
G01 X1.9869 Y-2.0826
G01 X1.9699 Y-2.0851
G01 X1.9528 Y-2.0859
G01 X1.9357 Y-2.0851
G01 X1.9187 Y-2.0826
G01 X1.9020 Y-2.0784
G01 X1.8859 Y-2.0726
G01 X1.8703 Y-2.0653
G01 X1.8556 Y-2.0565
G01 X1.8418 Y-2.0462
G01 X1.8291 Y-2.0347
G01 X1.8176 Y-2.0220
G01 X1.8073 Y-2.0082
G01 X1.7985 Y-1.9935
G01 X1.7912 Y-1.9779
G01 X1.7854 Y-1.9618
G01 X1.7812 Y-1.9451
G01 X1.7787 Y-1.9281
G01 X1.7779 Y-1.9110
G01 X1.7787 Y-1.8939
G01 X1.7812 Y-1.8769
G01 X1.7854 Y-1.8602
G01 X1.7912 Y-1.8441
G01 X1.7985 Y-1.8285
G01 X1.8073 Y-1.8138
G01 X1.8176 Y-1.8000
G01 X1.8291 Y-1.7873
G01 X1.8418 Y-1.7758
G01 X1.8556 Y-1.7655
G01 X1.8703 Y-1.7567
G01 X1.8859 Y-1.7494
G01 X1.9020 Y-1.7436
G01 X1.9187 Y-1.7394
G01 X1.9357 Y-1.7369
G01 X1.9528 Y-1.7361
G01 X1.9699 Y-1.7369
G01 X1.9869 Y-1.7394
G01 X2.0036 Y-1.7436
G01 X2.0197 Y-1.7494
G01 X2.0353 Y-1.7567
G01 X2.0500 Y-1.7655
G01 X2.0638 Y-1.7758
G01 X2.0765 Y-1.7873
G01 X2.0880 Y-1.8000
G01 X2.0983 Y-1.8138
G01 X2.1071 Y-1.8285
G01 X2.1144 Y-1.8441
G01 X2.1202 Y-1.8602
G01 X2.1244 Y-1.8769
G01 X2.1269 Y-1.8939
G01 X2.1277 Y-1.9110
G00 Z2.0000
G00 X2.2028 Y-1.9110
G01 F70.00
G01 Z-0.0900
G01 F120.00
G01 X2.2016 Y-1.9355
G01 X2.1980 Y-1.9598
G01 X2.1920 Y-1.9836
G01 X2.1837 Y-2.0067
G01 X2.1732 Y-2.0288
G01 X2.1606 Y-2.0499
G01 X2.1460 Y-2.0696
G01 X2.1295 Y-2.0877
G01 X2.1114 Y-2.1042
G01 X2.0917 Y-2.1188
G01 X2.0706 Y-2.1314
G01 X2.0485 Y-2.1419
G01 X2.0254 Y-2.1502
G01 X2.0016 Y-2.1562
G01 X1.9773 Y-2.1598
G01 X1.9528 Y-2.1610
G01 X1.9283 Y-2.1598
G01 X1.9040 Y-2.1562
G01 X1.8802 Y-2.1502
G01 X1.8571 Y-2.1419
G01 X1.8350 Y-2.1314
G01 X1.8139 Y-2.1188
G01 X1.7942 Y-2.1042
G01 X1.7761 Y-2.0877
G01 X1.7596 Y-2.0696
G01 X1.7450 Y-2.0499
G01 X1.7324 Y-2.0288
G01 X1.7219 Y-2.0067
G01 X1.7136 Y-1.9836
G01 X1.7076 Y-1.9598
G01 X1.7040 Y-1.9355
G01 X1.7028 Y-1.9110
G01 X1.7040 Y-1.8865
G01 X1.7076 Y-1.8622
G01 X1.7136 Y-1.8384
G01 X1.7219 Y-1.8153
G01 X1.7324 Y-1.7932
G01 X1.7450 Y-1.7721
G01 X1.7596 Y-1.7524
G01 X1.7761 Y-1.7343
G01 X1.7942 Y-1.7178
G01 X1.8139 Y-1.7032
G01 X1.8350 Y-1.6906
G01 X1.8571 Y-1.6801
G01 X1.8802 Y-1.6718
G01 X1.9040 Y-1.6658
G01 X1.9283 Y-1.6622
G01 X1.9528 Y-1.6610
G01 X1.9773 Y-1.6622
G01 X2.0016 Y-1.6658
G01 X2.0254 Y-1.6718
G01 X2.0485 Y-1.6801
G01 X2.0706 Y-1.6906
G01 X2.0917 Y-1.7032
G01 X2.1114 Y-1.7178
G01 X2.1295 Y-1.7343
G01 X2.1460 Y-1.7524
G01 X2.1606 Y-1.7721
G01 X2.1732 Y-1.7932
G01 X2.1837 Y-1.8153
G01 X2.1920 Y-1.8384
G01 X2.1980 Y-1.8622
G01 X2.2016 Y-1.8865
G01 X2.2028 Y-1.9110
G00 Z2.0000
G00 X2.2778 Y-1.9110
G01 F70.00
G01 Z-0.0900
G01 F120.00
G01 X2.2762 Y-1.9429
G01 X2.2715 Y-1.9744
G01 X2.2638 Y-2.0053
G01 X2.2530 Y-2.0354
G01 X2.2394 Y-2.0642
G01 X2.2230 Y-2.0915
G01 X2.2040 Y-2.1172
G01 X2.1826 Y-2.1408
G01 X2.1590 Y-2.1622
G01 X2.1333 Y-2.1812
G01 X2.1060 Y-2.1976
G01 X2.0772 Y-2.2112
G01 X2.0471 Y-2.2220
G01 X2.0162 Y-2.2297
G01 X1.9847 Y-2.2344
G01 X1.9528 Y-2.2360
G01 X1.9209 Y-2.2344
G01 X1.8894 Y-2.2297
G01 X1.8585 Y-2.2220
G01 X1.8284 Y-2.2112
G01 X1.7996 Y-2.1976
G01 X1.7723 Y-2.1812
G01 X1.7466 Y-2.1622
G01 X1.7230 Y-2.1408
G01 X1.7016 Y-2.1172
G01 X1.6826 Y-2.0915
G01 X1.6662 Y-2.0642
G01 X1.6526 Y-2.0354
G01 X1.6418 Y-2.0053
G01 X1.6341 Y-1.9744
G01 X1.6294 Y-1.9429
G01 X1.6278 Y-1.9110
G01 X1.6294 Y-1.8791
G01 X1.6341 Y-1.8476
G01 X1.6418 Y-1.8167
G01 X1.6526 Y-1.7866
G01 X1.6662 Y-1.7578
G01 X1.6826 Y-1.7305
G01 X1.7016 Y-1.7048
G01 X1.7230 Y-1.6812
G01 X1.7466 Y-1.6598
G01 X1.7723 Y-1.6408
G01 X1.7996 Y-1.6244
G01 X1.8284 Y-1.6108
G01 X1.8585 Y-1.6000
G01 X1.8894 Y-1.5923
G01 X1.9209 Y-1.5876
G01 X1.9528 Y-1.5860
G01 X1.9847 Y-1.5876
G01 X2.0162 Y-1.5923
G01 X2.0471 Y-1.6000
G01 X2.0772 Y-1.6108
G01 X2.1060 Y-1.6244
G01 X2.1333 Y-1.6408
G01 X2.1590 Y-1.6598
G01 X2.1826 Y-1.6812
G01 X2.2040 Y-1.7048
G01 X2.2230 Y-1.7305
G01 X2.2394 Y-1.7578
G01 X2.2530 Y-1.7866
G01 X2.2638 Y-1.8167
G01 X2.2715 Y-1.8476
G01 X2.2762 Y-1.8791
G01 X2.2778 Y-1.9110
G00 Z2.0000
G00 X2.2778 Y-1.1529
G01 F70.00
G01 Z-0.0900
G01 F120.00
G01 X2.2778 Y-1.0988
G01 X2.3269 Y-1.1200
G01 X2.3653 Y-1.1393
G01 X2.4026 Y-1.1605
G01 X2.4389 Y-1.1835
G01 X2.4740 Y-1.2082
G01 X2.5079 Y-1.2346
G01 X2.5404 Y-1.2627
G01 X2.5715 Y-1.2923
G01 X2.6011 Y-1.3234
G01 X2.6292 Y-1.3559
G01 X2.6556 Y-1.3898
G01 X2.6803 Y-1.4249
G01 X2.7033 Y-1.4612
G01 X2.7245 Y-1.4985
G01 X2.7438 Y-1.5369
G01 X2.7650 Y-1.5860
G01 X2.7109 Y-1.5860
G01 X2.6986 Y-1.5583
G01 X2.6812 Y-1.5237
G01 X2.6614 Y-1.4885
G01 X2.6388 Y-1.4527
G01 X2.6160 Y-1.4203
G01 X2.5905 Y-1.3876
G01 X2.5641 Y-1.3570
G01 X2.5362 Y-1.3276
G01 X2.5062 Y-1.2991
G01 X2.4762 Y-1.2733
G01 X2.4457 Y-1.2495
G01 X2.4096 Y-1.2240
G01 X2.3769 Y-1.2034
G01 X2.3417 Y-1.1834
G01 X2.3055 Y-1.1652
G01 X2.2778 Y-1.1529
G00 Z2.0000
G00 X2.2778 Y-2.7232
G01 F70.00
G01 Z-0.0900
G01 F120.00
G01 X2.2778 Y-2.6691
G01 X2.3055 Y-2.6568
G01 X2.3401 Y-2.6394
G01 X2.3753 Y-2.6196
G01 X2.4111 Y-2.5970
G01 X2.4435 Y-2.5742
G01 X2.4762 Y-2.5487
G01 X2.5068 Y-2.5223
G01 X2.5362 Y-2.4944
G01 X2.5647 Y-2.4644
G01 X2.5905 Y-2.4344
G01 X2.6143 Y-2.4039
G01 X2.6398 Y-2.3678
G01 X2.6604 Y-2.3351
G01 X2.6804 Y-2.2999
G01 X2.6986 Y-2.2637
G01 X2.7109 Y-2.2360
G01 X2.7650 Y-2.2360
G01 X2.7438 Y-2.2851
G01 X2.7245 Y-2.3235
G01 X2.7033 Y-2.3608
G01 X2.6803 Y-2.3971
G01 X2.6556 Y-2.4322
G01 X2.6292 Y-2.4661
G01 X2.6011 Y-2.4986
G01 X2.5715 Y-2.5297
G01 X2.5404 Y-2.5593
G01 X2.5079 Y-2.5874
G01 X2.4740 Y-2.6138
G01 X2.4389 Y-2.6385
G01 X2.4026 Y-2.6615
G01 X2.3653 Y-2.6827
G01 X2.3269 Y-2.7020
G01 X2.2778 Y-2.7232
G00 Z2.0000
G00 X3.7494 Y-3.0301
G01 F70.00
G01 Z-0.0900
G01 F120.00
G01 X3.7994 Y-3.0301
G01 X3.7994 Y-3.5402
G01 X3.8007 Y-3.5521
G01 X3.8038 Y-3.5637
G01 X3.8087 Y-3.5746
G01 X3.8147 Y-3.5838
G01 X3.8254 Y-3.5952
G01 X3.8382 Y-3.6041
G01 X3.8526 Y-3.6102
G01 X3.8689 Y-3.6132
G01 X4.2327 Y-3.6134
G01 X4.2327 Y-3.6634
G01 X3.7494 Y-3.6634
G01 X3.7494 Y-3.0301
G00 Z2.0000
G00 X4.2327 Y-1.8134
G01 F70.00
G01 Z-0.0900
G01 F120.00
G01 X4.2327 Y-1.8634
G01 X3.8689 Y-1.8636
G01 X3.8535 Y-1.8664
G01 X3.8382 Y-1.8727
G01 X3.8254 Y-1.8816
G01 X3.8147 Y-1.8930
G01 X3.8083 Y-1.9030
G01 X3.8038 Y-1.9131
G01 X3.8007 Y-1.9247
G01 X3.7994 Y-1.9366
G01 X3.7994 Y-2.4468
G01 X3.7494 Y-2.4468
G01 X3.7494 Y-1.8134
G01 X4.2327 Y-1.8134
G00 Z2.0000
G00 X5.2994 Y-3.6634
G01 F70.00
G01 Z-0.0900
G01 F120.00
G01 X4.8160 Y-3.6634
G01 X4.8160 Y-3.6134
G01 X5.1753 Y-3.6134
G01 X5.1854 Y-3.6126
G01 X5.1953 Y-3.6104
G01 X5.2065 Y-3.6062
G01 X5.2176 Y-3.5997
G01 X5.2268 Y-3.5921
G01 X5.2346 Y-3.5831
G01 X5.2410 Y-3.5729
G01 X5.2456 Y-3.5619
G01 X5.2484 Y-3.5503
G01 X5.2494 Y-3.5384
G01 X5.2494 Y-1.9384
G01 X5.2488 Y-1.9292
G01 X5.2472 Y-1.9202
G01 X5.2433 Y-1.9089
G01 X5.2383 Y-1.8991
G01 X5.2318 Y-1.8901
G01 X5.2241 Y-1.8822
G01 X5.2153 Y-1.8755
G01 X5.2056 Y-1.8702
G01 X5.1953 Y-1.8664
G01 X5.1845 Y-1.8641
G01 X5.1744 Y-1.8634
G01 X4.8160 Y-1.8634
G01 X4.8160 Y-1.8134
G01 X5.2994 Y-1.8134
G01 X5.2994 Y-3.6634
G00 Z2.0000
G00 X4.2327 Y-4.3534
G01 F70.00
G01 Z-0.0900
G01 F120.00
G01 X4.2327 Y-4.4034
G01 X3.8689 Y-4.4036
G01 X3.8535 Y-4.4064
G01 X3.8382 Y-4.4127
G01 X3.8254 Y-4.4216
G01 X3.8147 Y-4.4330
G01 X3.8087 Y-4.4422
G01 X3.8038 Y-4.4531
G01 X3.8007 Y-4.4647
G01 X3.7994 Y-4.4766
G01 X3.7994 Y-4.9868
G01 X3.7494 Y-4.9868
G01 X3.7494 Y-4.3534
G01 X4.2327 Y-4.3534
G00 Z2.0000
G00 X3.7494 Y-5.5701
G01 F70.00
G01 Z-0.0900
G01 F120.00
G01 X3.7994 Y-5.5701
G01 X3.7994 Y-6.0802
G01 X3.8007 Y-6.0921
G01 X3.8038 Y-6.1037
G01 X3.8087 Y-6.1146
G01 X3.8147 Y-6.1238
G01 X3.8254 Y-6.1352
G01 X3.8382 Y-6.1441
G01 X3.8535 Y-6.1504
G01 X3.8689 Y-6.1532
G01 X4.2327 Y-6.1534
G01 X4.2327 Y-6.2034
G01 X3.7494 Y-6.2034
G01 X3.7494 Y-5.5701
G00 Z2.0000
G00 X4.2327 Y-6.8934
G01 F70.00
G01 Z-0.0900
G01 F120.00
G01 X4.2327 Y-6.9434
G01 X3.8689 Y-6.9436
G01 X3.8535 Y-6.9464
G01 X3.8382 Y-6.9527
G01 X3.8254 Y-6.9616
G01 X3.8147 Y-6.9730
G01 X3.8087 Y-6.9822
G01 X3.8038 Y-6.9931
G01 X3.8007 Y-7.0047
G01 X3.7994 Y-7.0166
G01 X3.7994 Y-7.5268
G01 X3.7494 Y-7.5268
G01 X3.7494 Y-6.8934
G01 X4.2327 Y-6.8934
G00 Z2.0000
G00 X5.2994 Y-6.2034
G01 F70.00
G01 Z-0.0900
G01 F120.00
G01 X4.8160 Y-6.2034
G01 X4.8160 Y-6.1534
G01 X5.1753 Y-6.1534
G01 X5.1854 Y-6.1526
G01 X5.1953 Y-6.1504
G01 X5.2065 Y-6.1462
G01 X5.2176 Y-6.1397
G01 X5.2268 Y-6.1321
G01 X5.2346 Y-6.1231
G01 X5.2410 Y-6.1129
G01 X5.2456 Y-6.1019
G01 X5.2484 Y-6.0903
G01 X5.2494 Y-6.0784
G01 X5.2494 Y-4.4784
G01 X5.2488 Y-4.4692
G01 X5.2472 Y-4.4602
G01 X5.2433 Y-4.4489
G01 X5.2383 Y-4.4391
G01 X5.2318 Y-4.4301
G01 X5.2241 Y-4.4222
G01 X5.2153 Y-4.4155
G01 X5.2056 Y-4.4102
G01 X5.1953 Y-4.4064
G01 X5.1845 Y-4.4041
G01 X5.1744 Y-4.4034
G01 X4.8160 Y-4.4034
G01 X4.8160 Y-4.3534
G01 X5.2994 Y-4.3534
G01 X5.2994 Y-6.2034
G00 Z2.0000
G00 X3.7494 Y-8.1101
G01 F70.00
G01 Z-0.0900
G01 F120.00
G01 X3.7994 Y-8.1101
G01 X3.7994 Y-8.6202
G01 X3.8007 Y-8.6321
G01 X3.8038 Y-8.6437
G01 X3.8083 Y-8.6538
G01 X3.8147 Y-8.6638
G01 X3.8254 Y-8.6752
G01 X3.8382 Y-8.6841
G01 X3.8526 Y-8.6902
G01 X3.8689 Y-8.6932
G01 X4.2327 Y-8.6934
G01 X4.2327 Y-8.7434
G01 X3.7494 Y-8.7434
G01 X3.7494 Y-8.1101
G00 Z2.0000
G00 X4.2327 Y-9.4334
G01 F70.00
G01 Z-0.0900
G01 F120.00
G01 X4.2327 Y-9.4834
G01 X3.8689 Y-9.4836
G01 X3.8526 Y-9.4866
G01 X3.8382 Y-9.4927
G01 X3.8254 Y-9.5016
G01 X3.8147 Y-9.5130
G01 X3.8083 Y-9.5230
G01 X3.8038 Y-9.5331
G01 X3.8007 Y-9.5447
G01 X3.7994 Y-9.5566
G01 X3.7994 Y-10.0668
G01 X3.7494 Y-10.0668
G01 X3.7494 Y-9.4334
G01 X4.2327 Y-9.4334
G00 Z2.0000
G00 X5.2994 Y-8.7434
G01 F70.00
G01 Z-0.0900
G01 F120.00
G01 X4.8160 Y-8.7434
G01 X4.8160 Y-8.6934
G01 X5.1753 Y-8.6934
G01 X5.1854 Y-8.6926
G01 X5.1953 Y-8.6904
G01 X5.2065 Y-8.6862
G01 X5.2168 Y-8.6802
G01 X5.2261 Y-8.6727
G01 X5.2341 Y-8.6638
G01 X5.2410 Y-8.6529
G01 X5.2456 Y-8.6419
G01 X5.2484 Y-8.6303
G01 X5.2494 Y-8.6184
G01 X5.2494 Y-7.0184
G01 X5.2488 Y-7.0092
G01 X5.2472 Y-7.0002
G01 X5.2433 Y-6.9889
G01 X5.2383 Y-6.9791
G01 X5.2318 Y-6.9701
G01 X5.2241 Y-6.9622
G01 X5.2153 Y-6.9555
G01 X5.2056 Y-6.9502
G01 X5.1953 Y-6.9464
G01 X5.1845 Y-6.9441
G01 X5.1744 Y-6.9434
G01 X4.8160 Y-6.9434
G01 X4.8160 Y-6.8934
G01 X5.2994 Y-6.8934
G01 X5.2994 Y-8.7434
G00 Z2.0000
G00 X7.1994 Y-8.7435
G01 F70.00
G01 Z-0.0900
G01 F120.00
G01 X5.6494 Y-8.7435
G01 X5.6494 Y-6.8935
G01 X7.1994 Y-6.8935
G01 X7.1999 Y-7.4766
G01 X7.2024 Y-7.4892
G01 X7.2074 Y-7.5020
G01 X7.2147 Y-7.5137
G01 X7.2234 Y-7.5233
G01 X7.2343 Y-7.5317
G01 X7.2466 Y-7.5380
G01 X7.2598 Y-7.5419
G01 X7.2726 Y-7.5433
G01 X7.8701 Y-7.5433
G01 X7.8848 Y-7.5417
G01 X7.8996 Y-7.5369
G01 X7.9093 Y-7.5317
G01 X7.9189 Y-7.5245
G01 X7.9272 Y-7.5159
G01 X7.9335 Y-7.5069
G01 X7.9382 Y-7.4979
G01 X7.9510 Y-7.4646
G01 X7.9694 Y-7.4231
G01 X7.9898 Y-7.3826
G01 X8.0122 Y-7.3431
G01 X8.0365 Y-7.3047
G01 X8.0627 Y-7.2676
G01 X8.0906 Y-7.2318
G01 X8.1202 Y-7.1974
G01 X8.1515 Y-7.1645
G01 X8.1844 Y-7.1332
G01 X8.2188 Y-7.1036
G01 X8.2546 Y-7.0757
G01 X8.2917 Y-7.0495
G01 X8.3301 Y-7.0252
G01 X8.3696 Y-7.0028
G01 X8.4101 Y-6.9824
G01 X8.4516 Y-6.9640
G01 X8.4940 Y-6.9477
G01 X8.5371 Y-6.9335
G01 X8.5808 Y-6.9213
G01 X8.6251 Y-6.9114
G01 X8.6699 Y-6.9036
G01 X8.7149 Y-6.8981
G01 X8.7602 Y-6.8947
G01 X8.8056 Y-6.8936
G01 X8.8510 Y-6.8947
G01 X8.8963 Y-6.8981
G01 X8.9413 Y-6.9036
G01 X8.9861 Y-6.9114
G01 X9.0304 Y-6.9213
G01 X9.0741 Y-6.9335
G01 X9.1172 Y-6.9477
G01 X9.1596 Y-6.9640
G01 X9.2011 Y-6.9824
G01 X9.2416 Y-7.0028
G01 X9.2811 Y-7.0252
G01 X9.3195 Y-7.0495
G01 X9.3566 Y-7.0757
G01 X9.3924 Y-7.1036
G01 X9.4268 Y-7.1332
G01 X9.4597 Y-7.1645
G01 X9.4910 Y-7.1974
G01 X9.5206 Y-7.2318
G01 X9.5485 Y-7.2676
G01 X9.5747 Y-7.3047
G01 X9.5990 Y-7.3431
G01 X9.6214 Y-7.3826
G01 X9.6418 Y-7.4231
G01 X9.6602 Y-7.4646
G01 X9.6734 Y-7.4987
G01 X9.6807 Y-7.5115
G01 X9.6864 Y-7.5187
G01 X9.6923 Y-7.5245
G01 X9.6988 Y-7.5296
G01 X9.7066 Y-7.5345
G01 X9.7150 Y-7.5383
G01 X9.7229 Y-7.5408
G01 X9.7392 Y-7.5433
G01 X15.1827 Y-7.5432
G01 X15.1945 Y-7.5417
G01 X15.2068 Y-7.5380
G01 X15.2176 Y-7.5327
G01 X15.2280 Y-7.5251
G01 X15.2364 Y-7.5166
G01 X15.2438 Y-7.5061
G01 X15.2490 Y-7.4953
G01 X15.2526 Y-7.4830
G01 X15.2540 Y-7.4683
G01 X15.2540 Y-7.1835
G01 X16.7240 Y-7.1835
G01 X16.7240 Y-8.4535
G01 X15.2540 Y-8.4535
G01 X15.2540 Y-8.1687
G01 X15.2526 Y-8.1540
G01 X15.2490 Y-8.1417
G01 X15.2438 Y-8.1309
G01 X15.2364 Y-8.1204
G01 X15.2280 Y-8.1119
G01 X15.2176 Y-8.1043
G01 X15.2068 Y-8.0990
G01 X15.1945 Y-8.0953
G01 X15.1827 Y-8.0938
G01 X9.7393 Y-8.0937
G01 X9.7311 Y-8.0945
G01 X9.7221 Y-8.0964
G01 X9.7067 Y-8.1025
G01 X9.6996 Y-8.1068
G01 X9.6924 Y-8.1125
G01 X9.6865 Y-8.1183
G01 X9.6807 Y-8.1255
G01 X9.6735 Y-8.1383
G01 X9.6602 Y-8.1726
G01 X9.6418 Y-8.2141
G01 X9.6214 Y-8.2546
G01 X9.5990 Y-8.2941
G01 X9.5747 Y-8.3325
G01 X9.5485 Y-8.3696
G01 X9.5206 Y-8.4054
G01 X9.4910 Y-8.4398
G01 X9.4597 Y-8.4727
G01 X9.4268 Y-8.5040
G01 X9.3924 Y-8.5336
G01 X9.3566 Y-8.5615
G01 X9.3195 Y-8.5877
G01 X9.2811 Y-8.6120
G01 X9.2416 Y-8.6344
G01 X9.2011 Y-8.6548
G01 X9.1596 Y-8.6732
G01 X9.1172 Y-8.6895
G01 X9.0741 Y-8.7037
G01 X9.0304 Y-8.7159
G01 X8.9861 Y-8.7258
G01 X8.9413 Y-8.7336
G01 X8.8963 Y-8.7391
G01 X8.8510 Y-8.7425
G01 X8.8056 Y-8.7436
G01 X8.7602 Y-8.7425
G01 X8.7149 Y-8.7391
G01 X8.6699 Y-8.7336
G01 X8.6251 Y-8.7258
G01 X8.5808 Y-8.7159
G01 X8.5371 Y-8.7037
G01 X8.4940 Y-8.6895
G01 X8.4516 Y-8.6732
G01 X8.4101 Y-8.6548
G01 X8.3696 Y-8.6344
G01 X8.3301 Y-8.6120
G01 X8.2917 Y-8.5877
G01 X8.2546 Y-8.5615
G01 X8.2188 Y-8.5336
G01 X8.1844 Y-8.5040
G01 X8.1515 Y-8.4727
G01 X8.1202 Y-8.4398
G01 X8.0906 Y-8.4054
G01 X8.0627 Y-8.3696
G01 X8.0365 Y-8.3325
G01 X8.0122 Y-8.2941
G01 X7.9898 Y-8.2546
G01 X7.9694 Y-8.2141
G01 X7.9510 Y-8.1726
G01 X7.9381 Y-8.1391
G01 X7.9335 Y-8.1301
G01 X7.9271 Y-8.1211
G01 X7.9188 Y-8.1125
G01 X7.9093 Y-8.1053
G01 X7.8995 Y-8.1001
G01 X7.8847 Y-8.0953
G01 X7.8701 Y-8.0937
G01 X7.2726 Y-8.0937
G01 X7.2589 Y-8.0953
G01 X7.2466 Y-8.0990
G01 X7.2343 Y-8.1053
G01 X7.2240 Y-8.1131
G01 X7.2153 Y-8.1225
G01 X7.2078 Y-8.1341
G01 X7.2026 Y-8.1469
G01 X7.1999 Y-8.1604
G01 X7.1994 Y-8.7435
G00 Z2.0000
G00 X7.9602 Y-8.0436
G01 F70.00
G01 Z-0.0900
G01 F120.00
G01 X7.9683 Y-8.0726
G01 X7.9817 Y-8.1134
G01 X7.9972 Y-8.1534
G01 X8.0142 Y-8.1919
G01 X8.0348 Y-8.2327
G01 X8.0551 Y-8.2684
G01 X8.0776 Y-8.3040
G01 X8.1039 Y-8.3413
G01 X8.1292 Y-8.3737
G01 X8.1573 Y-8.4062
G01 X8.1869 Y-8.4373
G01 X8.2166 Y-8.4657
G01 X8.2512 Y-8.4956
G01 X8.2844 Y-8.5214
G01 X8.3180 Y-8.5451
G01 X8.3574 Y-8.5700
G01 X8.3931 Y-8.5903
G01 X8.4315 Y-8.6096
G01 X8.4708 Y-8.6270
G01 X8.5091 Y-8.6418
G01 X8.5534 Y-8.6564
G01 X8.5930 Y-8.6674
G01 X8.6349 Y-8.6768
G01 X8.6772 Y-8.6841
G01 X8.7180 Y-8.6892
G01 X8.7636 Y-8.6926
G01 X8.8056 Y-8.6936
G01 X8.8485 Y-8.6925
G01 X8.8914 Y-8.6894
G01 X8.9322 Y-8.6844
G01 X8.9781 Y-8.6764
G01 X9.0182 Y-8.6674
G01 X9.0596 Y-8.6559
G01 X9.1004 Y-8.6425
G01 X9.1387 Y-8.6277
G01 X9.1814 Y-8.6088
G01 X9.2181 Y-8.5903
G01 X9.2554 Y-8.5691
G01 X9.2917 Y-8.5461
G01 X9.3261 Y-8.5220
G01 X9.3607 Y-8.4950
G01 X9.3918 Y-8.4682
G01 X9.4256 Y-8.4360
G01 X9.4539 Y-8.4062
G01 X9.4820 Y-8.3737
G01 X9.5084 Y-8.3398
G01 X9.5326 Y-8.3055
G01 X9.5561 Y-8.2684
G01 X9.5764 Y-8.2327
G01 X9.5970 Y-8.1919
G01 X9.6140 Y-8.1534
G01 X9.6295 Y-8.1134
G01 X9.6429 Y-8.0726
G01 X9.6510 Y-8.0436
G01 X15.3040 Y-8.0436
G01 X15.3040 Y-8.3285
G01 X15.3048 Y-8.3395
G01 X15.3072 Y-8.3503
G01 X15.3108 Y-8.3597
G01 X15.3161 Y-8.3694
G01 X15.3228 Y-8.3782
G01 X15.3307 Y-8.3859
G01 X15.3397 Y-8.3924
G01 X15.3486 Y-8.3971
G01 X15.3590 Y-8.4008
G01 X15.3689 Y-8.4028
G01 X15.3790 Y-8.4035
G01 X16.6054 Y-8.4032
G01 X16.6190 Y-8.4008
G01 X16.6311 Y-8.3963
G01 X16.6429 Y-8.3893
G01 X16.6527 Y-8.3809
G01 X16.6614 Y-8.3702
G01 X16.6676 Y-8.3589
G01 X16.6718 Y-8.3467
G01 X16.6739 Y-8.3331
G01 X16.6737 Y-7.3021
G01 X16.6713 Y-7.2885
G01 X16.6668 Y-7.2764
G01 X16.6603 Y-7.2653
G01 X16.6514 Y-7.2548
G01 X16.6407 Y-7.2461
G01 X16.6285 Y-7.2396
G01 X16.6154 Y-7.2353
G01 X16.6027 Y-7.2336
G01 X15.3790 Y-7.2335
G01 X15.3635 Y-7.2351
G01 X15.3520 Y-7.2385
G01 X15.3420 Y-7.2432
G01 X15.3329 Y-7.2494
G01 X15.3247 Y-7.2568
G01 X15.3177 Y-7.2653
G01 X15.3120 Y-7.2748
G01 X15.3075 Y-7.2858
G01 X15.3050 Y-7.2966
G01 X15.3040 Y-7.3085
G01 X15.3040 Y-7.5934
G01 X9.6509 Y-7.5934
G01 X9.6429 Y-7.5646
G01 X9.6295 Y-7.5238
G01 X9.6140 Y-7.4838
G01 X9.5970 Y-7.4453
G01 X9.5773 Y-7.4061
G01 X9.5570 Y-7.3704
G01 X9.5326 Y-7.3317
G01 X9.5084 Y-7.2974
G01 X9.4820 Y-7.2635
G01 X9.4539 Y-7.2310
G01 X9.4256 Y-7.2012
G01 X9.3918 Y-7.1690
G01 X9.3607 Y-7.1422
G01 X9.3261 Y-7.1152
G01 X9.2917 Y-7.0911
G01 X9.2554 Y-7.0681
G01 X9.2181 Y-7.0469
G01 X9.1814 Y-7.0284
G01 X9.1387 Y-7.0095
G01 X9.1004 Y-6.9947
G01 X9.0596 Y-6.9813
G01 X9.0182 Y-6.9698
G01 X8.9781 Y-6.9608
G01 X8.9322 Y-6.9528
G01 X8.8914 Y-6.9478
G01 X8.8485 Y-6.9447
G01 X8.8056 Y-6.9436
G01 X8.7645 Y-6.9446
G01 X8.7180 Y-6.9480
G01 X8.6772 Y-6.9531
G01 X8.6349 Y-6.9604
G01 X8.5930 Y-6.9698
G01 X8.5534 Y-6.9808
G01 X8.5091 Y-6.9954
G01 X8.4708 Y-7.0102
G01 X8.4315 Y-7.0276
G01 X8.3931 Y-7.0469
G01 X8.3574 Y-7.0672
G01 X8.3180 Y-7.0921
G01 X8.2844 Y-7.1158
G01 X8.2512 Y-7.1416
G01 X8.2166 Y-7.1715
G01 X8.1869 Y-7.1999
G01 X8.1573 Y-7.2310
G01 X8.1292 Y-7.2635
G01 X8.1039 Y-7.2959
G01 X8.0776 Y-7.3332
G01 X8.0551 Y-7.3688
G01 X8.0348 Y-7.4045
G01 X8.0142 Y-7.4453
G01 X7.9972 Y-7.4838
G01 X7.9817 Y-7.5238
G01 X7.9683 Y-7.5646
G01 X7.9603 Y-7.5934
G01 X7.1494 Y-7.5934
G01 X7.1492 Y-7.0130
G01 X7.1478 Y-7.0030
G01 X7.1450 Y-6.9932
G01 X7.1410 Y-6.9840
G01 X7.1352 Y-6.9746
G01 X7.1287 Y-6.9668
G01 X7.1213 Y-6.9599
G01 X7.1122 Y-6.9537
G01 X7.1031 Y-6.9492
G01 X7.0890 Y-6.9449
G01 X7.0744 Y-6.9435
G01 X5.7726 Y-6.9435
G01 X5.7625 Y-6.9445
G01 X5.7517 Y-6.9470
G01 X5.7423 Y-6.9507
G01 X5.7335 Y-6.9556
G01 X5.7254 Y-6.9617
G01 X5.7182 Y-6.9688
G01 X5.7120 Y-6.9768
G01 X5.7066 Y-6.9864
G01 X5.7012 Y-7.0021
G01 X5.6994 Y-7.0185
G01 X5.6994 Y-8.6203
G01 X5.7004 Y-8.6304
G01 X5.7029 Y-8.6412
G01 X5.7066 Y-8.6506
G01 X5.7115 Y-8.6594
G01 X5.7176 Y-8.6675
G01 X5.7247 Y-8.6747
G01 X5.7335 Y-8.6814
G01 X5.7423 Y-8.6863
G01 X5.7580 Y-8.6917
G01 X5.7744 Y-8.6935
G01 X7.0744 Y-8.6935
G01 X7.0854 Y-8.6927
G01 X7.0953 Y-8.6905
G01 X7.1056 Y-8.6867
G01 X7.1153 Y-8.6814
G01 X7.1241 Y-8.6747
G01 X7.1324 Y-8.6661
G01 X7.1387 Y-8.6571
G01 X7.1437 Y-8.6472
G01 X7.1472 Y-8.6367
G01 X7.1491 Y-8.6249
G01 X7.1494 Y-8.0436
G01 X7.9602 Y-8.0436
G00 Z2.0000
G00 X8.9055 Y-7.8186
G01 F70.00
G01 Z-0.0900
G01 F120.00
G01 X8.9036 Y-7.8381
G01 X8.8979 Y-7.8568
G01 X8.8887 Y-7.8741
G01 X8.8762 Y-7.8892
G01 X8.8611 Y-7.9017
G01 X8.8438 Y-7.9109
G01 X8.8251 Y-7.9166
G01 X8.8056 Y-7.9185
G01 X8.7861 Y-7.9166
G01 X8.7674 Y-7.9109
G01 X8.7501 Y-7.9017
G01 X8.7350 Y-7.8892
G01 X8.7225 Y-7.8741
G01 X8.7133 Y-7.8568
G01 X8.7076 Y-7.8381
G01 X8.7057 Y-7.8186
G01 X8.7076 Y-7.7991
G01 X8.7133 Y-7.7804
G01 X8.7225 Y-7.7631
G01 X8.7350 Y-7.7480
G01 X8.7501 Y-7.7355
G01 X8.7674 Y-7.7263
G01 X8.7861 Y-7.7206
G01 X8.8056 Y-7.7187
G01 X8.8251 Y-7.7206
G01 X8.8438 Y-7.7263
G01 X8.8611 Y-7.7355
G01 X8.8762 Y-7.7480
G01 X8.8887 Y-7.7631
G01 X8.8979 Y-7.7804
G01 X8.9036 Y-7.7991
G01 X8.9055 Y-7.8186
G00 Z2.0000
G00 X8.9805 Y-7.8186
G01 F70.00
G01 Z-0.0900
G01 F120.00
G01 X8.9797 Y-7.8357
G01 X8.9772 Y-7.8527
G01 X8.9730 Y-7.8694
G01 X8.9672 Y-7.8855
G01 X8.9599 Y-7.9011
G01 X8.9511 Y-7.9158
G01 X8.9408 Y-7.9296
G01 X8.9293 Y-7.9423
G01 X8.9166 Y-7.9538
G01 X8.9028 Y-7.9641
G01 X8.8881 Y-7.9729
G01 X8.8725 Y-7.9802
G01 X8.8564 Y-7.9860
G01 X8.8397 Y-7.9902
G01 X8.8227 Y-7.9927
G01 X8.8056 Y-7.9935
G01 X8.7885 Y-7.9927
G01 X8.7715 Y-7.9902
G01 X8.7548 Y-7.9860
G01 X8.7387 Y-7.9802
G01 X8.7231 Y-7.9729
G01 X8.7084 Y-7.9641
G01 X8.6946 Y-7.9538
G01 X8.6819 Y-7.9423
G01 X8.6704 Y-7.9296
G01 X8.6601 Y-7.9158
G01 X8.6513 Y-7.9011
G01 X8.6440 Y-7.8855
G01 X8.6382 Y-7.8694
G01 X8.6340 Y-7.8527
G01 X8.6315 Y-7.8357
G01 X8.6307 Y-7.8186
G01 X8.6315 Y-7.8015
G01 X8.6340 Y-7.7845
G01 X8.6382 Y-7.7678
G01 X8.6440 Y-7.7517
G01 X8.6513 Y-7.7361
G01 X8.6601 Y-7.7214
G01 X8.6704 Y-7.7076
G01 X8.6819 Y-7.6949
G01 X8.6946 Y-7.6834
G01 X8.7084 Y-7.6731
G01 X8.7231 Y-7.6643
G01 X8.7387 Y-7.6570
G01 X8.7548 Y-7.6512
G01 X8.7715 Y-7.6470
G01 X8.7885 Y-7.6445
G01 X8.8056 Y-7.6437
G01 X8.8227 Y-7.6445
G01 X8.8397 Y-7.6470
G01 X8.8564 Y-7.6512
G01 X8.8725 Y-7.6570
G01 X8.8881 Y-7.6643
G01 X8.9028 Y-7.6731
G01 X8.9166 Y-7.6834
G01 X8.9293 Y-7.6949
G01 X8.9408 Y-7.7076
G01 X8.9511 Y-7.7214
G01 X8.9599 Y-7.7361
G01 X8.9672 Y-7.7517
G01 X8.9730 Y-7.7678
G01 X8.9772 Y-7.7845
G01 X8.9797 Y-7.8015
G01 X8.9805 Y-7.8186
G00 Z2.0000
G00 X9.0556 Y-7.8186
G01 F70.00
G01 Z-0.0900
G01 F120.00
G01 X9.0544 Y-7.8431
G01 X9.0508 Y-7.8674
G01 X9.0448 Y-7.8912
G01 X9.0365 Y-7.9143
G01 X9.0260 Y-7.9364
G01 X9.0134 Y-7.9575
G01 X8.9988 Y-7.9772
G01 X8.9823 Y-7.9953
G01 X8.9642 Y-8.0118
G01 X8.9445 Y-8.0264
G01 X8.9234 Y-8.0390
G01 X8.9013 Y-8.0495
G01 X8.8782 Y-8.0578
G01 X8.8544 Y-8.0638
G01 X8.8301 Y-8.0674
G01 X8.8056 Y-8.0686
G01 X8.7811 Y-8.0674
G01 X8.7568 Y-8.0638
G01 X8.7330 Y-8.0578
G01 X8.7099 Y-8.0495
G01 X8.6878 Y-8.0390
G01 X8.6667 Y-8.0264
G01 X8.6470 Y-8.0118
G01 X8.6289 Y-7.9953
G01 X8.6124 Y-7.9772
G01 X8.5978 Y-7.9575
G01 X8.5852 Y-7.9364
G01 X8.5747 Y-7.9143
G01 X8.5664 Y-7.8912
G01 X8.5604 Y-7.8674
G01 X8.5568 Y-7.8431
G01 X8.5556 Y-7.8186
G01 X8.5568 Y-7.7941
G01 X8.5604 Y-7.7698
G01 X8.5664 Y-7.7460
G01 X8.5747 Y-7.7229
G01 X8.5852 Y-7.7008
G01 X8.5978 Y-7.6797
G01 X8.6124 Y-7.6600
G01 X8.6289 Y-7.6419
G01 X8.6470 Y-7.6254
G01 X8.6667 Y-7.6108
G01 X8.6878 Y-7.5982
G01 X8.7099 Y-7.5877
G01 X8.7330 Y-7.5794
G01 X8.7568 Y-7.5734
G01 X8.7811 Y-7.5698
G01 X8.8056 Y-7.5686
G01 X8.8301 Y-7.5698
G01 X8.8544 Y-7.5734
G01 X8.8782 Y-7.5794
G01 X8.9013 Y-7.5877
G01 X8.9234 Y-7.5982
G01 X8.9445 Y-7.6108
G01 X8.9642 Y-7.6254
G01 X8.9823 Y-7.6419
G01 X8.9988 Y-7.6600
G01 X9.0134 Y-7.6797
G01 X9.0260 Y-7.7008
G01 X9.0365 Y-7.7229
G01 X9.0448 Y-7.7460
G01 X9.0508 Y-7.7698
G01 X9.0544 Y-7.7941
G01 X9.0556 Y-7.8186
G00 Z2.0000
G00 X9.1306 Y-7.8186
G01 F70.00
G01 Z-0.0900
G01 F120.00
G01 X9.1290 Y-7.8505
G01 X9.1243 Y-7.8820
G01 X9.1166 Y-7.9129
G01 X9.1058 Y-7.9430
G01 X9.0922 Y-7.9718
G01 X9.0758 Y-7.9991
G01 X9.0568 Y-8.0248
G01 X9.0354 Y-8.0484
G01 X9.0118 Y-8.0698
G01 X8.9861 Y-8.0888
G01 X8.9588 Y-8.1052
G01 X8.9300 Y-8.1188
G01 X8.8999 Y-8.1296
G01 X8.8690 Y-8.1373
G01 X8.8375 Y-8.1420
G01 X8.8056 Y-8.1436
G01 X8.7737 Y-8.1420
G01 X8.7422 Y-8.1373
G01 X8.7113 Y-8.1296
G01 X8.6812 Y-8.1188
G01 X8.6524 Y-8.1052
G01 X8.6251 Y-8.0888
G01 X8.5994 Y-8.0698
G01 X8.5758 Y-8.0484
G01 X8.5544 Y-8.0248
G01 X8.5354 Y-7.9991
G01 X8.5190 Y-7.9718
G01 X8.5054 Y-7.9430
G01 X8.4946 Y-7.9129
G01 X8.4869 Y-7.8820
G01 X8.4822 Y-7.8505
G01 X8.4806 Y-7.8186
G01 X8.4822 Y-7.7867
G01 X8.4869 Y-7.7552
G01 X8.4946 Y-7.7243
G01 X8.5054 Y-7.6942
G01 X8.5190 Y-7.6654
G01 X8.5354 Y-7.6381
G01 X8.5544 Y-7.6124
G01 X8.5758 Y-7.5888
G01 X8.5994 Y-7.5674
G01 X8.6251 Y-7.5484
G01 X8.6524 Y-7.5320
G01 X8.6812 Y-7.5184
G01 X8.7113 Y-7.5076
G01 X8.7422 Y-7.4999
G01 X8.7737 Y-7.4952
G01 X8.8056 Y-7.4936
G01 X8.8375 Y-7.4952
G01 X8.8690 Y-7.4999
G01 X8.8999 Y-7.5076
G01 X8.9300 Y-7.5184
G01 X8.9588 Y-7.5320
G01 X8.9861 Y-7.5484
G01 X9.0118 Y-7.5674
G01 X9.0354 Y-7.5888
G01 X9.0568 Y-7.6124
G01 X9.0758 Y-7.6381
G01 X9.0922 Y-7.6654
G01 X9.1058 Y-7.6942
G01 X9.1166 Y-7.7243
G01 X9.1243 Y-7.7552
G01 X9.1290 Y-7.7867
G01 X9.1306 Y-7.8186
G00 Z2.0000
G00 X9.6721 Y-5.6017
G01 F70.00
G01 Z-0.0900
G01 F120.00
G01 X9.6602 Y-5.6326
G01 X9.6418 Y-5.6741
G01 X9.6214 Y-5.7146
G01 X9.5990 Y-5.7541
G01 X9.5747 Y-5.7925
G01 X9.5485 Y-5.8296
G01 X9.5206 Y-5.8654
G01 X9.4910 Y-5.8998
G01 X9.4597 Y-5.9327
G01 X9.4268 Y-5.9640
G01 X9.3924 Y-5.9936
G01 X9.3566 Y-6.0215
G01 X9.3195 Y-6.0477
G01 X9.2811 Y-6.0720
G01 X9.2416 Y-6.0944
G01 X9.2011 Y-6.1148
G01 X9.1596 Y-6.1332
G01 X9.1172 Y-6.1495
G01 X9.0741 Y-6.1637
G01 X9.0304 Y-6.1759
G01 X8.9861 Y-6.1858
G01 X8.9413 Y-6.1936
G01 X8.8963 Y-6.1991
G01 X8.8510 Y-6.2025
G01 X8.8056 Y-6.2036
G01 X8.7602 Y-6.2025
G01 X8.7149 Y-6.1991
G01 X8.6699 Y-6.1936
G01 X8.6251 Y-6.1858
G01 X8.5808 Y-6.1759
G01 X8.5371 Y-6.1637
G01 X8.4940 Y-6.1495
G01 X8.4516 Y-6.1332
G01 X8.4101 Y-6.1148
G01 X8.3696 Y-6.0944
G01 X8.3301 Y-6.0720
G01 X8.2917 Y-6.0477
G01 X8.2546 Y-6.0215
G01 X8.2188 Y-5.9936
G01 X8.1844 Y-5.9640
G01 X8.1515 Y-5.9327
G01 X8.1202 Y-5.8998
G01 X8.0906 Y-5.8654
G01 X8.0627 Y-5.8296
G01 X8.0365 Y-5.7925
G01 X8.0122 Y-5.7541
G01 X7.9898 Y-5.7146
G01 X7.9694 Y-5.6741
G01 X7.9510 Y-5.6326
G01 X7.9381 Y-5.5991
G01 X7.9325 Y-5.5886
G01 X7.9253 Y-5.5790
G01 X7.9167 Y-5.5707
G01 X7.9069 Y-5.5639
G01 X7.8961 Y-5.5587
G01 X7.8838 Y-5.5551
G01 X7.8701 Y-5.5537
G01 X7.2744 Y-5.5537
G01 X7.2607 Y-5.5549
G01 X7.2474 Y-5.5587
G01 X7.2351 Y-5.5648
G01 X7.2247 Y-5.5725
G01 X7.2153 Y-5.5825
G01 X7.2078 Y-5.5941
G01 X7.2026 Y-5.6069
G01 X7.1999 Y-5.6204
G01 X7.1994 Y-6.2035
G01 X5.6494 Y-6.2035
G01 X5.6494 Y-4.3535
G01 X7.1994 Y-4.3535
G01 X7.1999 Y-4.9366
G01 X7.2024 Y-4.9492
G01 X7.2070 Y-4.9612
G01 X7.2136 Y-4.9723
G01 X7.2227 Y-4.9826
G01 X7.2327 Y-4.9907
G01 X7.2449 Y-4.9973
G01 X7.2580 Y-5.0015
G01 X7.2707 Y-5.0032
G01 X7.8701 Y-5.0033
G01 X7.8848 Y-5.0017
G01 X7.8996 Y-4.9969
G01 X7.9093 Y-4.9917
G01 X7.9189 Y-4.9845
G01 X7.9272 Y-4.9759
G01 X7.9335 Y-4.9669
G01 X7.9382 Y-4.9579
G01 X7.9510 Y-4.9246
G01 X7.9694 Y-4.8831
G01 X7.9898 Y-4.8426
G01 X8.0122 Y-4.8031
G01 X8.0365 Y-4.7647
G01 X8.0627 Y-4.7276
G01 X8.0906 Y-4.6918
G01 X8.1202 Y-4.6574
G01 X8.1515 Y-4.6245
G01 X8.1844 Y-4.5932
G01 X8.2188 Y-4.5636
G01 X8.2546 Y-4.5357
G01 X8.2917 Y-4.5095
G01 X8.3301 Y-4.4852
G01 X8.3696 Y-4.4628
G01 X8.4101 Y-4.4424
G01 X8.4516 Y-4.4240
G01 X8.4940 Y-4.4077
G01 X8.5371 Y-4.3935
G01 X8.5808 Y-4.3813
G01 X8.6251 Y-4.3714
G01 X8.6699 Y-4.3636
G01 X8.7149 Y-4.3581
G01 X8.7602 Y-4.3547
G01 X8.8056 Y-4.3536
G01 X8.8510 Y-4.3547
G01 X8.8963 Y-4.3581
G01 X8.9413 Y-4.3636
G01 X8.9861 Y-4.3714
G01 X9.0304 Y-4.3813
G01 X9.0741 Y-4.3935
G01 X9.1172 Y-4.4077
G01 X9.1596 Y-4.4240
G01 X9.2011 Y-4.4424
G01 X9.2416 Y-4.4628
G01 X9.2811 Y-4.4852
G01 X9.3195 Y-4.5095
G01 X9.3566 Y-4.5357
G01 X9.3924 Y-4.5636
G01 X9.4268 Y-4.5932
G01 X9.4597 Y-4.6245
G01 X9.4910 Y-4.6574
G01 X9.5206 Y-4.6918
G01 X9.5485 Y-4.7276
G01 X9.5747 Y-4.7647
G01 X9.5990 Y-4.8031
G01 X9.6214 Y-4.8426
G01 X9.6418 Y-4.8831
G01 X9.6602 Y-4.9246
G01 X9.6734 Y-4.9587
G01 X9.6807 Y-4.9715
G01 X9.6916 Y-4.9839
G01 X9.7042 Y-4.9931
G01 X9.7193 Y-4.9998
G01 X9.7355 Y-5.0030
G01 X10.2984 Y-5.0033
G01 X10.3076 Y-5.0026
G01 X10.3166 Y-5.0008
G01 X10.3253 Y-4.9980
G01 X10.3345 Y-4.9936
G01 X10.3414 Y-4.9891
G01 X10.3485 Y-4.9833
G01 X10.3549 Y-4.9766
G01 X10.3604 Y-4.9692
G01 X10.3645 Y-4.9620
G01 X10.3681 Y-4.9536
G01 X10.3707 Y-4.9448
G01 X10.3720 Y-4.9366
G01 X10.3725 Y-4.6435
G01 X11.8425 Y-4.6435
G01 X11.8425 Y-5.9135
G01 X10.3725 Y-5.9135
G01 X10.3725 Y-5.6287
G01 X10.3719 Y-5.6195
G01 X10.3700 Y-5.6096
G01 X10.3671 Y-5.6008
G01 X10.3628 Y-5.5917
G01 X10.3577 Y-5.5840
G01 X10.3518 Y-5.5770
G01 X10.3444 Y-5.5701
G01 X10.3361 Y-5.5643
G01 X10.3279 Y-5.5601
G01 X10.3130 Y-5.5553
G01 X10.2984 Y-5.5537
G01 X9.7375 Y-5.5538
G01 X9.7274 Y-5.5551
G01 X9.7168 Y-5.5581
G01 X9.7067 Y-5.5625
G01 X9.6974 Y-5.5684
G01 X9.6897 Y-5.5750
G01 X9.6824 Y-5.5833
G01 X9.6768 Y-5.5917
G01 X9.6721 Y-5.6017
G00 Z2.0000
G00 X9.1306 Y-5.2786
G01 F70.00
G01 Z-0.0900
G01 F120.00
G01 X9.1290 Y-5.3105
G01 X9.1243 Y-5.3420
G01 X9.1166 Y-5.3729
G01 X9.1058 Y-5.4030
G01 X9.0922 Y-5.4318
G01 X9.0758 Y-5.4591
G01 X9.0568 Y-5.4848
G01 X9.0354 Y-5.5084
G01 X9.0118 Y-5.5298
G01 X8.9861 Y-5.5488
G01 X8.9588 Y-5.5652
G01 X8.9300 Y-5.5788
G01 X8.8999 Y-5.5896
G01 X8.8690 Y-5.5973
G01 X8.8375 Y-5.6020
G01 X8.8056 Y-5.6036
G01 X8.7737 Y-5.6020
G01 X8.7422 Y-5.5973
G01 X8.7113 Y-5.5896
G01 X8.6812 Y-5.5788
G01 X8.6524 Y-5.5652
G01 X8.6251 Y-5.5488
G01 X8.5994 Y-5.5298
G01 X8.5758 Y-5.5084
G01 X8.5544 Y-5.4848
G01 X8.5354 Y-5.4591
G01 X8.5190 Y-5.4318
G01 X8.5054 Y-5.4030
G01 X8.4946 Y-5.3729
G01 X8.4869 Y-5.3420
G01 X8.4822 Y-5.3105
G01 X8.4806 Y-5.2786
G01 X8.4822 Y-5.2467
G01 X8.4869 Y-5.2152
G01 X8.4946 Y-5.1843
G01 X8.5054 Y-5.1542
G01 X8.5190 Y-5.1254
G01 X8.5354 Y-5.0981
G01 X8.5544 Y-5.0724
G01 X8.5758 Y-5.0488
G01 X8.5994 Y-5.0274
G01 X8.6251 Y-5.0084
G01 X8.6524 Y-4.9920
G01 X8.6812 Y-4.9784
G01 X8.7113 Y-4.9676
G01 X8.7422 Y-4.9599
G01 X8.7737 Y-4.9552
G01 X8.8056 Y-4.9536
G01 X8.8375 Y-4.9552
G01 X8.8690 Y-4.9599
G01 X8.8999 Y-4.9676
G01 X8.9300 Y-4.9784
G01 X8.9588 Y-4.9920
G01 X8.9861 Y-5.0084
G01 X9.0118 Y-5.0274
G01 X9.0354 Y-5.0488
G01 X9.0568 Y-5.0724
G01 X9.0758 Y-5.0981
G01 X9.0922 Y-5.1254
G01 X9.1058 Y-5.1542
G01 X9.1166 Y-5.1843
G01 X9.1243 Y-5.2152
G01 X9.1290 Y-5.2467
G01 X9.1306 Y-5.2786
G00 Z2.0000
G00 X9.0556 Y-5.2786
G01 F70.00
G01 Z-0.0900
G01 F120.00
G01 X9.0544 Y-5.3031
G01 X9.0508 Y-5.3274
G01 X9.0448 Y-5.3512
G01 X9.0365 Y-5.3743
G01 X9.0260 Y-5.3964
G01 X9.0134 Y-5.4175
G01 X8.9988 Y-5.4372
G01 X8.9823 Y-5.4553
G01 X8.9642 Y-5.4718
G01 X8.9445 Y-5.4864
G01 X8.9234 Y-5.4990
G01 X8.9013 Y-5.5095
G01 X8.8782 Y-5.5178
G01 X8.8544 Y-5.5238
G01 X8.8301 Y-5.5274
G01 X8.8056 Y-5.5286
G01 X8.7811 Y-5.5274
G01 X8.7568 Y-5.5238
G01 X8.7330 Y-5.5178
G01 X8.7099 Y-5.5095
G01 X8.6878 Y-5.4990
G01 X8.6667 Y-5.4864
G01 X8.6470 Y-5.4718
G01 X8.6289 Y-5.4553
G01 X8.6124 Y-5.4372
G01 X8.5978 Y-5.4175
G01 X8.5852 Y-5.3964
G01 X8.5747 Y-5.3743
G01 X8.5664 Y-5.3512
G01 X8.5604 Y-5.3274
G01 X8.5568 Y-5.3031
G01 X8.5556 Y-5.2786
G01 X8.5568 Y-5.2541
G01 X8.5604 Y-5.2298
G01 X8.5664 Y-5.2060
G01 X8.5747 Y-5.1829
G01 X8.5852 Y-5.1608
G01 X8.5978 Y-5.1397
G01 X8.6124 Y-5.1200
G01 X8.6289 Y-5.1019
G01 X8.6470 Y-5.0854
G01 X8.6667 Y-5.0708
G01 X8.6878 Y-5.0582
G01 X8.7099 Y-5.0477
G01 X8.7330 Y-5.0394
G01 X8.7568 Y-5.0334
G01 X8.7811 Y-5.0298
G01 X8.8056 Y-5.0286
G01 X8.8301 Y-5.0298
G01 X8.8544 Y-5.0334
G01 X8.8782 Y-5.0394
G01 X8.9013 Y-5.0477
G01 X8.9234 Y-5.0582
G01 X8.9445 Y-5.0708
G01 X8.9642 Y-5.0854
G01 X8.9823 Y-5.1019
G01 X8.9988 Y-5.1200
G01 X9.0134 Y-5.1397
G01 X9.0260 Y-5.1608
G01 X9.0365 Y-5.1829
G01 X9.0448 Y-5.2060
G01 X9.0508 Y-5.2298
G01 X9.0544 Y-5.2541
G01 X9.0556 Y-5.2786
G00 Z2.0000
G00 X8.9805 Y-5.2786
G01 F70.00
G01 Z-0.0900
G01 F120.00
G01 X8.9797 Y-5.2957
G01 X8.9772 Y-5.3127
G01 X8.9730 Y-5.3294
G01 X8.9672 Y-5.3455
G01 X8.9599 Y-5.3611
G01 X8.9511 Y-5.3758
G01 X8.9408 Y-5.3896
G01 X8.9293 Y-5.4023
G01 X8.9166 Y-5.4138
G01 X8.9028 Y-5.4241
G01 X8.8881 Y-5.4329
G01 X8.8725 Y-5.4402
G01 X8.8564 Y-5.4460
G01 X8.8397 Y-5.4502
G01 X8.8227 Y-5.4527
G01 X8.8056 Y-5.4535
G01 X8.7885 Y-5.4527
G01 X8.7715 Y-5.4502
G01 X8.7548 Y-5.4460
G01 X8.7387 Y-5.4402
G01 X8.7231 Y-5.4329
G01 X8.7084 Y-5.4241
G01 X8.6946 Y-5.4138
G01 X8.6819 Y-5.4023
G01 X8.6704 Y-5.3896
G01 X8.6601 Y-5.3758
G01 X8.6513 Y-5.3611
G01 X8.6440 Y-5.3455
G01 X8.6382 Y-5.3294
G01 X8.6340 Y-5.3127
G01 X8.6315 Y-5.2957
G01 X8.6307 Y-5.2786
G01 X8.6315 Y-5.2615
G01 X8.6340 Y-5.2445
G01 X8.6382 Y-5.2278
G01 X8.6440 Y-5.2117
G01 X8.6513 Y-5.1961
G01 X8.6601 Y-5.1814
G01 X8.6704 Y-5.1676
G01 X8.6819 Y-5.1549
G01 X8.6946 Y-5.1434
G01 X8.7084 Y-5.1331
G01 X8.7231 Y-5.1243
G01 X8.7387 Y-5.1170
G01 X8.7548 Y-5.1112
G01 X8.7715 Y-5.1070
G01 X8.7885 Y-5.1045
G01 X8.8056 Y-5.1037
G01 X8.8227 Y-5.1045
G01 X8.8397 Y-5.1070
G01 X8.8564 Y-5.1112
G01 X8.8725 Y-5.1170
G01 X8.8881 Y-5.1243
G01 X8.9028 Y-5.1331
G01 X8.9166 Y-5.1434
G01 X8.9293 Y-5.1549
G01 X8.9408 Y-5.1676
G01 X8.9511 Y-5.1814
G01 X8.9599 Y-5.1961
G01 X8.9672 Y-5.2117
G01 X8.9730 Y-5.2278
G01 X8.9772 Y-5.2445
G01 X8.9797 Y-5.2615
G01 X8.9805 Y-5.2786
G00 Z2.0000
G00 X8.9055 Y-5.2786
G01 F70.00
G01 Z-0.0900
G01 F120.00
G01 X8.9036 Y-5.2981
G01 X8.8979 Y-5.3168
G01 X8.8887 Y-5.3341
G01 X8.8762 Y-5.3492
G01 X8.8611 Y-5.3617
G01 X8.8438 Y-5.3709
G01 X8.8251 Y-5.3766
G01 X8.8056 Y-5.3785
G01 X8.7861 Y-5.3766
G01 X8.7674 Y-5.3709
G01 X8.7501 Y-5.3617
G01 X8.7350 Y-5.3492
G01 X8.7225 Y-5.3341
G01 X8.7133 Y-5.3168
G01 X8.7076 Y-5.2981
G01 X8.7057 Y-5.2786
G01 X8.7076 Y-5.2591
G01 X8.7133 Y-5.2404
G01 X8.7225 Y-5.2231
G01 X8.7350 Y-5.2080
G01 X8.7501 Y-5.1955
G01 X8.7674 Y-5.1863
G01 X8.7861 Y-5.1806
G01 X8.8056 Y-5.1787
G01 X8.8251 Y-5.1806
G01 X8.8438 Y-5.1863
G01 X8.8611 Y-5.1955
G01 X8.8762 Y-5.2080
G01 X8.8887 Y-5.2231
G01 X8.8979 Y-5.2404
G01 X8.9036 Y-5.2591
G01 X8.9055 Y-5.2786
G00 Z2.0000
G00 X7.9602 Y-5.5036
G01 F70.00
G01 Z-0.0900
G01 F120.00
G01 X7.9683 Y-5.5326
G01 X7.9817 Y-5.5734
G01 X7.9972 Y-5.6134
G01 X8.0142 Y-5.6519
G01 X8.0348 Y-5.6927
G01 X8.0551 Y-5.7284
G01 X8.0776 Y-5.7640
G01 X8.1039 Y-5.8013
G01 X8.1292 Y-5.8337
G01 X8.1573 Y-5.8662
G01 X8.1882 Y-5.8986
G01 X8.2180 Y-5.9269
G01 X8.2498 Y-5.9544
G01 X8.2859 Y-5.9825
G01 X8.3195 Y-6.0061
G01 X8.3558 Y-6.0291
G01 X8.3948 Y-6.0511
G01 X8.4315 Y-6.0696
G01 X8.4708 Y-6.0870
G01 X8.5108 Y-6.1025
G01 X8.5498 Y-6.1154
G01 X8.5930 Y-6.1274
G01 X8.6349 Y-6.1368
G01 X8.6754 Y-6.1438
G01 X8.7198 Y-6.1494
G01 X8.7627 Y-6.1525
G01 X8.8038 Y-6.1536
G01 X8.8504 Y-6.1524
G01 X8.8914 Y-6.1494
G01 X8.9340 Y-6.1441
G01 X8.9763 Y-6.1368
G01 X9.0182 Y-6.1274
G01 X9.0596 Y-6.1159
G01 X9.1004 Y-6.1025
G01 X9.1404 Y-6.0870
G01 X9.1780 Y-6.0704
G01 X9.2197 Y-6.0494
G01 X9.2554 Y-6.0291
G01 X9.2925 Y-6.0056
G01 X9.3268 Y-5.9814
G01 X9.3607 Y-5.9550
G01 X9.3932 Y-5.9269
G01 X9.4230 Y-5.8986
G01 X9.4552 Y-5.8648
G01 X9.4820 Y-5.8337
G01 X9.5090 Y-5.7991
G01 X9.5331 Y-5.7647
G01 X9.5561 Y-5.7284
G01 X9.5773 Y-5.6911
G01 X9.5962 Y-5.6535
G01 X9.6140 Y-5.6134
G01 X9.6291 Y-5.5742
G01 X9.6429 Y-5.5326
G01 X9.6510 Y-5.5036
G01 X10.4225 Y-5.5036
G01 X10.4225 Y-5.7885
G01 X10.4236 Y-5.8013
G01 X10.4266 Y-5.8129
G01 X10.4309 Y-5.8230
G01 X10.4373 Y-5.8332
G01 X10.4445 Y-5.8415
G01 X10.4528 Y-5.8487
G01 X10.4630 Y-5.8551
G01 X10.4740 Y-5.8597
G01 X10.4847 Y-5.8624
G01 X10.4975 Y-5.8635
G01 X11.7175 Y-5.8635
G01 X11.7321 Y-5.8621
G01 X11.7445 Y-5.8585
G01 X11.7553 Y-5.8533
G01 X11.7651 Y-5.8465
G01 X11.7743 Y-5.8375
G01 X11.7818 Y-5.8271
G01 X11.7871 Y-5.8163
G01 X11.7909 Y-5.8040
G01 X11.7924 Y-5.7922
G01 X11.7925 Y-4.7685
G01 X11.7911 Y-4.7539
G01 X11.7875 Y-4.7415
G01 X11.7823 Y-4.7307
G01 X11.7749 Y-4.7202
G01 X11.7665 Y-4.7117
G01 X11.7561 Y-4.7042
G01 X11.7453 Y-4.6989
G01 X11.7330 Y-4.6951
G01 X11.7212 Y-4.6936
G01 X10.4975 Y-4.6935
G01 X10.4874 Y-4.6942
G01 X10.4757 Y-4.6967
G01 X10.4646 Y-4.7011
G01 X10.4543 Y-4.7072
G01 X10.4458 Y-4.7142
G01 X10.4378 Y-4.7231
G01 X10.4318 Y-4.7323
G01 X10.4269 Y-4.7432
G01 X10.4238 Y-4.7548
G01 X10.4225 Y-4.7685
G01 X10.4225 Y-5.0534
G01 X9.6509 Y-5.0534
G01 X9.6429 Y-5.0246
G01 X9.6295 Y-4.9838
G01 X9.6140 Y-4.9438
G01 X9.5970 Y-4.9053
G01 X9.5773 Y-4.8661
G01 X9.5570 Y-4.8304
G01 X9.5326 Y-4.7917
G01 X9.5084 Y-4.7574
G01 X9.4820 Y-4.7235
G01 X9.4539 Y-4.6910
G01 X9.4256 Y-4.6612
G01 X9.3918 Y-4.6290
G01 X9.3607 Y-4.6022
G01 X9.3261 Y-4.5752
G01 X9.2917 Y-4.5511
G01 X9.2554 Y-4.5281
G01 X9.2181 Y-4.5069
G01 X9.1814 Y-4.4884
G01 X9.1387 Y-4.4695
G01 X9.1004 Y-4.4547
G01 X9.0596 Y-4.4413
G01 X9.0182 Y-4.4298
G01 X8.9763 Y-4.4204
G01 X8.9340 Y-4.4131
G01 X8.8932 Y-4.4080
G01 X8.8467 Y-4.4046
G01 X8.8056 Y-4.4036
G01 X8.7617 Y-4.4047
G01 X8.7198 Y-4.4078
G01 X8.6790 Y-4.4128
G01 X8.6349 Y-4.4204
G01 X8.5930 Y-4.4298
G01 X8.5534 Y-4.4408
G01 X8.5091 Y-4.4554
G01 X8.4708 Y-4.4702
G01 X8.4315 Y-4.4876
G01 X8.3931 Y-4.5069
G01 X8.3574 Y-4.5272
G01 X8.3180 Y-4.5521
G01 X8.2844 Y-4.5758
G01 X8.2512 Y-4.6016
G01 X8.2166 Y-4.6315
G01 X8.1869 Y-4.6599
G01 X8.1573 Y-4.6910
G01 X8.1292 Y-4.7235
G01 X8.1039 Y-4.7559
G01 X8.0776 Y-4.7932
G01 X8.0551 Y-4.8288
G01 X8.0348 Y-4.8645
G01 X8.0142 Y-4.9053
G01 X7.9972 Y-4.9438
G01 X7.9817 Y-4.9838
G01 X7.9683 Y-5.0246
G01 X7.9603 Y-5.0534
G01 X7.1494 Y-5.0534
G01 X7.1492 Y-4.4730
G01 X7.1478 Y-4.4630
G01 X7.1450 Y-4.4532
G01 X7.1410 Y-4.4440
G01 X7.1352 Y-4.4346
G01 X7.1287 Y-4.4268
G01 X7.1213 Y-4.4199
G01 X7.1122 Y-4.4137
G01 X7.1031 Y-4.4092
G01 X7.0890 Y-4.4049
G01 X7.0744 Y-4.4035
G01 X5.7726 Y-4.4035
G01 X5.7625 Y-4.4045
G01 X5.7517 Y-4.4070
G01 X5.7423 Y-4.4107
G01 X5.7335 Y-4.4156
G01 X5.7254 Y-4.4217
G01 X5.7182 Y-4.4288
G01 X5.7120 Y-4.4368
G01 X5.7066 Y-4.4464
G01 X5.7012 Y-4.4621
G01 X5.6994 Y-4.4785
G01 X5.6994 Y-6.0803
G01 X5.7004 Y-6.0904
G01 X5.7029 Y-6.1012
G01 X5.7066 Y-6.1106
G01 X5.7115 Y-6.1194
G01 X5.7176 Y-6.1275
G01 X5.7247 Y-6.1347
G01 X5.7327 Y-6.1409
G01 X5.7423 Y-6.1463
G01 X5.7580 Y-6.1517
G01 X5.7744 Y-6.1535
G01 X7.0744 Y-6.1535
G01 X7.0854 Y-6.1527
G01 X7.0953 Y-6.1505
G01 X7.1065 Y-6.1463
G01 X7.1161 Y-6.1409
G01 X7.1248 Y-6.1341
G01 X7.1324 Y-6.1261
G01 X7.1387 Y-6.1171
G01 X7.1437 Y-6.1072
G01 X7.1472 Y-6.0967
G01 X7.1491 Y-6.0849
G01 X7.1494 Y-5.5036
G01 X7.9602 Y-5.5036
G00 Z2.0000
G00 X7.1994 Y-3.0887
G01 F70.00
G01 Z-0.0900
G01 F120.00
G01 X7.1994 Y-3.6635
G01 X5.6494 Y-3.6635
G01 X5.6494 Y-1.8135
G01 X7.1994 Y-1.8135
G01 X7.1999 Y-2.3966
G01 X7.2026 Y-2.4101
G01 X7.2078 Y-2.4229
G01 X7.2147 Y-2.4337
G01 X7.2240 Y-2.4439
G01 X7.2351 Y-2.4522
G01 X7.2466 Y-2.4580
G01 X7.2598 Y-2.4619
G01 X7.2726 Y-2.4633
G01 X7.8084 Y-2.4633
G01 X7.8229 Y-2.4613
G01 X7.8368 Y-2.4565
G01 X7.8495 Y-2.4491
G01 X7.8605 Y-2.4394
G01 X7.8690 Y-2.4284
G01 X7.8749 Y-2.4170
G01 X7.8790 Y-2.4039
G01 X7.8805 Y-2.3911
G01 X7.8806 Y-1.8136
G01 X9.7306 Y-1.8136
G01 X9.7311 Y-2.3966
G01 X9.7338 Y-2.4101
G01 X9.7386 Y-2.4220
G01 X9.7454 Y-2.4330
G01 X9.7546 Y-2.4433
G01 X9.7647 Y-2.4512
G01 X9.7769 Y-2.4576
G01 X9.7892 Y-2.4615
G01 X9.8028 Y-2.4633
G01 X15.1827 Y-2.4632
G01 X15.1945 Y-2.4617
G01 X15.2068 Y-2.4580
G01 X15.2176 Y-2.4527
G01 X15.2280 Y-2.4451
G01 X15.2364 Y-2.4366
G01 X15.2438 Y-2.4261
G01 X15.2490 Y-2.4153
G01 X15.2526 Y-2.4030
G01 X15.2540 Y-2.3883
G01 X15.2540 Y-2.1035
G01 X16.7240 Y-2.1035
G01 X16.7240 Y-3.3735
G01 X15.2540 Y-3.3735
G01 X15.2540 Y-3.0887
G01 X15.2526 Y-3.0740
G01 X15.2490 Y-3.0617
G01 X15.2438 Y-3.0509
G01 X15.2364 Y-3.0404
G01 X15.2280 Y-3.0319
G01 X15.2176 Y-3.0243
G01 X15.2068 Y-3.0190
G01 X15.1945 Y-3.0153
G01 X15.1827 Y-3.0138
G01 X9.8028 Y-3.0137
G01 X9.7901 Y-3.0153
G01 X9.7769 Y-3.0194
G01 X9.7647 Y-3.0258
G01 X9.7546 Y-3.0337
G01 X9.7454 Y-3.0440
G01 X9.7386 Y-3.0550
G01 X9.7338 Y-3.0669
G01 X9.7311 Y-3.0804
G01 X9.7306 Y-3.6636
G01 X7.8806 Y-3.6636
G01 X7.8805 Y-3.0859
G01 X7.8784 Y-3.0705
G01 X7.8730 Y-3.0558
G01 X7.8647 Y-3.0425
G01 X7.8539 Y-3.0313
G01 X7.8434 Y-3.0239
G01 X7.8317 Y-3.0184
G01 X7.8202 Y-3.0151
G01 X7.8074 Y-3.0137
G01 X7.2680 Y-3.0140
G01 X7.2544 Y-3.0164
G01 X7.2415 Y-3.0213
G01 X7.2290 Y-3.0290
G01 X7.2188 Y-3.0383
G01 X7.2105 Y-3.0493
G01 X7.2044 Y-3.0617
G01 X7.2007 Y-3.0749
G01 X7.1994 Y-3.0887
G00 Z2.0000
G00 X8.9055 Y-2.7386
G01 F70.00
G01 Z-0.0900
G01 F120.00
G01 X8.9036 Y-2.7581
G01 X8.8979 Y-2.7768
G01 X8.8887 Y-2.7941
G01 X8.8762 Y-2.8092
G01 X8.8611 Y-2.8217
G01 X8.8438 Y-2.8309
G01 X8.8251 Y-2.8366
G01 X8.8056 Y-2.8385
G01 X8.7861 Y-2.8366
G01 X8.7674 Y-2.8309
G01 X8.7501 Y-2.8217
G01 X8.7350 Y-2.8092
G01 X8.7225 Y-2.7941
G01 X8.7133 Y-2.7768
G01 X8.7076 Y-2.7581
G01 X8.7057 Y-2.7386
G01 X8.7076 Y-2.7191
G01 X8.7133 Y-2.7004
G01 X8.7225 Y-2.6831
G01 X8.7350 Y-2.6680
G01 X8.7501 Y-2.6555
G01 X8.7674 Y-2.6463
G01 X8.7861 Y-2.6406
G01 X8.8056 Y-2.6387
G01 X8.8251 Y-2.6406
G01 X8.8438 Y-2.6463
G01 X8.8611 Y-2.6555
G01 X8.8762 Y-2.6680
G01 X8.8887 Y-2.6831
G01 X8.8979 Y-2.7004
G01 X8.9036 Y-2.7191
G01 X8.9055 Y-2.7386
G00 Z2.0000
G00 X8.9805 Y-2.7386
G01 F70.00
G01 Z-0.0900
G01 F120.00
G01 X8.9797 Y-2.7557
G01 X8.9772 Y-2.7727
G01 X8.9730 Y-2.7894
G01 X8.9672 Y-2.8055
G01 X8.9599 Y-2.8211
G01 X8.9511 Y-2.8358
G01 X8.9408 Y-2.8496
G01 X8.9293 Y-2.8623
G01 X8.9166 Y-2.8738
G01 X8.9028 Y-2.8841
G01 X8.8881 Y-2.8929
G01 X8.8725 Y-2.9002
G01 X8.8564 Y-2.9060
G01 X8.8397 Y-2.9102
G01 X8.8227 Y-2.9127
G01 X8.8056 Y-2.9135
G01 X8.7885 Y-2.9127
G01 X8.7715 Y-2.9102
G01 X8.7548 Y-2.9060
G01 X8.7387 Y-2.9002
G01 X8.7231 Y-2.8929
G01 X8.7084 Y-2.8841
G01 X8.6946 Y-2.8738
G01 X8.6819 Y-2.8623
G01 X8.6704 Y-2.8496
G01 X8.6601 Y-2.8358
G01 X8.6513 Y-2.8211
G01 X8.6440 Y-2.8055
G01 X8.6382 Y-2.7894
G01 X8.6340 Y-2.7727
G01 X8.6315 Y-2.7557
G01 X8.6307 Y-2.7386
G01 X8.6315 Y-2.7215
G01 X8.6340 Y-2.7045
G01 X8.6382 Y-2.6878
G01 X8.6440 Y-2.6717
G01 X8.6513 Y-2.6561
G01 X8.6601 Y-2.6414
G01 X8.6704 Y-2.6276
G01 X8.6819 Y-2.6149
G01 X8.6946 Y-2.6034
G01 X8.7084 Y-2.5931
G01 X8.7231 Y-2.5843
G01 X8.7387 Y-2.5770
G01 X8.7548 Y-2.5712
G01 X8.7715 Y-2.5670
G01 X8.7885 Y-2.5645
G01 X8.8056 Y-2.5637
G01 X8.8227 Y-2.5645
G01 X8.8397 Y-2.5670
G01 X8.8564 Y-2.5712
G01 X8.8725 Y-2.5770
G01 X8.8881 Y-2.5843
G01 X8.9028 Y-2.5931
G01 X8.9166 Y-2.6034
G01 X8.9293 Y-2.6149
G01 X8.9408 Y-2.6276
G01 X8.9511 Y-2.6414
G01 X8.9599 Y-2.6561
G01 X8.9672 Y-2.6717
G01 X8.9730 Y-2.6878
G01 X8.9772 Y-2.7045
G01 X8.9797 Y-2.7215
G01 X8.9805 Y-2.7386
G00 Z2.0000
G00 X9.0556 Y-2.7386
G01 F70.00
G01 Z-0.0900
G01 F120.00
G01 X9.0544 Y-2.7631
G01 X9.0508 Y-2.7874
G01 X9.0448 Y-2.8112
G01 X9.0365 Y-2.8343
G01 X9.0260 Y-2.8564
G01 X9.0134 Y-2.8775
G01 X8.9988 Y-2.8972
G01 X8.9823 Y-2.9153
G01 X8.9642 Y-2.9318
G01 X8.9445 Y-2.9464
G01 X8.9234 Y-2.9590
G01 X8.9013 Y-2.9695
G01 X8.8782 Y-2.9778
G01 X8.8544 Y-2.9838
G01 X8.8301 Y-2.9874
G01 X8.8056 Y-2.9886
G01 X8.7811 Y-2.9874
G01 X8.7568 Y-2.9838
G01 X8.7330 Y-2.9778
G01 X8.7099 Y-2.9695
G01 X8.6878 Y-2.9590
G01 X8.6667 Y-2.9464
G01 X8.6470 Y-2.9318
G01 X8.6289 Y-2.9153
G01 X8.6124 Y-2.8972
G01 X8.5978 Y-2.8775
G01 X8.5852 Y-2.8564
G01 X8.5747 Y-2.8343
G01 X8.5664 Y-2.8112
G01 X8.5604 Y-2.7874
G01 X8.5568 Y-2.7631
G01 X8.5556 Y-2.7386
G01 X8.5568 Y-2.7141
G01 X8.5604 Y-2.6898
G01 X8.5664 Y-2.6660
G01 X8.5747 Y-2.6429
G01 X8.5852 Y-2.6208
G01 X8.5978 Y-2.5997
G01 X8.6124 Y-2.5800
G01 X8.6289 Y-2.5619
G01 X8.6470 Y-2.5454
G01 X8.6667 Y-2.5308
G01 X8.6878 Y-2.5182
G01 X8.7099 Y-2.5077
G01 X8.7330 Y-2.4994
G01 X8.7568 Y-2.4934
G01 X8.7811 Y-2.4898
G01 X8.8056 Y-2.4886
G01 X8.8301 Y-2.4898
G01 X8.8544 Y-2.4934
G01 X8.8782 Y-2.4994
G01 X8.9013 Y-2.5077
G01 X8.9234 Y-2.5182
G01 X8.9445 Y-2.5308
G01 X8.9642 Y-2.5454
G01 X8.9823 Y-2.5619
G01 X8.9988 Y-2.5800
G01 X9.0134 Y-2.5997
G01 X9.0260 Y-2.6208
G01 X9.0365 Y-2.6429
G01 X9.0448 Y-2.6660
G01 X9.0508 Y-2.6898
G01 X9.0544 Y-2.7141
G01 X9.0556 Y-2.7386
G00 Z2.0000
G00 X9.1306 Y-2.7386
G01 F70.00
G01 Z-0.0900
G01 F120.00
G01 X9.1290 Y-2.7705
G01 X9.1243 Y-2.8020
G01 X9.1166 Y-2.8329
G01 X9.1058 Y-2.8630
G01 X9.0922 Y-2.8918
G01 X9.0758 Y-2.9191
G01 X9.0568 Y-2.9448
G01 X9.0354 Y-2.9684
G01 X9.0118 Y-2.9898
G01 X8.9861 Y-3.0088
G01 X8.9588 Y-3.0252
G01 X8.9300 Y-3.0388
G01 X8.8999 Y-3.0496
G01 X8.8690 Y-3.0573
G01 X8.8375 Y-3.0620
G01 X8.8056 Y-3.0636
G01 X8.7737 Y-3.0620
G01 X8.7422 Y-3.0573
G01 X8.7113 Y-3.0496
G01 X8.6812 Y-3.0388
G01 X8.6524 Y-3.0252
G01 X8.6251 Y-3.0088
G01 X8.5994 Y-2.9898
G01 X8.5758 Y-2.9684
G01 X8.5544 Y-2.9448
G01 X8.5354 Y-2.9191
G01 X8.5190 Y-2.8918
G01 X8.5054 Y-2.8630
G01 X8.4946 Y-2.8329
G01 X8.4869 Y-2.8020
G01 X8.4822 Y-2.7705
G01 X8.4806 Y-2.7386
G01 X8.4822 Y-2.7067
G01 X8.4869 Y-2.6752
G01 X8.4946 Y-2.6443
G01 X8.5054 Y-2.6142
G01 X8.5190 Y-2.5854
G01 X8.5354 Y-2.5581
G01 X8.5544 Y-2.5324
G01 X8.5758 Y-2.5088
G01 X8.5994 Y-2.4874
G01 X8.6251 Y-2.4684
G01 X8.6524 Y-2.4520
G01 X8.6812 Y-2.4384
G01 X8.7113 Y-2.4276
G01 X8.7422 Y-2.4199
G01 X8.7737 Y-2.4152
G01 X8.8056 Y-2.4136
G01 X8.8375 Y-2.4152
G01 X8.8690 Y-2.4199
G01 X8.8999 Y-2.4276
G01 X8.9300 Y-2.4384
G01 X8.9588 Y-2.4520
G01 X8.9861 Y-2.4684
G01 X9.0118 Y-2.4874
G01 X9.0354 Y-2.5088
G01 X9.0568 Y-2.5324
G01 X9.0758 Y-2.5581
G01 X9.0922 Y-2.5854
G01 X9.1058 Y-2.6142
G01 X9.1166 Y-2.6443
G01 X9.1243 Y-2.6752
G01 X9.1290 Y-2.7067
G01 X9.1306 Y-2.7386
G00 Z2.0000
G00 X9.1943 Y-1.2170
G01 F70.00
G01 Z-0.0900
G01 F120.00
G01 X9.3116 Y-1.1466
G01 X9.3211 Y-1.1393
G01 X9.3298 Y-1.1299
G01 X9.3355 Y-1.1215
G01 X9.3400 Y-1.1125
G01 X9.4022 Y-0.9631
G01 X9.4063 Y-0.9489
G01 X9.4076 Y-0.9360
G01 X9.4076 Y-0.7796
G01 X9.4070 Y-0.7704
G01 X9.4053 Y-0.7613
G01 X9.4018 Y-0.7508
G01 X9.3381 Y-0.5981
G01 X9.3330 Y-0.5894
G01 X9.3269 Y-0.5814
G01 X9.3197 Y-0.5743
G01 X9.3117 Y-0.5683
G01 X9.1911 Y-0.4959
G01 X9.1766 Y-0.4900
G01 X9.1621 Y-0.4873
G01 X8.4193 Y-0.4871
G01 X8.4101 Y-0.4879
G01 X8.4011 Y-0.4898
G01 X8.3924 Y-0.4928
G01 X8.3833 Y-0.4973
G01 X8.2645 Y-0.5688
G01 X8.2525 Y-0.5787
G01 X8.2434 Y-0.5901
G01 X8.2373 Y-0.6014
G01 X8.1750 Y-0.7508
G01 X8.1709 Y-0.7640
G01 X8.1692 Y-0.7787
G01 X8.1693 Y-0.9379
G01 X8.1707 Y-0.9498
G01 X8.1743 Y-0.9622
G01 X8.2380 Y-1.1151
G01 X8.2434 Y-1.1247
G01 X8.2494 Y-1.1327
G01 X8.2572 Y-1.1405
G01 X8.2652 Y-1.1465
G01 X8.3857 Y-1.2188
G01 X8.4002 Y-1.2247
G01 X8.4156 Y-1.2275
G01 X9.1566 Y-1.2277
G01 X9.1658 Y-1.2270
G01 X9.1757 Y-1.2249
G01 X9.1853 Y-1.2216
G01 X9.1943 Y-1.2170
G00 Z2.0000
G00 X8.4004 Y-1.2337
G01 F70.00
G01 Z-0.0900
G01 F120.00
G01 X8.3971 Y-1.2328
G01 X8.2417 Y-1.1393
G01 X8.1633 Y-0.9514
G01 X8.1632 Y-0.7634
G01 X8.2408 Y-0.5771
G01 X8.2423 Y-0.5749
G01 X8.3992 Y-0.4810
G01 X9.1764 Y-0.4810
G01 X9.1797 Y-0.4819
G01 X9.3354 Y-0.5757
G01 X9.4136 Y-0.7634
G01 X9.4136 Y-0.9498
G01 X9.4131 Y-0.9527
G01 X9.3361 Y-1.1377
G01 X9.3346 Y-1.1399
G01 X9.1776 Y-1.2337
G01 X8.4004 Y-1.2337
G00 Z2.0000
G00 X11.0661 Y-3.9747
G01 F70.00
G01 Z-0.0900
G01 F120.00
G01 X11.0642 Y-3.9842
G01 X11.0588 Y-3.9923
G01 X11.0507 Y-3.9977
G01 X11.0412 Y-3.9996
G01 X11.0317 Y-3.9977
G01 X11.0236 Y-3.9923
G01 X11.0182 Y-3.9842
G01 X11.0163 Y-3.9747
G01 X11.0182 Y-3.9652
G01 X11.0236 Y-3.9571
G01 X11.0317 Y-3.9517
G01 X11.0412 Y-3.9498
G01 X11.0507 Y-3.9517
G01 X11.0588 Y-3.9571
G01 X11.0642 Y-3.9652
G01 X11.0661 Y-3.9747
G00 Z2.0000
G00 X11.1412 Y-3.9747
G01 F70.00
G01 Z-0.0900
G01 F120.00
G01 X11.1392 Y-3.9942
G01 X11.1335 Y-4.0130
G01 X11.1243 Y-4.0302
G01 X11.1119 Y-4.0454
G01 X11.0967 Y-4.0578
G01 X11.0795 Y-4.0670
G01 X11.0607 Y-4.0727
G01 X11.0412 Y-4.0747
G01 X11.0217 Y-4.0727
G01 X11.0029 Y-4.0670
G01 X10.9857 Y-4.0578
G01 X10.9705 Y-4.0454
G01 X10.9581 Y-4.0302
G01 X10.9489 Y-4.0130
G01 X10.9432 Y-3.9942
G01 X10.9412 Y-3.9747
G01 X10.9432 Y-3.9552
G01 X10.9489 Y-3.9364
G01 X10.9581 Y-3.9192
G01 X10.9705 Y-3.9040
G01 X10.9857 Y-3.8916
G01 X11.0029 Y-3.8824
G01 X11.0217 Y-3.8767
G01 X11.0412 Y-3.8747
G01 X11.0607 Y-3.8767
G01 X11.0795 Y-3.8824
G01 X11.0967 Y-3.8916
G01 X11.1119 Y-3.9040
G01 X11.1243 Y-3.9192
G01 X11.1335 Y-3.9364
G01 X11.1392 Y-3.9552
G01 X11.1412 Y-3.9747
G00 Z2.0000
G00 X11.2162 Y-3.9747
G01 F70.00
G01 Z-0.0900
G01 F120.00
G01 X11.2153 Y-3.9919
G01 X11.2128 Y-4.0088
G01 X11.2086 Y-4.0255
G01 X11.2029 Y-4.0417
G01 X11.1955 Y-4.0572
G01 X11.1867 Y-4.0719
G01 X11.1765 Y-4.0857
G01 X11.1649 Y-4.0984
G01 X11.1522 Y-4.1100
G01 X11.1384 Y-4.1202
G01 X11.1237 Y-4.1290
G01 X11.1082 Y-4.1364
G01 X11.0920 Y-4.1421
G01 X11.0753 Y-4.1463
G01 X11.0584 Y-4.1488
G01 X11.0412 Y-4.1497
G01 X11.0240 Y-4.1488
G01 X11.0071 Y-4.1463
G01 X10.9904 Y-4.1421
G01 X10.9742 Y-4.1364
G01 X10.9587 Y-4.1290
G01 X10.9440 Y-4.1202
G01 X10.9302 Y-4.1100
G01 X10.9175 Y-4.0984
G01 X10.9059 Y-4.0857
G01 X10.8957 Y-4.0719
G01 X10.8869 Y-4.0572
G01 X10.8795 Y-4.0417
G01 X10.8738 Y-4.0255
G01 X10.8696 Y-4.0088
G01 X10.8671 Y-3.9919
G01 X10.8662 Y-3.9747
G01 X10.8671 Y-3.9575
G01 X10.8696 Y-3.9406
G01 X10.8738 Y-3.9239
G01 X10.8795 Y-3.9077
G01 X10.8869 Y-3.8922
G01 X10.8957 Y-3.8775
G01 X10.9059 Y-3.8637
G01 X10.9175 Y-3.8510
G01 X10.9302 Y-3.8394
G01 X10.9440 Y-3.8292
G01 X10.9587 Y-3.8204
G01 X10.9742 Y-3.8130
G01 X10.9904 Y-3.8073
G01 X11.0071 Y-3.8031
G01 X11.0240 Y-3.8006
G01 X11.0412 Y-3.7997
G01 X11.0584 Y-3.8006
G01 X11.0753 Y-3.8031
G01 X11.0920 Y-3.8073
G01 X11.1082 Y-3.8130
G01 X11.1237 Y-3.8204
G01 X11.1384 Y-3.8292
G01 X11.1522 Y-3.8394
G01 X11.1649 Y-3.8510
G01 X11.1765 Y-3.8637
G01 X11.1867 Y-3.8775
G01 X11.1955 Y-3.8922
G01 X11.2029 Y-3.9077
G01 X11.2086 Y-3.9239
G01 X11.2128 Y-3.9406
G01 X11.2153 Y-3.9575
G01 X11.2162 Y-3.9747
G00 Z2.0000
G00 X12.6625 Y-4.5035
G01 F70.00
G01 Z-0.0900
G01 F120.00
G01 X12.7125 Y-4.5035
G01 X12.7128 Y-4.7749
G01 X12.7157 Y-4.7903
G01 X12.7214 Y-4.8039
G01 X12.7301 Y-4.8168
G01 X12.7406 Y-4.8271
G01 X12.7505 Y-4.8338
G01 X12.7614 Y-4.8388
G01 X12.7729 Y-4.8421
G01 X12.7847 Y-4.8434
G01 X13.1525 Y-4.8435
G01 X13.1525 Y-4.8935
G01 X12.6625 Y-4.8935
G01 X12.6625 Y-4.5035
G00 Z2.0000
G00 X13.1525 Y-3.6235
G01 F70.00
G01 Z-0.0900
G01 F120.00
G01 X13.1525 Y-3.6735
G01 X12.7847 Y-3.6736
G01 X12.7729 Y-3.6749
G01 X12.7614 Y-3.6782
G01 X12.7505 Y-3.6832
G01 X12.7406 Y-3.6899
G01 X12.7301 Y-3.7002
G01 X12.7214 Y-3.7131
G01 X12.7157 Y-3.7267
G01 X12.7128 Y-3.7421
G01 X12.7125 Y-4.0135
G01 X12.6625 Y-4.0135
G01 X12.6625 Y-3.6235
G01 X13.1525 Y-3.6235
G00 Z2.0000
G00 X14.1325 Y-4.0135
G01 F70.00
G01 Z-0.0900
G01 F120.00
G01 X14.0825 Y-4.0135
G01 X14.0822 Y-3.7421
G01 X14.0793 Y-3.7267
G01 X14.0736 Y-3.7131
G01 X14.0649 Y-3.7002
G01 X14.0544 Y-3.6899
G01 X14.0445 Y-3.6832
G01 X14.0336 Y-3.6782
G01 X14.0221 Y-3.6749
G01 X14.0103 Y-3.6736
G01 X13.6425 Y-3.6735
G01 X13.6425 Y-3.6235
G01 X14.1325 Y-3.6235
G01 X14.1325 Y-4.0135
G00 Z2.0000
G00 X14.1325 Y-4.8935
G01 F70.00
G01 Z-0.0900
G01 F120.00
G01 X13.6425 Y-4.8935
G01 X13.6425 Y-4.8435
G01 X14.0103 Y-4.8434
G01 X14.0212 Y-4.8422
G01 X14.0310 Y-4.8397
G01 X14.0404 Y-4.8359
G01 X14.0499 Y-4.8303
G01 X14.0624 Y-4.8195
G01 X14.0723 Y-4.8063
G01 X14.0790 Y-4.7912
G01 X14.0821 Y-4.7759
G01 X14.0825 Y-4.5035
G01 X14.1325 Y-4.5035
G01 X14.1325 Y-4.8935
G00 Z2.0000
G00 X15.9477 Y-6.5147
G01 F70.00
G01 Z-0.0900
G01 F120.00
G01 X15.9458 Y-6.5242
G01 X15.9404 Y-6.5323
G01 X15.9323 Y-6.5377
G01 X15.9228 Y-6.5396
G01 X15.9133 Y-6.5377
G01 X15.9052 Y-6.5323
G01 X15.8998 Y-6.5242
G01 X15.8979 Y-6.5147
G01 X15.8998 Y-6.5052
G01 X15.9052 Y-6.4971
G01 X15.9133 Y-6.4917
G01 X15.9228 Y-6.4898
G01 X15.9323 Y-6.4917
G01 X15.9404 Y-6.4971
G01 X15.9458 Y-6.5052
G01 X15.9477 Y-6.5147
G00 Z2.0000
G00 X16.0228 Y-6.5147
G01 F70.00
G01 Z-0.0900
G01 F120.00
G01 X16.0208 Y-6.5342
G01 X16.0151 Y-6.5530
G01 X16.0059 Y-6.5702
G01 X15.9935 Y-6.5854
G01 X15.9783 Y-6.5978
G01 X15.9611 Y-6.6070
G01 X15.9423 Y-6.6127
G01 X15.9228 Y-6.6147
G01 X15.9033 Y-6.6127
G01 X15.8845 Y-6.6070
G01 X15.8673 Y-6.5978
G01 X15.8521 Y-6.5854
G01 X15.8397 Y-6.5702
G01 X15.8305 Y-6.5530
G01 X15.8248 Y-6.5342
G01 X15.8228 Y-6.5147
G01 X15.8248 Y-6.4952
G01 X15.8305 Y-6.4764
G01 X15.8397 Y-6.4592
G01 X15.8521 Y-6.4440
G01 X15.8673 Y-6.4316
G01 X15.8845 Y-6.4224
G01 X15.9033 Y-6.4167
G01 X15.9228 Y-6.4147
G01 X15.9423 Y-6.4167
G01 X15.9611 Y-6.4224
G01 X15.9783 Y-6.4316
G01 X15.9935 Y-6.4440
G01 X16.0059 Y-6.4592
G01 X16.0151 Y-6.4764
G01 X16.0208 Y-6.4952
G01 X16.0228 Y-6.5147
G00 Z2.0000
G00 X16.0978 Y-6.5147
G01 F70.00
G01 Z-0.0900
G01 F120.00
G01 X16.0969 Y-6.5319
G01 X16.0944 Y-6.5488
G01 X16.0902 Y-6.5655
G01 X16.0845 Y-6.5817
G01 X16.0771 Y-6.5972
G01 X16.0683 Y-6.6119
G01 X16.0581 Y-6.6257
G01 X16.0465 Y-6.6384
G01 X16.0338 Y-6.6500
G01 X16.0200 Y-6.6602
G01 X16.0053 Y-6.6690
G01 X15.9898 Y-6.6764
G01 X15.9736 Y-6.6821
G01 X15.9569 Y-6.6863
G01 X15.9400 Y-6.6888
G01 X15.9228 Y-6.6897
G01 X15.9056 Y-6.6888
G01 X15.8887 Y-6.6863
G01 X15.8720 Y-6.6821
G01 X15.8558 Y-6.6764
G01 X15.8403 Y-6.6690
G01 X15.8256 Y-6.6602
G01 X15.8118 Y-6.6500
G01 X15.7991 Y-6.6384
G01 X15.7875 Y-6.6257
G01 X15.7773 Y-6.6119
G01 X15.7685 Y-6.5972
G01 X15.7611 Y-6.5817
G01 X15.7554 Y-6.5655
G01 X15.7512 Y-6.5488
G01 X15.7487 Y-6.5319
G01 X15.7478 Y-6.5147
G01 X15.7487 Y-6.4975
G01 X15.7512 Y-6.4806
G01 X15.7554 Y-6.4639
G01 X15.7611 Y-6.4477
G01 X15.7685 Y-6.4322
G01 X15.7773 Y-6.4175
G01 X15.7875 Y-6.4037
G01 X15.7991 Y-6.3910
G01 X15.8118 Y-6.3794
G01 X15.8256 Y-6.3692
G01 X15.8403 Y-6.3604
G01 X15.8558 Y-6.3530
G01 X15.8720 Y-6.3473
G01 X15.8887 Y-6.3431
G01 X15.9056 Y-6.3406
G01 X15.9228 Y-6.3397
G01 X15.9400 Y-6.3406
G01 X15.9569 Y-6.3431
G01 X15.9736 Y-6.3473
G01 X15.9898 Y-6.3530
G01 X16.0053 Y-6.3604
G01 X16.0200 Y-6.3692
G01 X16.0338 Y-6.3794
G01 X16.0465 Y-6.3910
G01 X16.0581 Y-6.4037
G01 X16.0683 Y-6.4175
G01 X16.0771 Y-6.4322
G01 X16.0845 Y-6.4477
G01 X16.0902 Y-6.4639
G01 X16.0944 Y-6.4806
G01 X16.0969 Y-6.4975
G01 X16.0978 Y-6.5147
G00 Z2.0000
G00 X17.5441 Y-7.0435
G01 F70.00
G01 Z-0.0900
G01 F120.00
G01 X17.5941 Y-7.0435
G01 X17.5944 Y-7.3149
G01 X17.5973 Y-7.3303
G01 X17.6030 Y-7.3439
G01 X17.6117 Y-7.3568
G01 X17.6222 Y-7.3671
G01 X17.6321 Y-7.3738
G01 X17.6430 Y-7.3788
G01 X17.6545 Y-7.3821
G01 X17.6663 Y-7.3834
G01 X18.0341 Y-7.3835
G01 X18.0341 Y-7.4335
G01 X17.5441 Y-7.4335
G01 X17.5441 Y-7.0435
G00 Z2.0000
G00 X18.0341 Y-6.1635
G01 F70.00
G01 Z-0.0900
G01 F120.00
G01 X18.0341 Y-6.2135
G01 X17.6663 Y-6.2136
G01 X17.6545 Y-6.2149
G01 X17.6430 Y-6.2182
G01 X17.6321 Y-6.2232
G01 X17.6222 Y-6.2299
G01 X17.6117 Y-6.2402
G01 X17.6030 Y-6.2531
G01 X17.5973 Y-6.2667
G01 X17.5944 Y-6.2821
G01 X17.5941 Y-6.5535
G01 X17.5441 Y-6.5535
G01 X17.5441 Y-6.1635
G01 X18.0341 Y-6.1635
G00 Z2.0000
G00 X19.0141 Y-6.5535
G01 F70.00
G01 Z-0.0900
G01 F120.00
G01 X18.9641 Y-6.5535
G01 X18.9638 Y-6.2821
G01 X18.9609 Y-6.2667
G01 X18.9552 Y-6.2531
G01 X18.9465 Y-6.2402
G01 X18.9360 Y-6.2299
G01 X18.9261 Y-6.2232
G01 X18.9152 Y-6.2182
G01 X18.9037 Y-6.2149
G01 X18.8919 Y-6.2136
G01 X18.5241 Y-6.2135
G01 X18.5241 Y-6.1635
G01 X19.0141 Y-6.1635
G01 X19.0141 Y-6.5535
G00 Z2.0000
G00 X19.0141 Y-7.4335
G01 F70.00
G01 Z-0.0900
G01 F120.00
G01 X18.5241 Y-7.4335
G01 X18.5241 Y-7.3835
G01 X18.8919 Y-7.3834
G01 X18.9019 Y-7.3824
G01 X18.9126 Y-7.3797
G01 X18.9228 Y-7.3755
G01 X18.9315 Y-7.3703
G01 X18.9434 Y-7.3602
G01 X18.9534 Y-7.3471
G01 X18.9603 Y-7.3320
G01 X18.9637 Y-7.3159
G01 X18.9641 Y-7.0435
G01 X19.0141 Y-7.0435
G01 X19.0141 Y-7.4335
G00 Z2.0000
G00 X21.5419 Y-7.3316
G01 F70.00
G01 Z-0.0900
G01 F120.00
G01 X21.5419 Y-8.6903
G01 X21.5429 Y-8.7004
G01 X21.5449 Y-8.7094
G01 X21.5483 Y-8.7189
G01 X21.5526 Y-8.7271
G01 X21.5583 Y-8.7354
G01 X21.5645 Y-8.7422
G01 X21.5722 Y-8.7487
G01 X21.5807 Y-8.7542
G01 X21.5891 Y-8.7581
G01 X21.5978 Y-8.7610
G01 X21.6068 Y-8.7628
G01 X21.6169 Y-8.7635
G01 X24.0178 Y-8.7635
G01 X24.0279 Y-8.7627
G01 X24.0369 Y-8.7608
G01 X24.0464 Y-8.7574
G01 X24.0555 Y-8.7528
G01 X24.0638 Y-8.7471
G01 X24.0712 Y-8.7402
G01 X24.0771 Y-8.7332
G01 X24.0826 Y-8.7247
G01 X24.0865 Y-8.7163
G01 X24.0897 Y-8.7067
G01 X24.0913 Y-8.6977
G01 X24.0919 Y-8.6885
G01 X24.0919 Y-7.0939
G01 X24.0903 Y-7.0793
G01 X24.0855 Y-7.0644
G01 X24.0782 Y-7.0516
G01 X24.0679 Y-7.0399
G01 X24.0570 Y-7.0314
G01 X24.0447 Y-7.0252
G01 X24.0315 Y-7.0212
G01 X24.0178 Y-7.0198
G01 X21.8676 Y-7.0198
G01 X20.4106 Y-5.2477
G01 X20.3970 Y-5.2328
G01 X20.3869 Y-5.2233
G01 X20.3713 Y-5.2105
G01 X20.3545 Y-5.1992
G01 X20.3425 Y-5.1924
G01 X20.3242 Y-5.1838
G01 X20.3113 Y-5.1789
G01 X20.2928 Y-5.1733
G01 X20.2685 Y-5.1685
G01 X20.2502 Y-5.1667
G01 X20.2373 Y-5.1663
G01 X15.1175 Y-5.1663
G01 X15.0967 Y-5.1673
G01 X15.0761 Y-5.1702
G01 X15.0619 Y-5.1733
G01 X15.0429 Y-5.1791
G01 X15.0236 Y-5.1869
G01 X13.8888 Y-5.7135
G01 X12.7838 Y-5.7136
G01 X12.7720 Y-5.7151
G01 X12.7597 Y-5.7189
G01 X12.7482 Y-5.7246
G01 X12.7378 Y-5.7323
G01 X12.7289 Y-5.7416
G01 X12.7222 Y-5.7515
G01 X12.7169 Y-5.7632
G01 X12.7136 Y-5.7757
G01 X12.7125 Y-5.7885
G01 X12.7125 Y-6.8103
G01 X12.7145 Y-6.8258
G01 X12.7197 Y-6.8406
G01 X12.7278 Y-6.8539
G01 X12.7385 Y-6.8653
G01 X12.7489 Y-6.8728
G01 X12.7605 Y-6.8785
G01 X12.7738 Y-6.8822
G01 X12.7866 Y-6.8835
G01 X14.0093 Y-6.8835
G01 X14.0230 Y-6.8819
G01 X14.0353 Y-6.8781
G01 X14.0476 Y-6.8719
G01 X14.0585 Y-6.8634
G01 X14.0677 Y-6.8532
G01 X14.0745 Y-6.8422
G01 X14.0795 Y-6.8294
G01 X14.0821 Y-6.8159
G01 X14.0825 Y-6.1199
G01 X15.1672 Y-5.6165
G01 X20.1310 Y-5.6165
G01 X21.5318 Y-7.3202
G01 X21.5419 Y-7.3316
G00 Z2.0000
G00 X21.4919 Y-9.2084
G01 F70.00
G01 Z-0.0900
G01 F120.00
G01 X21.4919 Y-9.0335
G01 X24.1419 Y-9.0335
G01 X24.1419 Y-10.0835
G01 X21.4919 Y-10.0835
G01 X21.4919 Y-9.9079
G01 X21.4912 Y-9.8987
G01 X21.4894 Y-9.8897
G01 X21.4858 Y-9.8792
G01 X21.4808 Y-9.8694
G01 X21.4743 Y-9.8605
G01 X21.4666 Y-9.8526
G01 X21.4578 Y-9.8459
G01 X21.4481 Y-9.8406
G01 X21.4387 Y-9.8370
G01 X21.4279 Y-9.8346
G01 X21.4169 Y-9.8338
G01 X19.0001 Y-9.8338
G01 X18.9722 Y-9.8324
G01 X18.9455 Y-9.8285
G01 X18.9323 Y-9.8255
G01 X18.9065 Y-9.8177
G01 X18.8816 Y-9.8073
G01 X18.8695 Y-9.8013
G01 X18.8578 Y-9.7946
G01 X18.8353 Y-9.7796
G01 X18.8144 Y-9.7625
G01 X18.8040 Y-9.7525
G01 X18.5449 Y-9.4935
G01 X18.5378 Y-9.4877
G01 X18.5292 Y-9.4824
G01 X18.5208 Y-9.4785
G01 X18.5121 Y-9.4757
G01 X18.5030 Y-9.4741
G01 X18.4938 Y-9.4735
G01 X17.5440 Y-9.4735
G01 X17.5440 Y-8.2035
G01 X19.0140 Y-8.2035
G01 X19.0144 Y-9.1606
G01 X19.0165 Y-9.1723
G01 X19.0204 Y-9.1836
G01 X19.0266 Y-9.1949
G01 X19.0341 Y-9.2042
G01 X19.0959 Y-9.2658
G01 X19.1097 Y-9.2750
G01 X19.1181 Y-9.2787
G01 X19.1260 Y-9.2812
G01 X19.1351 Y-9.2829
G01 X19.1442 Y-9.2834
G01 X21.4197 Y-9.2834
G01 X21.4342 Y-9.2814
G01 X21.4481 Y-9.2766
G01 X21.4608 Y-9.2692
G01 X21.4712 Y-9.2601
G01 X21.4798 Y-9.2493
G01 X21.4865 Y-9.2363
G01 X21.4905 Y-9.2231
G01 X21.4919 Y-9.2084
G00 Z2.0000
G00 X24.1419 Y-8.8135
G01 F70.00
G01 Z-0.0900
G01 F120.00
G01 X21.4919 Y-8.8135
G01 X21.4919 Y-7.3774
G01 X21.4903 Y-7.3619
G01 X21.4854 Y-7.3470
G01 X21.4807 Y-7.3380
G01 X21.4748 Y-7.3298
G01 X20.1298 Y-5.6939
G01 X20.1222 Y-5.6860
G01 X20.1127 Y-5.6787
G01 X20.1022 Y-5.6730
G01 X20.0919 Y-5.6693
G01 X20.0820 Y-5.6673
G01 X20.0719 Y-5.6666
G01 X15.1948 Y-5.6666
G01 X15.1818 Y-5.6677
G01 X15.1728 Y-5.6699
G01 X15.1632 Y-5.6735
G01 X14.1759 Y-6.1317
G01 X14.1618 Y-6.1403
G01 X14.1500 Y-6.1517
G01 X14.1426 Y-6.1622
G01 X14.1372 Y-6.1737
G01 X14.1338 Y-6.1861
G01 X14.1325 Y-6.1979
G01 X14.1325 Y-6.9335
G01 X12.6625 Y-6.9335
G01 X12.6625 Y-5.6635
G01 X13.8610 Y-5.6635
G01 X13.8776 Y-5.6616
G01 X13.8925 Y-5.6565
G01 X15.0008 Y-5.1422
G01 X15.0263 Y-5.1318
G01 X15.0517 Y-5.1242
G01 X15.0778 Y-5.1191
G01 X15.1042 Y-5.1166
G01 X20.2364 Y-5.1162
G01 X20.2642 Y-5.1176
G01 X20.2776 Y-5.1192
G01 X20.3041 Y-5.1245
G01 X20.3299 Y-5.1323
G01 X20.3425 Y-5.1371
G01 X20.3548 Y-5.1426
G01 X20.3786 Y-5.1553
G01 X20.4011 Y-5.1703
G01 X20.4117 Y-5.1786
G01 X20.4219 Y-5.1874
G01 X20.4410 Y-5.2064
G01 X21.8688 Y-6.9424
G01 X21.8807 Y-6.9540
G01 X21.8939 Y-6.9622
G01 X21.9095 Y-6.9678
G01 X21.9185 Y-6.9693
G01 X21.9268 Y-6.9698
G01 X24.1419 Y-6.9698
G01 X24.1419 Y-8.8135
G00 Z2.0000
G00 X24.0919 Y-9.9585
G01 F70.00
G01 Z-0.0900
G01 F120.00
G01 X24.0918 Y-9.1539
G01 X24.0901 Y-9.1421
G01 X24.0865 Y-9.1307
G01 X24.0812 Y-9.1199
G01 X24.0743 Y-9.1102
G01 X24.0666 Y-9.1023
G01 X24.0570 Y-9.0951
G01 X24.0464 Y-9.0896
G01 X24.0351 Y-9.0857
G01 X24.0261 Y-9.0841
G01 X24.0169 Y-9.0835
G01 X21.6132 Y-9.0836
G01 X21.6014 Y-9.0851
G01 X21.5908 Y-9.0882
G01 X21.5799 Y-9.0932
G01 X21.5708 Y-9.0994
G01 X21.5620 Y-9.1075
G01 X21.5545 Y-9.1168
G01 X21.5487 Y-9.1273
G01 X21.5449 Y-9.1376
G01 X21.5427 Y-9.1475
G01 X21.5419 Y-9.1576
G01 X21.5419 Y-9.3335
G01 X19.0924 Y-9.3335
G01 X18.9640 Y-9.2051
G01 X18.9639 Y-8.3257
G01 X18.9630 Y-8.3166
G01 X18.9613 Y-8.3085
G01 X18.9586 Y-8.3007
G01 X18.9547 Y-8.2923
G01 X18.9503 Y-8.2853
G01 X18.9446 Y-8.2781
G01 X18.9387 Y-8.2723
G01 X18.9314 Y-8.2667
G01 X18.9219 Y-8.2611
G01 X18.9117 Y-8.2570
G01 X18.9009 Y-8.2545
G01 X18.8899 Y-8.2535
G01 X17.6662 Y-8.2536
G01 X17.6544 Y-8.2549
G01 X17.6429 Y-8.2582
G01 X17.6320 Y-8.2632
G01 X17.6221 Y-8.2699
G01 X17.6134 Y-8.2781
G01 X17.6061 Y-8.2876
G01 X17.6004 Y-8.2981
G01 X17.5962 Y-8.3103
G01 X17.5946 Y-8.3193
G01 X17.5940 Y-8.3285
G01 X17.5940 Y-9.3494
G01 X17.5954 Y-9.3631
G01 X17.5994 Y-9.3763
G01 X17.6056 Y-9.3886
G01 X17.6141 Y-9.3995
G01 X17.6251 Y-9.4093
G01 X17.6378 Y-9.4167
G01 X17.6526 Y-9.4217
G01 X17.6672 Y-9.4235
G01 X18.5458 Y-9.4235
G01 X18.8487 Y-9.7260
G01 X18.8726 Y-9.7447
G01 X18.8931 Y-9.7571
G01 X18.9148 Y-9.7672
G01 X18.9321 Y-9.7734
G01 X18.9445 Y-9.7769
G01 X18.9680 Y-9.7815
G01 X18.9863 Y-9.7833
G01 X18.9992 Y-9.7837
G01 X21.5419 Y-9.7837
G01 X21.5419 Y-9.9594
G01 X21.5427 Y-9.9695
G01 X21.5449 Y-9.9794
G01 X21.5487 Y-9.9897
G01 X21.5545 Y-10.0002
G01 X21.5620 Y-10.0095
G01 X21.5708 Y-10.0176
G01 X21.5807 Y-10.0242
G01 X21.5916 Y-10.0291
G01 X21.6032 Y-10.0322
G01 X21.6141 Y-10.0334
G01 X24.0187 Y-10.0335
G01 X24.0324 Y-10.0319
G01 X24.0464 Y-10.0274
G01 X24.0593 Y-10.0203
G01 X24.0706 Y-10.0109
G01 X24.0798 Y-9.9994
G01 X24.0865 Y-9.9863
G01 X24.0905 Y-9.9731
G01 X24.0919 Y-9.9585
G00 Z2.0000
G00 X20.9075 Y-13.1227
G01 F70.00
G01 Z-0.0900
G01 F120.00
G01 X20.9127 Y-13.1326
G01 X20.8827 Y-13.1475
G01 X20.9075 Y-13.1227
G00 Z2.0000
G00 X19.8107 Y-14.2041
G01 F70.00
G01 Z-0.0900
G01 F120.00
G01 X19.8056 Y-14.1943
G01 X19.8355 Y-14.1794
G01 X19.8107 Y-14.2041
G00 Z2.0000
G00 X18.9640 Y-14.4285
G01 F70.00
G01 Z-0.0900
G01 F120.00
G01 X18.9640 Y-14.1436
G01 X19.6993 Y-14.1433
G01 X19.7194 Y-14.1413
G01 X19.7330 Y-14.1389
G01 X19.7526 Y-14.1339
G01 X19.7717 Y-14.1271
G01 X19.7844 Y-14.1216
G01 X19.8022 Y-14.1120
G01 X19.8139 Y-14.1046
G01 X19.8294 Y-14.0931
G01 X19.8465 Y-14.0777
G01 X21.5419 Y-12.3822
G01 X21.5420 Y-12.5013
G01 X21.5433 Y-12.5131
G01 X21.5463 Y-12.5238
G01 X21.5508 Y-12.5339
G01 X21.5567 Y-12.5432
G01 X21.5632 Y-12.5509
G01 X21.5715 Y-12.5582
G01 X21.5799 Y-12.5638
G01 X21.5899 Y-12.5685
G01 X21.6005 Y-12.5717
G01 X21.6114 Y-12.5733
G01 X24.0169 Y-12.5735
G01 X24.0261 Y-12.5729
G01 X24.0351 Y-12.5713
G01 X24.0439 Y-12.5685
G01 X24.0523 Y-12.5646
G01 X24.0601 Y-12.5598
G01 X24.0679 Y-12.5534
G01 X24.0743 Y-12.5468
G01 X24.0803 Y-12.5386
G01 X24.0851 Y-12.5297
G01 X24.0884 Y-12.5212
G01 X24.0908 Y-12.5113
G01 X24.0918 Y-12.5013
G01 X24.0919 Y-11.6976
G01 X24.0912 Y-11.6884
G01 X24.0897 Y-11.6803
G01 X24.0869 Y-11.6715
G01 X24.0830 Y-11.6631
G01 X24.0777 Y-11.6546
G01 X24.0712 Y-11.6468
G01 X24.0638 Y-11.6399
G01 X24.0555 Y-11.6342
G01 X24.0464 Y-11.6296
G01 X24.0369 Y-11.6262
G01 X24.0279 Y-11.6243
G01 X24.0178 Y-11.6235
G01 X21.6169 Y-11.6235
G01 X21.6014 Y-11.6251
G01 X21.5857 Y-11.6303
G01 X21.5783 Y-11.6342
G01 X21.5708 Y-11.6394
G01 X21.5645 Y-11.6448
G01 X21.5583 Y-11.6516
G01 X21.5535 Y-11.6584
G01 X21.5491 Y-11.6664
G01 X21.5457 Y-11.6750
G01 X21.5435 Y-11.6830
G01 X21.5419 Y-11.6976
G01 X21.5419 Y-11.8339
G01 X21.5239 Y-11.8350
G01 X21.5021 Y-11.8383
G01 X21.4816 Y-11.8435
G01 X21.4599 Y-11.8513
G01 X21.4408 Y-11.8604
G01 X21.4219 Y-11.8718
G01 X21.4041 Y-11.8849
G01 X21.3891 Y-11.8985
G01 X19.5941 Y-13.6934
G01 X18.9640 Y-13.6934
G01 X18.9640 Y-13.4085
G01 X18.9629 Y-13.3957
G01 X18.9602 Y-13.3850
G01 X18.9556 Y-13.3740
G01 X18.9492 Y-13.3638
G01 X18.9414 Y-13.3548
G01 X18.9329 Y-13.3477
G01 X18.9227 Y-13.3415
G01 X18.9117 Y-13.3370
G01 X18.9009 Y-13.3345
G01 X18.8890 Y-13.3335
G01 X17.6672 Y-13.3335
G01 X17.6508 Y-13.3357
G01 X17.6353 Y-13.3415
G01 X17.6214 Y-13.3505
G01 X17.6099 Y-13.3624
G01 X17.6029 Y-13.3731
G01 X17.5981 Y-13.3841
G01 X17.5951 Y-13.3957
G01 X17.5940 Y-13.4076
G01 X17.5940 Y-14.4294
G01 X17.5947 Y-14.4386
G01 X17.5962 Y-14.4467
G01 X17.6020 Y-14.4622
G01 X17.6110 Y-14.4761
G01 X17.6229 Y-14.4876
G01 X17.6328 Y-14.4942
G01 X17.6437 Y-14.4991
G01 X17.6562 Y-14.5024
G01 X17.6681 Y-14.5035
G01 X18.8927 Y-14.5034
G01 X18.9072 Y-14.5013
G01 X18.9202 Y-14.4967
G01 X18.9329 Y-14.4893
G01 X18.9433 Y-14.4802
G01 X18.9519 Y-14.4694
G01 X18.9586 Y-14.4563
G01 X18.9626 Y-14.4431
G01 X18.9640 Y-14.4285
G00 Z2.0000
G00 X19.0141 Y-12.5135
G01 F70.00
G01 Z-0.0900
G01 F120.00
G01 X18.5241 Y-12.5135
G01 X18.5241 Y-12.4635
G01 X18.8919 Y-12.4634
G01 X18.9028 Y-12.4622
G01 X18.9126 Y-12.4597
G01 X18.9228 Y-12.4555
G01 X18.9315 Y-12.4503
G01 X18.9434 Y-12.4402
G01 X18.9534 Y-12.4271
G01 X18.9603 Y-12.4120
G01 X18.9637 Y-12.3959
G01 X18.9641 Y-12.1235
G01 X19.0141 Y-12.1235
G01 X19.0141 Y-12.5135
G00 Z2.0000
G00 X19.0141 Y-11.6335
G01 F70.00
G01 Z-0.0900
G01 F120.00
G01 X18.9641 Y-11.6335
G01 X18.9638 Y-11.3621
G01 X18.9609 Y-11.3467
G01 X18.9552 Y-11.3331
G01 X18.9465 Y-11.3202
G01 X18.9360 Y-11.3099
G01 X18.9261 Y-11.3032
G01 X18.9152 Y-11.2982
G01 X18.9037 Y-11.2949
G01 X18.8919 Y-11.2936
G01 X18.5241 Y-11.2935
G01 X18.5241 Y-11.2435
G01 X19.0141 Y-11.2435
G01 X19.0141 Y-11.6335
G00 Z2.0000
G00 X18.0341 Y-11.2435
G01 F70.00
G01 Z-0.0900
G01 F120.00
G01 X18.0341 Y-11.2935
G01 X17.6663 Y-11.2936
G01 X17.6545 Y-11.2949
G01 X17.6430 Y-11.2982
G01 X17.6321 Y-11.3032
G01 X17.6222 Y-11.3099
G01 X17.6117 Y-11.3202
G01 X17.6030 Y-11.3331
G01 X17.5973 Y-11.3467
G01 X17.5944 Y-11.3621
G01 X17.5941 Y-11.6335
G01 X17.5441 Y-11.6335
G01 X17.5441 Y-11.2435
G01 X18.0341 Y-11.2435
G00 Z2.0000
G00 X17.5441 Y-12.1235
G01 F70.00
G01 Z-0.0900
G01 F120.00
G01 X17.5941 Y-12.1235
G01 X17.5944 Y-12.3949
G01 X17.5973 Y-12.4103
G01 X17.6030 Y-12.4239
G01 X17.6117 Y-12.4368
G01 X17.6222 Y-12.4471
G01 X17.6321 Y-12.4538
G01 X17.6430 Y-12.4588
G01 X17.6545 Y-12.4621
G01 X17.6663 Y-12.4634
G01 X18.0341 Y-12.4635
G01 X18.0341 Y-12.5135
G01 X17.5441 Y-12.5135
G01 X17.5441 Y-12.1235
G00 Z2.0000
G00 X16.0978 Y-11.5947
G01 F70.00
G01 Z-0.0900
G01 F120.00
G01 X16.0969 Y-11.6119
G01 X16.0944 Y-11.6288
G01 X16.0902 Y-11.6455
G01 X16.0845 Y-11.6617
G01 X16.0771 Y-11.6772
G01 X16.0683 Y-11.6919
G01 X16.0581 Y-11.7057
G01 X16.0465 Y-11.7184
G01 X16.0338 Y-11.7300
G01 X16.0200 Y-11.7402
G01 X16.0053 Y-11.7490
G01 X15.9898 Y-11.7564
G01 X15.9736 Y-11.7621
G01 X15.9569 Y-11.7663
G01 X15.9400 Y-11.7688
G01 X15.9228 Y-11.7697
G01 X15.9056 Y-11.7688
G01 X15.8887 Y-11.7663
G01 X15.8720 Y-11.7621
G01 X15.8558 Y-11.7564
G01 X15.8403 Y-11.7490
G01 X15.8256 Y-11.7402
G01 X15.8118 Y-11.7300
G01 X15.7991 Y-11.7184
G01 X15.7875 Y-11.7057
G01 X15.7773 Y-11.6919
G01 X15.7685 Y-11.6772
G01 X15.7611 Y-11.6617
G01 X15.7554 Y-11.6455
G01 X15.7512 Y-11.6288
G01 X15.7487 Y-11.6119
G01 X15.7478 Y-11.5947
G01 X15.7487 Y-11.5775
G01 X15.7512 Y-11.5606
G01 X15.7554 Y-11.5439
G01 X15.7611 Y-11.5277
G01 X15.7685 Y-11.5122
G01 X15.7773 Y-11.4975
G01 X15.7875 Y-11.4837
G01 X15.7991 Y-11.4710
G01 X15.8118 Y-11.4594
G01 X15.8256 Y-11.4492
G01 X15.8403 Y-11.4404
G01 X15.8558 Y-11.4330
G01 X15.8720 Y-11.4273
G01 X15.8887 Y-11.4231
G01 X15.9056 Y-11.4206
G01 X15.9228 Y-11.4197
G01 X15.9400 Y-11.4206
G01 X15.9569 Y-11.4231
G01 X15.9736 Y-11.4273
G01 X15.9898 Y-11.4330
G01 X16.0053 Y-11.4404
G01 X16.0200 Y-11.4492
G01 X16.0338 Y-11.4594
G01 X16.0465 Y-11.4710
G01 X16.0581 Y-11.4837
G01 X16.0683 Y-11.4975
G01 X16.0771 Y-11.5122
G01 X16.0845 Y-11.5277
G01 X16.0902 Y-11.5439
G01 X16.0944 Y-11.5606
G01 X16.0969 Y-11.5775
G01 X16.0978 Y-11.5947
G00 Z2.0000
G00 X16.0228 Y-11.5947
G01 F70.00
G01 Z-0.0900
G01 F120.00
G01 X16.0208 Y-11.6142
G01 X16.0151 Y-11.6330
G01 X16.0059 Y-11.6502
G01 X15.9935 Y-11.6654
G01 X15.9783 Y-11.6778
G01 X15.9611 Y-11.6870
G01 X15.9423 Y-11.6927
G01 X15.9228 Y-11.6947
G01 X15.9033 Y-11.6927
G01 X15.8845 Y-11.6870
G01 X15.8673 Y-11.6778
G01 X15.8521 Y-11.6654
G01 X15.8397 Y-11.6502
G01 X15.8305 Y-11.6330
G01 X15.8248 Y-11.6142
G01 X15.8228 Y-11.5947
G01 X15.8248 Y-11.5752
G01 X15.8305 Y-11.5564
G01 X15.8397 Y-11.5392
G01 X15.8521 Y-11.5240
G01 X15.8673 Y-11.5116
G01 X15.8845 Y-11.5024
G01 X15.9033 Y-11.4967
G01 X15.9228 Y-11.4947
G01 X15.9423 Y-11.4967
G01 X15.9611 Y-11.5024
G01 X15.9783 Y-11.5116
G01 X15.9935 Y-11.5240
G01 X16.0059 Y-11.5392
G01 X16.0151 Y-11.5564
G01 X16.0208 Y-11.5752
G01 X16.0228 Y-11.5947
G00 Z2.0000
G00 X15.9477 Y-11.5947
G01 F70.00
G01 Z-0.0900
G01 F120.00
G01 X15.9458 Y-11.6042
G01 X15.9404 Y-11.6123
G01 X15.9323 Y-11.6177
G01 X15.9228 Y-11.6196
G01 X15.9133 Y-11.6177
G01 X15.9052 Y-11.6123
G01 X15.8998 Y-11.6042
G01 X15.8979 Y-11.5947
G01 X15.8998 Y-11.5852
G01 X15.9052 Y-11.5771
G01 X15.9133 Y-11.5717
G01 X15.9228 Y-11.5698
G01 X15.9323 Y-11.5717
G01 X15.9404 Y-11.5771
G01 X15.9458 Y-11.5852
G01 X15.9477 Y-11.5947
G00 Z2.0000
G00 X14.1325 Y-11.2360
G01 F70.00
G01 Z-0.0900
G01 F120.00
G01 X14.1325 Y-12.0135
G01 X12.6625 Y-12.0135
G01 X12.6625 Y-10.7435
G01 X13.7533 Y-10.7435
G01 X13.7661 Y-10.7424
G01 X13.7777 Y-10.7394
G01 X13.7894 Y-10.7342
G01 X13.8287 Y-10.7072
G01 X13.8530 Y-10.6940
G01 X13.8785 Y-10.6832
G01 X13.8925 Y-10.6786
G01 X15.0359 Y-10.3277
G01 X15.0499 Y-10.3238
G01 X15.0767 Y-10.3184
G01 X15.1039 Y-10.3157
G01 X15.1184 Y-10.3153
G01 X20.0126 Y-10.3157
G01 X20.0395 Y-10.3183
G01 X20.0528 Y-10.3206
G01 X20.0660 Y-10.3236
G01 X20.0918 Y-10.3314
G01 X20.1167 Y-10.3418
G01 X20.1288 Y-10.3478
G01 X20.1520 Y-10.3617
G01 X20.1737 Y-10.3778
G01 X20.1943 Y-10.3966
G01 X20.3716 Y-10.5737
G01 X20.3795 Y-10.5800
G01 X20.3882 Y-10.5851
G01 X20.3975 Y-10.5890
G01 X20.4073 Y-10.5917
G01 X20.4219 Y-10.5931
G01 X21.4169 Y-10.5931
G01 X21.4297 Y-10.5920
G01 X21.4413 Y-10.5890
G01 X21.4531 Y-10.5838
G01 X21.4630 Y-10.5773
G01 X21.4718 Y-10.5692
G01 X21.4793 Y-10.5598
G01 X21.4851 Y-10.5494
G01 X21.4894 Y-10.5372
G01 X21.4912 Y-10.5282
G01 X21.4919 Y-10.5190
G01 X21.4919 Y-10.3035
G01 X24.1419 Y-10.3035
G01 X24.1419 Y-11.3535
G01 X21.4919 Y-11.3535
G01 X21.4919 Y-11.2176
G01 X21.4912 Y-11.2084
G01 X21.4894 Y-11.1994
G01 X21.4865 Y-11.1906
G01 X21.4822 Y-11.1815
G01 X21.4771 Y-11.1738
G01 X21.4712 Y-11.1668
G01 X21.4638 Y-11.1599
G01 X21.4562 Y-11.1546
G01 X21.4481 Y-11.1503
G01 X21.4387 Y-11.1467
G01 X21.4279 Y-11.1443
G01 X21.4169 Y-11.1435
G01 X20.2778 Y-11.1435
G01 X20.2499 Y-11.1421
G01 X20.2232 Y-11.1382
G01 X20.2100 Y-11.1352
G01 X20.1842 Y-11.1274
G01 X20.1593 Y-11.1170
G01 X20.1354 Y-11.1043
G01 X20.1130 Y-11.0893
G01 X20.0921 Y-11.0722
G01 X20.0817 Y-11.0622
G01 X19.9030 Y-10.8839
G01 X19.8926 Y-10.8763
G01 X19.8810 Y-10.8707
G01 X19.8678 Y-10.8669
G01 X19.8550 Y-10.8657
G01 X15.1654 Y-10.8658
G01 X15.1561 Y-10.8670
G01 X15.1480 Y-10.8690
G01 X14.1820 Y-11.1655
G01 X14.1720 Y-11.1700
G01 X14.1619 Y-11.1764
G01 X14.1537 Y-11.1837
G01 X14.1461 Y-11.1929
G01 X14.1405 Y-11.2024
G01 X14.1360 Y-11.2134
G01 X14.1334 Y-11.2241
G01 X14.1325 Y-11.2360
G00 Z2.0000
G00 X14.0825 Y-11.1435
G01 F70.00
G01 Z-0.0900
G01 F120.00
G01 X15.1513 Y-10.8156
G01 X19.9059 Y-10.8156
G01 X20.1177 Y-11.0275
G01 X20.1341 Y-11.0423
G01 X20.1443 Y-11.0502
G01 X20.1596 Y-11.0604
G01 X20.1823 Y-11.0725
G01 X20.1993 Y-11.0796
G01 X20.2116 Y-11.0837
G01 X20.2240 Y-11.0871
G01 X20.2421 Y-11.0906
G01 X20.2567 Y-11.0924
G01 X20.2769 Y-11.0934
G01 X21.5419 Y-11.0934
G01 X21.5419 Y-11.2303
G01 X21.5430 Y-11.2413
G01 X21.5454 Y-11.2512
G01 X21.5495 Y-11.2614
G01 X21.5545 Y-11.2702
G01 X21.5613 Y-11.2789
G01 X21.5686 Y-11.2859
G01 X21.5768 Y-11.2919
G01 X21.5865 Y-11.2971
G01 X21.5969 Y-11.3008
G01 X21.6077 Y-11.3029
G01 X21.6169 Y-11.3035
G01 X24.0224 Y-11.3033
G01 X24.0360 Y-11.3010
G01 X24.0481 Y-11.2967
G01 X24.0601 Y-11.2898
G01 X24.0699 Y-11.2815
G01 X24.0782 Y-11.2717
G01 X24.0851 Y-11.2597
G01 X24.0897 Y-11.2467
G01 X24.0917 Y-11.2340
G01 X24.0917 Y-10.4230
G01 X24.0894 Y-10.4094
G01 X24.0847 Y-10.3964
G01 X24.0777 Y-10.3846
G01 X24.0686 Y-10.3742
G01 X24.0578 Y-10.3656
G01 X24.0456 Y-10.3592
G01 X24.0324 Y-10.3551
G01 X24.0187 Y-10.3535
G01 X21.6123 Y-10.3536
G01 X21.6005 Y-10.3553
G01 X21.5891 Y-10.3589
G01 X21.5783 Y-10.3642
G01 X21.5686 Y-10.3711
G01 X21.5601 Y-10.3795
G01 X21.5530 Y-10.3892
G01 X21.5476 Y-10.3998
G01 X21.5439 Y-10.4112
G01 X21.5419 Y-10.4276
G01 X21.5419 Y-10.6432
G01 X20.3701 Y-10.6432
G01 X20.1576 Y-10.4307
G01 X20.1346 Y-10.4108
G01 X20.1226 Y-10.4024
G01 X20.1052 Y-10.3920
G01 X20.0869 Y-10.3833
G01 X20.0749 Y-10.3786
G01 X20.0627 Y-10.3746
G01 X20.0430 Y-10.3697
G01 X20.0303 Y-10.3676
G01 X20.0101 Y-10.3657
G01 X15.1175 Y-10.3654
G01 X15.1045 Y-10.3658
G01 X15.0850 Y-10.3678
G01 X15.0713 Y-10.3702
G01 X15.0515 Y-10.3753
G01 X13.9045 Y-10.7273
G01 X13.8764 Y-10.7383
G01 X13.8548 Y-10.7499
G01 X13.8369 Y-10.7621
G01 X13.7956 Y-10.7935
G01 X12.7866 Y-10.7935
G01 X12.7765 Y-10.7943
G01 X12.7657 Y-10.7967
G01 X12.7554 Y-10.8007
G01 X12.7458 Y-10.8061
G01 X12.7392 Y-10.8111
G01 X12.7326 Y-10.8175
G01 X12.7267 Y-10.8246
G01 X12.7218 Y-10.8323
G01 X12.7182 Y-10.8398
G01 X12.7152 Y-10.8485
G01 X12.7133 Y-10.8575
G01 X12.7125 Y-10.8667
G01 X12.7125 Y-11.8894
G01 X12.7133 Y-11.8995
G01 X12.7152 Y-11.9085
G01 X12.7186 Y-11.9180
G01 X12.7227 Y-11.9263
G01 X12.7278 Y-11.9339
G01 X12.7345 Y-11.9415
G01 X12.7421 Y-11.9482
G01 X12.7497 Y-11.9533
G01 X12.7588 Y-11.9578
G01 X12.7675 Y-11.9608
G01 X12.7765 Y-11.9627
G01 X12.7857 Y-11.9635
G01 X14.0084 Y-11.9635
G01 X14.0185 Y-11.9627
G01 X14.0275 Y-11.9608
G01 X14.0362 Y-11.9578
G01 X14.0453 Y-11.9533
G01 X14.0529 Y-11.9482
G01 X14.0599 Y-11.9422
G01 X14.0666 Y-11.9346
G01 X14.0718 Y-11.9271
G01 X14.0761 Y-11.9189
G01 X14.0793 Y-11.9103
G01 X14.0814 Y-11.9013
G01 X14.0824 Y-11.8922
G01 X14.0825 Y-11.1435
G00 Z2.0000
G00 X14.1325 Y-9.9735
G01 F70.00
G01 Z-0.0900
G01 F120.00
G01 X13.6425 Y-9.9735
G01 X13.6425 Y-9.9235
G01 X14.0103 Y-9.9234
G01 X14.0212 Y-9.9222
G01 X14.0310 Y-9.9197
G01 X14.0412 Y-9.9155
G01 X14.0499 Y-9.9103
G01 X14.0624 Y-9.8995
G01 X14.0723 Y-9.8863
G01 X14.0790 Y-9.8712
G01 X14.0821 Y-9.8559
G01 X14.0825 Y-9.5835
G01 X14.1325 Y-9.5835
G01 X14.1325 Y-9.9735
G00 Z2.0000
G00 X14.1325 Y-9.0935
G01 F70.00
G01 Z-0.0900
G01 F120.00
G01 X14.0825 Y-9.0935
G01 X14.0822 Y-8.8221
G01 X14.0793 Y-8.8067
G01 X14.0736 Y-8.7931
G01 X14.0649 Y-8.7802
G01 X14.0544 Y-8.7699
G01 X14.0445 Y-8.7632
G01 X14.0336 Y-8.7582
G01 X14.0221 Y-8.7549
G01 X14.0103 Y-8.7536
G01 X13.6425 Y-8.7535
G01 X13.6425 Y-8.7035
G01 X14.1325 Y-8.7035
G01 X14.1325 Y-9.0935
G00 Z2.0000
G00 X13.1525 Y-8.7035
G01 F70.00
G01 Z-0.0900
G01 F120.00
G01 X13.1525 Y-8.7535
G01 X12.7847 Y-8.7536
G01 X12.7729 Y-8.7549
G01 X12.7614 Y-8.7582
G01 X12.7505 Y-8.7632
G01 X12.7406 Y-8.7699
G01 X12.7301 Y-8.7802
G01 X12.7214 Y-8.7931
G01 X12.7157 Y-8.8067
G01 X12.7128 Y-8.8221
G01 X12.7125 Y-9.0935
G01 X12.6625 Y-9.0935
G01 X12.6625 Y-8.7035
G01 X13.1525 Y-8.7035
G00 Z2.0000
G00 X12.6625 Y-9.5835
G01 F70.00
G01 Z-0.0900
G01 F120.00
G01 X12.7125 Y-9.5835
G01 X12.7128 Y-9.8549
G01 X12.7157 Y-9.8703
G01 X12.7214 Y-9.8839
G01 X12.7301 Y-9.8968
G01 X12.7406 Y-9.9071
G01 X12.7505 Y-9.9138
G01 X12.7614 Y-9.9188
G01 X12.7729 Y-9.9221
G01 X12.7847 Y-9.9234
G01 X13.1525 Y-9.9235
G01 X13.1525 Y-9.9735
G01 X12.6625 Y-9.9735
G01 X12.6625 Y-9.5835
G00 Z2.0000
G00 X11.2162 Y-9.0547
G01 F70.00
G01 Z-0.0900
G01 F120.00
G01 X11.2153 Y-9.0719
G01 X11.2128 Y-9.0888
G01 X11.2086 Y-9.1055
G01 X11.2029 Y-9.1217
G01 X11.1955 Y-9.1372
G01 X11.1867 Y-9.1519
G01 X11.1765 Y-9.1657
G01 X11.1649 Y-9.1784
G01 X11.1522 Y-9.1900
G01 X11.1384 Y-9.2002
G01 X11.1237 Y-9.2090
G01 X11.1082 Y-9.2164
G01 X11.0920 Y-9.2221
G01 X11.0753 Y-9.2263
G01 X11.0584 Y-9.2288
G01 X11.0412 Y-9.2297
G01 X11.0240 Y-9.2288
G01 X11.0071 Y-9.2263
G01 X10.9904 Y-9.2221
G01 X10.9742 Y-9.2164
G01 X10.9587 Y-9.2090
G01 X10.9440 Y-9.2002
G01 X10.9302 Y-9.1900
G01 X10.9175 Y-9.1784
G01 X10.9059 Y-9.1657
G01 X10.8957 Y-9.1519
G01 X10.8869 Y-9.1372
G01 X10.8795 Y-9.1217
G01 X10.8738 Y-9.1055
G01 X10.8696 Y-9.0888
G01 X10.8671 Y-9.0719
G01 X10.8662 Y-9.0547
G01 X10.8671 Y-9.0375
G01 X10.8696 Y-9.0206
G01 X10.8738 Y-9.0039
G01 X10.8795 Y-8.9877
G01 X10.8869 Y-8.9722
G01 X10.8957 Y-8.9575
G01 X10.9059 Y-8.9437
G01 X10.9175 Y-8.9310
G01 X10.9302 Y-8.9194
G01 X10.9440 Y-8.9092
G01 X10.9587 Y-8.9004
G01 X10.9742 Y-8.8930
G01 X10.9904 Y-8.8873
G01 X11.0071 Y-8.8831
G01 X11.0240 Y-8.8806
G01 X11.0412 Y-8.8797
G01 X11.0584 Y-8.8806
G01 X11.0753 Y-8.8831
G01 X11.0920 Y-8.8873
G01 X11.1082 Y-8.8930
G01 X11.1237 Y-8.9004
G01 X11.1384 Y-8.9092
G01 X11.1522 Y-8.9194
G01 X11.1649 Y-8.9310
G01 X11.1765 Y-8.9437
G01 X11.1867 Y-8.9575
G01 X11.1955 Y-8.9722
G01 X11.2029 Y-8.9877
G01 X11.2086 Y-9.0039
G01 X11.2128 Y-9.0206
G01 X11.2153 Y-9.0375
G01 X11.2162 Y-9.0547
G00 Z2.0000
G00 X11.1412 Y-9.0547
G01 F70.00
G01 Z-0.0900
G01 F120.00
G01 X11.1392 Y-9.0742
G01 X11.1335 Y-9.0930
G01 X11.1243 Y-9.1102
G01 X11.1119 Y-9.1254
G01 X11.0967 Y-9.1378
G01 X11.0795 Y-9.1470
G01 X11.0607 Y-9.1527
G01 X11.0412 Y-9.1547
G01 X11.0217 Y-9.1527
G01 X11.0029 Y-9.1470
G01 X10.9857 Y-9.1378
G01 X10.9705 Y-9.1254
G01 X10.9581 Y-9.1102
G01 X10.9489 Y-9.0930
G01 X10.9432 Y-9.0742
G01 X10.9412 Y-9.0547
G01 X10.9432 Y-9.0352
G01 X10.9489 Y-9.0164
G01 X10.9581 Y-8.9992
G01 X10.9705 Y-8.9840
G01 X10.9857 Y-8.9716
G01 X11.0029 Y-8.9624
G01 X11.0217 Y-8.9567
G01 X11.0412 Y-8.9547
G01 X11.0607 Y-8.9567
G01 X11.0795 Y-8.9624
G01 X11.0967 Y-8.9716
G01 X11.1119 Y-8.9840
G01 X11.1243 Y-8.9992
G01 X11.1335 Y-9.0164
G01 X11.1392 Y-9.0352
G01 X11.1412 Y-9.0547
G00 Z2.0000
G00 X11.0661 Y-9.0547
G01 F70.00
G01 Z-0.0900
G01 F120.00
G01 X11.0642 Y-9.0642
G01 X11.0588 Y-9.0723
G01 X11.0507 Y-9.0777
G01 X11.0412 Y-9.0796
G01 X11.0317 Y-9.0777
G01 X11.0236 Y-9.0723
G01 X11.0182 Y-9.0642
G01 X11.0163 Y-9.0547
G01 X11.0182 Y-9.0452
G01 X11.0236 Y-9.0371
G01 X11.0317 Y-9.0317
G01 X11.0412 Y-9.0298
G01 X11.0507 Y-9.0317
G01 X11.0588 Y-9.0371
G01 X11.0642 Y-9.0452
G01 X11.0661 Y-9.0547
G00 Z2.0000
G00 X9.1306 Y-10.3586
G01 F70.00
G01 Z-0.0900
G01 F120.00
G01 X9.1290 Y-10.3905
G01 X9.1243 Y-10.4220
G01 X9.1166 Y-10.4529
G01 X9.1058 Y-10.4830
G01 X9.0922 Y-10.5118
G01 X9.0758 Y-10.5391
G01 X9.0568 Y-10.5648
G01 X9.0354 Y-10.5884
G01 X9.0118 Y-10.6098
G01 X8.9861 Y-10.6288
G01 X8.9588 Y-10.6452
G01 X8.9300 Y-10.6588
G01 X8.8999 Y-10.6696
G01 X8.8690 Y-10.6773
G01 X8.8375 Y-10.6820
G01 X8.8056 Y-10.6836
G01 X8.7737 Y-10.6820
G01 X8.7422 Y-10.6773
G01 X8.7113 Y-10.6696
G01 X8.6812 Y-10.6588
G01 X8.6524 Y-10.6452
G01 X8.6251 Y-10.6288
G01 X8.5994 Y-10.6098
G01 X8.5758 Y-10.5884
G01 X8.5544 Y-10.5648
G01 X8.5354 Y-10.5391
G01 X8.5190 Y-10.5118
G01 X8.5054 Y-10.4830
G01 X8.4946 Y-10.4529
G01 X8.4869 Y-10.4220
G01 X8.4822 Y-10.3905
G01 X8.4806 Y-10.3586
G01 X8.4822 Y-10.3267
G01 X8.4869 Y-10.2952
G01 X8.4946 Y-10.2643
G01 X8.5054 Y-10.2342
G01 X8.5190 Y-10.2054
G01 X8.5354 Y-10.1781
G01 X8.5544 Y-10.1524
G01 X8.5758 Y-10.1288
G01 X8.5994 Y-10.1074
G01 X8.6251 Y-10.0884
G01 X8.6524 Y-10.0720
G01 X8.6812 Y-10.0584
G01 X8.7113 Y-10.0476
G01 X8.7422 Y-10.0399
G01 X8.7737 Y-10.0352
G01 X8.8056 Y-10.0336
G01 X8.8375 Y-10.0352
G01 X8.8690 Y-10.0399
G01 X8.8999 Y-10.0476
G01 X8.9300 Y-10.0584
G01 X8.9588 Y-10.0720
G01 X8.9861 Y-10.0884
G01 X9.0118 Y-10.1074
G01 X9.0354 Y-10.1288
G01 X9.0568 Y-10.1524
G01 X9.0758 Y-10.1781
G01 X9.0922 Y-10.2054
G01 X9.1058 Y-10.2342
G01 X9.1166 Y-10.2643
G01 X9.1243 Y-10.2952
G01 X9.1290 Y-10.3267
G01 X9.1306 Y-10.3586
G00 Z2.0000
G00 X9.0556 Y-10.3586
G01 F70.00
G01 Z-0.0900
G01 F120.00
G01 X9.0544 Y-10.3831
G01 X9.0508 Y-10.4074
G01 X9.0448 Y-10.4312
G01 X9.0365 Y-10.4543
G01 X9.0260 Y-10.4764
G01 X9.0134 Y-10.4975
G01 X8.9988 Y-10.5172
G01 X8.9823 Y-10.5353
G01 X8.9642 Y-10.5518
G01 X8.9445 Y-10.5664
G01 X8.9234 Y-10.5790
G01 X8.9013 Y-10.5895
G01 X8.8782 Y-10.5978
G01 X8.8544 Y-10.6038
G01 X8.8301 Y-10.6074
G01 X8.8056 Y-10.6086
G01 X8.7811 Y-10.6074
G01 X8.7568 Y-10.6038
G01 X8.7330 Y-10.5978
G01 X8.7099 Y-10.5895
G01 X8.6878 Y-10.5790
G01 X8.6667 Y-10.5664
G01 X8.6470 Y-10.5518
G01 X8.6289 Y-10.5353
G01 X8.6124 Y-10.5172
G01 X8.5978 Y-10.4975
G01 X8.5852 Y-10.4764
G01 X8.5747 Y-10.4543
G01 X8.5664 Y-10.4312
G01 X8.5604 Y-10.4074
G01 X8.5568 Y-10.3831
G01 X8.5556 Y-10.3586
G01 X8.5568 Y-10.3341
G01 X8.5604 Y-10.3098
G01 X8.5664 Y-10.2860
G01 X8.5747 Y-10.2629
G01 X8.5852 Y-10.2408
G01 X8.5978 Y-10.2197
G01 X8.6124 Y-10.2000
G01 X8.6289 Y-10.1819
G01 X8.6470 Y-10.1654
G01 X8.6667 Y-10.1508
G01 X8.6878 Y-10.1382
G01 X8.7099 Y-10.1277
G01 X8.7330 Y-10.1194
G01 X8.7568 Y-10.1134
G01 X8.7811 Y-10.1098
G01 X8.8056 Y-10.1086
G01 X8.8301 Y-10.1098
G01 X8.8544 Y-10.1134
G01 X8.8782 Y-10.1194
G01 X8.9013 Y-10.1277
G01 X8.9234 Y-10.1382
G01 X8.9445 Y-10.1508
G01 X8.9642 Y-10.1654
G01 X8.9823 Y-10.1819
G01 X8.9988 Y-10.2000
G01 X9.0134 Y-10.2197
G01 X9.0260 Y-10.2408
G01 X9.0365 Y-10.2629
G01 X9.0448 Y-10.2860
G01 X9.0508 Y-10.3098
G01 X9.0544 Y-10.3341
G01 X9.0556 Y-10.3586
G00 Z2.0000
G00 X8.9805 Y-10.3586
G01 F70.00
G01 Z-0.0900
G01 F120.00
G01 X8.9797 Y-10.3757
G01 X8.9772 Y-10.3927
G01 X8.9730 Y-10.4094
G01 X8.9672 Y-10.4255
G01 X8.9599 Y-10.4411
G01 X8.9511 Y-10.4558
G01 X8.9408 Y-10.4696
G01 X8.9293 Y-10.4823
G01 X8.9166 Y-10.4938
G01 X8.9028 Y-10.5041
G01 X8.8881 Y-10.5129
G01 X8.8725 Y-10.5202
G01 X8.8564 Y-10.5260
G01 X8.8397 Y-10.5302
G01 X8.8227 Y-10.5327
G01 X8.8056 Y-10.5335
G01 X8.7885 Y-10.5327
G01 X8.7715 Y-10.5302
G01 X8.7548 Y-10.5260
G01 X8.7387 Y-10.5202
G01 X8.7231 Y-10.5129
G01 X8.7084 Y-10.5041
G01 X8.6946 Y-10.4938
G01 X8.6819 Y-10.4823
G01 X8.6704 Y-10.4696
G01 X8.6601 Y-10.4558
G01 X8.6513 Y-10.4411
G01 X8.6440 Y-10.4255
G01 X8.6382 Y-10.4094
G01 X8.6340 Y-10.3927
G01 X8.6315 Y-10.3757
G01 X8.6307 Y-10.3586
G01 X8.6315 Y-10.3415
G01 X8.6340 Y-10.3245
G01 X8.6382 Y-10.3078
G01 X8.6440 Y-10.2917
G01 X8.6513 Y-10.2761
G01 X8.6601 Y-10.2614
G01 X8.6704 Y-10.2476
G01 X8.6819 Y-10.2349
G01 X8.6946 Y-10.2234
G01 X8.7084 Y-10.2131
G01 X8.7231 Y-10.2043
G01 X8.7387 Y-10.1970
G01 X8.7548 Y-10.1912
G01 X8.7715 Y-10.1870
G01 X8.7885 Y-10.1845
G01 X8.8056 Y-10.1837
G01 X8.8227 Y-10.1845
G01 X8.8397 Y-10.1870
G01 X8.8564 Y-10.1912
G01 X8.8725 Y-10.1970
G01 X8.8881 Y-10.2043
G01 X8.9028 Y-10.2131
G01 X8.9166 Y-10.2234
G01 X8.9293 Y-10.2349
G01 X8.9408 Y-10.2476
G01 X8.9511 Y-10.2614
G01 X8.9599 Y-10.2761
G01 X8.9672 Y-10.2917
G01 X8.9730 Y-10.3078
G01 X8.9772 Y-10.3245
G01 X8.9797 Y-10.3415
G01 X8.9805 Y-10.3586
G00 Z2.0000
G00 X8.9055 Y-10.3586
G01 F70.00
G01 Z-0.0900
G01 F120.00
G01 X8.9036 Y-10.3781
G01 X8.8979 Y-10.3968
G01 X8.8887 Y-10.4141
G01 X8.8762 Y-10.4292
G01 X8.8611 Y-10.4417
G01 X8.8438 Y-10.4509
G01 X8.8251 Y-10.4566
G01 X8.8056 Y-10.4585
G01 X8.7861 Y-10.4566
G01 X8.7674 Y-10.4509
G01 X8.7501 Y-10.4417
G01 X8.7350 Y-10.4292
G01 X8.7225 Y-10.4141
G01 X8.7133 Y-10.3968
G01 X8.7076 Y-10.3781
G01 X8.7057 Y-10.3586
G01 X8.7076 Y-10.3391
G01 X8.7133 Y-10.3204
G01 X8.7225 Y-10.3031
G01 X8.7350 Y-10.2880
G01 X8.7501 Y-10.2755
G01 X8.7674 Y-10.2663
G01 X8.7861 Y-10.2606
G01 X8.8056 Y-10.2587
G01 X8.8251 Y-10.2606
G01 X8.8438 Y-10.2663
G01 X8.8611 Y-10.2755
G01 X8.8762 Y-10.2880
G01 X8.8887 Y-10.3031
G01 X8.8979 Y-10.3204
G01 X8.9036 Y-10.3391
G01 X8.9055 Y-10.3586
G00 Z2.0000
G00 X7.1994 Y-10.7087
G01 F70.00
G01 Z-0.0900
G01 F120.00
G01 X7.1994 Y-11.2835
G01 X5.6494 Y-11.2835
G01 X5.6494 Y-9.4335
G01 X7.1994 Y-9.4335
G01 X7.1999 Y-10.0166
G01 X7.2024 Y-10.0292
G01 X7.2070 Y-10.0412
G01 X7.2136 Y-10.0523
G01 X7.2227 Y-10.0626
G01 X7.2335 Y-10.0712
G01 X7.2449 Y-10.0773
G01 X7.2580 Y-10.0815
G01 X7.2707 Y-10.0832
G01 X7.8701 Y-10.0833
G01 X7.8848 Y-10.0817
G01 X7.8996 Y-10.0769
G01 X7.9093 Y-10.0717
G01 X7.9189 Y-10.0645
G01 X7.9272 Y-10.0559
G01 X7.9335 Y-10.0469
G01 X7.9382 Y-10.0379
G01 X7.9510 Y-10.0046
G01 X7.9694 Y-9.9631
G01 X7.9898 Y-9.9226
G01 X8.0122 Y-9.8831
G01 X8.0365 Y-9.8447
G01 X8.0627 Y-9.8076
G01 X8.0906 Y-9.7718
G01 X8.1202 Y-9.7374
G01 X8.1515 Y-9.7045
G01 X8.1844 Y-9.6732
G01 X8.2188 Y-9.6436
G01 X8.2546 Y-9.6157
G01 X8.2917 Y-9.5895
G01 X8.3301 Y-9.5652
G01 X8.3696 Y-9.5428
G01 X8.4101 Y-9.5224
G01 X8.4516 Y-9.5040
G01 X8.4940 Y-9.4877
G01 X8.5371 Y-9.4735
G01 X8.5808 Y-9.4613
G01 X8.6251 Y-9.4514
G01 X8.6699 Y-9.4436
G01 X8.7149 Y-9.4381
G01 X8.7602 Y-9.4347
G01 X8.8056 Y-9.4336
G01 X8.8510 Y-9.4347
G01 X8.8963 Y-9.4381
G01 X8.9413 Y-9.4436
G01 X8.9861 Y-9.4514
G01 X9.0304 Y-9.4613
G01 X9.0741 Y-9.4735
G01 X9.1172 Y-9.4877
G01 X9.1596 Y-9.5040
G01 X9.2011 Y-9.5224
G01 X9.2416 Y-9.5428
G01 X9.2811 Y-9.5652
G01 X9.3195 Y-9.5895
G01 X9.3566 Y-9.6157
G01 X9.3924 Y-9.6436
G01 X9.4268 Y-9.6732
G01 X9.4597 Y-9.7045
G01 X9.4910 Y-9.7374
G01 X9.5206 Y-9.7718
G01 X9.5485 Y-9.8076
G01 X9.5747 Y-9.8447
G01 X9.5990 Y-9.8831
G01 X9.6214 Y-9.9226
G01 X9.6418 Y-9.9631
G01 X9.6602 Y-10.0046
G01 X9.6734 Y-10.0387
G01 X9.6807 Y-10.0515
G01 X9.6916 Y-10.0639
G01 X9.7042 Y-10.0731
G01 X9.7193 Y-10.0798
G01 X9.7355 Y-10.0830
G01 X10.2984 Y-10.0833
G01 X10.3085 Y-10.0825
G01 X10.3175 Y-10.0806
G01 X10.3262 Y-10.0776
G01 X10.3345 Y-10.0736
G01 X10.3422 Y-10.0686
G01 X10.3485 Y-10.0633
G01 X10.3543 Y-10.0573
G01 X10.3599 Y-10.0500
G01 X10.3641 Y-10.0429
G01 X10.3678 Y-10.0345
G01 X10.3705 Y-10.0257
G01 X10.3720 Y-10.0166
G01 X10.3725 Y-9.7235
G01 X11.8425 Y-9.7235
G01 X11.8425 Y-10.9935
G01 X10.3725 Y-10.9935
G01 X10.3720 Y-10.7004
G01 X10.3705 Y-10.6913
G01 X10.3678 Y-10.6825
G01 X10.3641 Y-10.6741
G01 X10.3599 Y-10.6670
G01 X10.3549 Y-10.6604
G01 X10.3485 Y-10.6537
G01 X10.3422 Y-10.6484
G01 X10.3345 Y-10.6434
G01 X10.3262 Y-10.6394
G01 X10.3175 Y-10.6364
G01 X10.3085 Y-10.6345
G01 X10.2984 Y-10.6337
G01 X9.7347 Y-10.6340
G01 X9.7194 Y-10.6372
G01 X9.7043 Y-10.6439
G01 X9.6910 Y-10.6537
G01 X9.6802 Y-10.6662
G01 X9.6735 Y-10.6783
G01 X9.6602 Y-10.7126
G01 X9.6418 Y-10.7541
G01 X9.6214 Y-10.7946
G01 X9.5990 Y-10.8341
G01 X9.5747 Y-10.8725
G01 X9.5485 Y-10.9096
G01 X9.5206 Y-10.9454
G01 X9.4910 Y-10.9798
G01 X9.4597 Y-11.0127
G01 X9.4268 Y-11.0440
G01 X9.3924 Y-11.0736
G01 X9.3566 Y-11.1015
G01 X9.3195 Y-11.1277
G01 X9.2811 Y-11.1520
G01 X9.2416 Y-11.1744
G01 X9.2011 Y-11.1948
G01 X9.1596 Y-11.2132
G01 X9.1172 Y-11.2295
G01 X9.0741 Y-11.2437
G01 X9.0304 Y-11.2559
G01 X8.9861 Y-11.2658
G01 X8.9413 Y-11.2736
G01 X8.8963 Y-11.2791
G01 X8.8510 Y-11.2825
G01 X8.8056 Y-11.2836
G01 X8.7602 Y-11.2825
G01 X8.7149 Y-11.2791
G01 X8.6699 Y-11.2736
G01 X8.6251 Y-11.2658
G01 X8.5808 Y-11.2559
G01 X8.5371 Y-11.2437
G01 X8.4940 Y-11.2295
G01 X8.4516 Y-11.2132
G01 X8.4101 Y-11.1948
G01 X8.3696 Y-11.1744
G01 X8.3301 Y-11.1520
G01 X8.2917 Y-11.1277
G01 X8.2546 Y-11.1015
G01 X8.2188 Y-11.0736
G01 X8.1844 Y-11.0440
G01 X8.1515 Y-11.0127
G01 X8.1202 Y-10.9798
G01 X8.0906 Y-10.9454
G01 X8.0627 Y-10.9096
G01 X8.0365 Y-10.8725
G01 X8.0122 Y-10.8341
G01 X7.9898 Y-10.7946
G01 X7.9694 Y-10.7541
G01 X7.9510 Y-10.7126
G01 X7.9381 Y-10.6791
G01 X7.9330 Y-10.6693
G01 X7.9253 Y-10.6590
G01 X7.9167 Y-10.6507
G01 X7.9061 Y-10.6434
G01 X7.8953 Y-10.6384
G01 X7.8829 Y-10.6349
G01 X7.8701 Y-10.6337
G01 X7.2670 Y-10.6340
G01 X7.2535 Y-10.6366
G01 X7.2407 Y-10.6417
G01 X7.2290 Y-10.6490
G01 X7.2188 Y-10.6583
G01 X7.2105 Y-10.6693
G01 X7.2044 Y-10.6817
G01 X7.2007 Y-10.6949
G01 X7.1994 Y-10.7087
G00 Z2.0000
G00 X7.1494 Y-10.5836
G01 F70.00
G01 Z-0.0900
G01 F120.00
G01 X7.9602 Y-10.5836
G01 X7.9683 Y-10.6126
G01 X7.9817 Y-10.6534
G01 X7.9972 Y-10.6934
G01 X8.0142 Y-10.7319
G01 X8.0348 Y-10.7727
G01 X8.0551 Y-10.8084
G01 X8.0776 Y-10.8440
G01 X8.1039 Y-10.8813
G01 X8.1292 Y-10.9137
G01 X8.1573 Y-10.9462
G01 X8.1882 Y-10.9786
G01 X8.2180 Y-11.0069
G01 X8.2498 Y-11.0344
G01 X8.2859 Y-11.0625
G01 X8.3195 Y-11.0861
G01 X8.3558 Y-11.1091
G01 X8.3948 Y-11.1311
G01 X8.4315 Y-11.1496
G01 X8.4708 Y-11.1670
G01 X8.5108 Y-11.1825
G01 X8.5498 Y-11.1954
G01 X8.5930 Y-11.2074
G01 X8.6349 Y-11.2168
G01 X8.6754 Y-11.2238
G01 X8.7217 Y-11.2295
G01 X8.7627 Y-11.2325
G01 X8.8056 Y-11.2336
G01 X8.8485 Y-11.2325
G01 X8.8895 Y-11.2295
G01 X8.9358 Y-11.2238
G01 X8.9763 Y-11.2168
G01 X9.0182 Y-11.2074
G01 X9.0596 Y-11.1959
G01 X9.1004 Y-11.1825
G01 X9.1404 Y-11.1670
G01 X9.1780 Y-11.1504
G01 X9.2197 Y-11.1294
G01 X9.2554 Y-11.1091
G01 X9.2925 Y-11.0856
G01 X9.3268 Y-11.0614
G01 X9.3607 Y-11.0350
G01 X9.3932 Y-11.0069
G01 X9.4230 Y-10.9786
G01 X9.4552 Y-10.9448
G01 X9.4820 Y-10.9137
G01 X9.5090 Y-10.8791
G01 X9.5331 Y-10.8447
G01 X9.5561 Y-10.8084
G01 X9.5773 Y-10.7711
G01 X9.5962 Y-10.7335
G01 X9.6140 Y-10.6934
G01 X9.6291 Y-10.6542
G01 X9.6429 Y-10.6126
G01 X9.6510 Y-10.5836
G01 X10.4225 Y-10.5836
G01 X10.4225 Y-10.8685
G01 X10.4236 Y-10.8813
G01 X10.4263 Y-10.8920
G01 X10.4309 Y-10.9030
G01 X10.4373 Y-10.9132
G01 X10.4445 Y-10.9215
G01 X10.4528 Y-10.9287
G01 X10.4630 Y-10.9351
G01 X10.4740 Y-10.9397
G01 X10.4847 Y-10.9424
G01 X10.4975 Y-10.9435
G01 X11.7175 Y-10.9435
G01 X11.7294 Y-10.9425
G01 X11.7419 Y-10.9394
G01 X11.7537 Y-10.9342
G01 X11.7636 Y-10.9276
G01 X11.7731 Y-10.9189
G01 X11.7809 Y-10.9086
G01 X11.7864 Y-10.8980
G01 X11.7905 Y-10.8858
G01 X11.7924 Y-10.8731
G01 X11.7925 Y-9.8485
G01 X11.7915 Y-9.8366
G01 X11.7884 Y-9.8241
G01 X11.7832 Y-9.8123
G01 X11.7761 Y-9.8016
G01 X11.7672 Y-9.7923
G01 X11.7576 Y-9.7851
G01 X11.7462 Y-9.7792
G01 X11.7339 Y-9.7753
G01 X11.7212 Y-9.7736
G01 X10.4975 Y-9.7735
G01 X10.4874 Y-9.7742
G01 X10.4757 Y-9.7767
G01 X10.4654 Y-9.7807
G01 X10.4551 Y-9.7867
G01 X10.4458 Y-9.7942
G01 X10.4378 Y-9.8031
G01 X10.4318 Y-9.8123
G01 X10.4269 Y-9.8232
G01 X10.4238 Y-9.8348
G01 X10.4225 Y-9.8485
G01 X10.4225 Y-10.1334
G01 X9.6509 Y-10.1334
G01 X9.6429 Y-10.1046
G01 X9.6295 Y-10.0638
G01 X9.6140 Y-10.0238
G01 X9.5970 Y-9.9853
G01 X9.5773 Y-9.9461
G01 X9.5570 Y-9.9104
G01 X9.5326 Y-9.8717
G01 X9.5084 Y-9.8374
G01 X9.4820 Y-9.8035
G01 X9.4539 Y-9.7710
G01 X9.4256 Y-9.7412
G01 X9.3918 Y-9.7090
G01 X9.3607 Y-9.6822
G01 X9.3261 Y-9.6552
G01 X9.2917 Y-9.6311
G01 X9.2554 Y-9.6081
G01 X9.2181 Y-9.5869
G01 X9.1814 Y-9.5684
G01 X9.1387 Y-9.5495
G01 X9.1004 Y-9.5347
G01 X9.0596 Y-9.5213
G01 X9.0182 Y-9.5098
G01 X8.9763 Y-9.5004
G01 X8.9340 Y-9.4931
G01 X8.8932 Y-9.4880
G01 X8.8467 Y-9.4846
G01 X8.8056 Y-9.4836
G01 X8.7617 Y-9.4847
G01 X8.7198 Y-9.4878
G01 X8.6790 Y-9.4928
G01 X8.6331 Y-9.5008
G01 X8.5930 Y-9.5098
G01 X8.5516 Y-9.5213
G01 X8.5108 Y-9.5347
G01 X8.4725 Y-9.5495
G01 X8.4298 Y-9.5684
G01 X8.3931 Y-9.5869
G01 X8.3558 Y-9.6081
G01 X8.3180 Y-9.6321
G01 X8.2844 Y-9.6558
G01 X8.2512 Y-9.6816
G01 X8.2166 Y-9.7115
G01 X8.1869 Y-9.7399
G01 X8.1573 Y-9.7710
G01 X8.1292 Y-9.8035
G01 X8.1039 Y-9.8359
G01 X8.0776 Y-9.8732
G01 X8.0551 Y-9.9088
G01 X8.0348 Y-9.9445
G01 X8.0142 Y-9.9853
G01 X7.9972 Y-10.0238
G01 X7.9817 Y-10.0638
G01 X7.9683 Y-10.1046
G01 X7.9603 Y-10.1334
G01 X7.1494 Y-10.1334
G01 X7.1492 Y-9.5530
G01 X7.1478 Y-9.5430
G01 X7.1450 Y-9.5332
G01 X7.1410 Y-9.5240
G01 X7.1357 Y-9.5153
G01 X7.1293 Y-9.5075
G01 X7.1213 Y-9.4999
G01 X7.1130 Y-9.4942
G01 X7.1039 Y-9.4896
G01 X7.0899 Y-9.4851
G01 X7.0744 Y-9.4835
G01 X5.7735 Y-9.4835
G01 X5.7652 Y-9.4841
G01 X5.7562 Y-9.4857
G01 X5.7474 Y-9.4885
G01 X5.7399 Y-9.4919
G01 X5.7261 Y-9.5011
G01 X5.7195 Y-9.5075
G01 X5.7142 Y-9.5138
G01 X5.7078 Y-9.5240
G01 X5.7032 Y-9.5350
G01 X5.7004 Y-9.5466
G01 X5.6994 Y-9.5576
G01 X5.6994 Y-11.1594
G01 X5.7000 Y-11.1677
G01 X5.7016 Y-11.1767
G01 X5.7044 Y-11.1855
G01 X5.7078 Y-11.1930
G01 X5.7170 Y-11.2068
G01 X5.7227 Y-11.2128
G01 X5.7297 Y-11.2187
G01 X5.7399 Y-11.2251
G01 X5.7509 Y-11.2297
G01 X5.7625 Y-11.2325
G01 X5.7744 Y-11.2335
G01 X7.0744 Y-11.2335
G01 X7.0899 Y-11.2319
G01 X7.1048 Y-11.2271
G01 X7.1137 Y-11.2224
G01 X7.1220 Y-11.2165
G01 X7.1293 Y-11.2095
G01 X7.1357 Y-11.2017
G01 X7.1410 Y-11.1930
G01 X7.1450 Y-11.1838
G01 X7.1478 Y-11.1740
G01 X7.1492 Y-11.1640
G01 X7.1494 Y-10.5836
G00 Z2.0000
G00 X5.2994 Y-11.2834
G01 F70.00
G01 Z-0.0900
G01 F120.00
G01 X4.8160 Y-11.2834
G01 X4.8160 Y-11.2334
G01 X5.1753 Y-11.2334
G01 X5.1854 Y-11.2326
G01 X5.1953 Y-11.2304
G01 X5.2065 Y-11.2262
G01 X5.2168 Y-11.2202
G01 X5.2261 Y-11.2127
G01 X5.2341 Y-11.2038
G01 X5.2410 Y-11.1929
G01 X5.2456 Y-11.1819
G01 X5.2484 Y-11.1703
G01 X5.2494 Y-11.1584
G01 X5.2494 Y-9.5584
G01 X5.2488 Y-9.5492
G01 X5.2472 Y-9.5402
G01 X5.2437 Y-9.5297
G01 X5.2387 Y-9.5198
G01 X5.2324 Y-9.5108
G01 X5.2241 Y-9.5022
G01 X5.2153 Y-9.4955
G01 X5.2056 Y-9.4902
G01 X5.1953 Y-9.4864
G01 X5.1845 Y-9.4841
G01 X5.1744 Y-9.4834
G01 X4.8160 Y-9.4834
G01 X4.8160 Y-9.4334
G01 X5.2994 Y-9.4334
G01 X5.2994 Y-11.2834
G00 Z2.0000
G00 X4.2327 Y-11.9734
G01 F70.00
G01 Z-0.0900
G01 F120.00
G01 X4.2327 Y-12.0234
G01 X3.8689 Y-12.0236
G01 X3.8526 Y-12.0266
G01 X3.8382 Y-12.0327
G01 X3.8254 Y-12.0416
G01 X3.8147 Y-12.0530
G01 X3.8083 Y-12.0630
G01 X3.8038 Y-12.0731
G01 X3.8007 Y-12.0847
G01 X3.7994 Y-12.0966
G01 X3.7994 Y-12.6068
G01 X3.7494 Y-12.6068
G01 X3.7494 Y-11.9734
G01 X4.2327 Y-11.9734
G00 Z2.0000
G00 X3.7494 Y-13.1901
G01 F70.00
G01 Z-0.0900
G01 F120.00
G01 X3.7994 Y-13.1901
G01 X3.7994 Y-13.7002
G01 X3.8007 Y-13.7121
G01 X3.8038 Y-13.7237
G01 X3.8083 Y-13.7338
G01 X3.8147 Y-13.7438
G01 X3.8254 Y-13.7552
G01 X3.8382 Y-13.7641
G01 X3.8526 Y-13.7702
G01 X3.8689 Y-13.7732
G01 X4.2327 Y-13.7734
G01 X4.2327 Y-13.8234
G01 X3.7494 Y-13.8234
G01 X3.7494 Y-13.1901
G00 Z2.0000
G00 X4.2327 Y-14.5134
G01 F70.00
G01 Z-0.0900
G01 F120.00
G01 X4.2327 Y-14.5634
G01 X3.8689 Y-14.5636
G01 X3.8526 Y-14.5666
G01 X3.8382 Y-14.5727
G01 X3.8254 Y-14.5816
G01 X3.8147 Y-14.5930
G01 X3.8083 Y-14.6030
G01 X3.8038 Y-14.6131
G01 X3.8007 Y-14.6247
G01 X3.7994 Y-14.6366
G01 X3.7994 Y-15.1468
G01 X3.7494 Y-15.1468
G01 X3.7494 Y-14.5134
G01 X4.2327 Y-14.5134
G00 Z2.0000
G00 X5.2994 Y-13.8234
G01 F70.00
G01 Z-0.0900
G01 F120.00
G01 X4.8160 Y-13.8234
G01 X4.8160 Y-13.7734
G01 X5.1753 Y-13.7734
G01 X5.1854 Y-13.7726
G01 X5.1953 Y-13.7704
G01 X5.2065 Y-13.7662
G01 X5.2168 Y-13.7602
G01 X5.2261 Y-13.7527
G01 X5.2341 Y-13.7438
G01 X5.2410 Y-13.7329
G01 X5.2456 Y-13.7219
G01 X5.2484 Y-13.7103
G01 X5.2494 Y-13.6984
G01 X5.2494 Y-12.0984
G01 X5.2488 Y-12.0892
G01 X5.2472 Y-12.0802
G01 X5.2437 Y-12.0697
G01 X5.2387 Y-12.0598
G01 X5.2324 Y-12.0508
G01 X5.2241 Y-12.0422
G01 X5.2153 Y-12.0355
G01 X5.2056 Y-12.0302
G01 X5.1953 Y-12.0264
G01 X5.1845 Y-12.0241
G01 X5.1744 Y-12.0234
G01 X4.8160 Y-12.0234
G01 X4.8160 Y-11.9734
G01 X5.2994 Y-11.9734
G01 X5.2994 Y-13.8234
G00 Z2.0000
G00 X3.7494 Y-15.7301
G01 F70.00
G01 Z-0.0900
G01 F120.00
G01 X3.7994 Y-15.7301
G01 X3.7994 Y-16.2402
G01 X3.8007 Y-16.2521
G01 X3.8038 Y-16.2637
G01 X3.8087 Y-16.2746
G01 X3.8147 Y-16.2838
G01 X3.8261 Y-16.2958
G01 X3.8390 Y-16.3045
G01 X3.8535 Y-16.3104
G01 X3.8689 Y-16.3132
G01 X4.2327 Y-16.3134
G01 X4.2327 Y-16.3634
G01 X3.7494 Y-16.3634
G01 X3.7494 Y-15.7301
G00 Z2.0000
G00 X4.2327 Y-17.0534
G01 F70.00
G01 Z-0.0900
G01 F120.00
G01 X4.2327 Y-17.1034
G01 X3.8689 Y-17.1036
G01 X3.8535 Y-17.1064
G01 X3.8390 Y-17.1123
G01 X3.8261 Y-17.1210
G01 X3.8147 Y-17.1330
G01 X3.8087 Y-17.1422
G01 X3.8038 Y-17.1531
G01 X3.8007 Y-17.1647
G01 X3.7994 Y-17.1766
G01 X3.7994 Y-17.6868
G01 X3.7494 Y-17.6868
G01 X3.7494 Y-17.0534
G01 X4.2327 Y-17.0534
G00 Z2.0000
G00 X5.2994 Y-16.3634
G01 F70.00
G01 Z-0.0900
G01 F120.00
G01 X4.8160 Y-16.3634
G01 X4.8160 Y-16.3134
G01 X5.1753 Y-16.3134
G01 X5.1854 Y-16.3126
G01 X5.1953 Y-16.3104
G01 X5.2065 Y-16.3062
G01 X5.2168 Y-16.3002
G01 X5.2261 Y-16.2927
G01 X5.2341 Y-16.2838
G01 X5.2405 Y-16.2738
G01 X5.2453 Y-16.2628
G01 X5.2484 Y-16.2503
G01 X5.2494 Y-16.2384
G01 X5.2494 Y-14.6384
G01 X5.2488 Y-14.6292
G01 X5.2472 Y-14.6202
G01 X5.2437 Y-14.6097
G01 X5.2387 Y-14.5998
G01 X5.2324 Y-14.5908
G01 X5.2241 Y-14.5822
G01 X5.2153 Y-14.5755
G01 X5.2056 Y-14.5702
G01 X5.1953 Y-14.5664
G01 X5.1845 Y-14.5641
G01 X5.1744 Y-14.5634
G01 X4.8160 Y-14.5634
G01 X4.8160 Y-14.5134
G01 X5.2994 Y-14.5134
G01 X5.2994 Y-16.3634
G00 Z2.0000
G00 X7.1994 Y-16.3635
G01 F70.00
G01 Z-0.0900
G01 F120.00
G01 X5.6494 Y-16.3635
G01 X5.6494 Y-14.5135
G01 X7.1994 Y-14.5135
G01 X7.1999 Y-15.0966
G01 X7.2024 Y-15.1092
G01 X7.2070 Y-15.1212
G01 X7.2136 Y-15.1323
G01 X7.2227 Y-15.1426
G01 X7.2335 Y-15.1512
G01 X7.2449 Y-15.1573
G01 X7.2580 Y-15.1615
G01 X7.2707 Y-15.1632
G01 X7.8701 Y-15.1633
G01 X7.8848 Y-15.1617
G01 X7.8996 Y-15.1569
G01 X7.9093 Y-15.1517
G01 X7.9189 Y-15.1445
G01 X7.9272 Y-15.1359
G01 X7.9335 Y-15.1269
G01 X7.9382 Y-15.1179
G01 X7.9510 Y-15.0846
G01 X7.9694 Y-15.0431
G01 X7.9898 Y-15.0026
G01 X8.0122 Y-14.9631
G01 X8.0365 Y-14.9247
G01 X8.0627 Y-14.8876
G01 X8.0906 Y-14.8518
G01 X8.1202 Y-14.8174
G01 X8.1515 Y-14.7845
G01 X8.1844 Y-14.7532
G01 X8.2188 Y-14.7236
G01 X8.2546 Y-14.6957
G01 X8.2917 Y-14.6695
G01 X8.3301 Y-14.6452
G01 X8.3696 Y-14.6228
G01 X8.4101 Y-14.6024
G01 X8.4516 Y-14.5840
G01 X8.4940 Y-14.5677
G01 X8.5371 Y-14.5535
G01 X8.5808 Y-14.5413
G01 X8.6251 Y-14.5314
G01 X8.6699 Y-14.5236
G01 X8.7149 Y-14.5181
G01 X8.7602 Y-14.5147
G01 X8.8056 Y-14.5136
G01 X8.8510 Y-14.5147
G01 X8.8963 Y-14.5181
G01 X8.9413 Y-14.5236
G01 X8.9861 Y-14.5314
G01 X9.0304 Y-14.5413
G01 X9.0741 Y-14.5535
G01 X9.1172 Y-14.5677
G01 X9.1596 Y-14.5840
G01 X9.2011 Y-14.6024
G01 X9.2416 Y-14.6228
G01 X9.2811 Y-14.6452
G01 X9.3195 Y-14.6695
G01 X9.3566 Y-14.6957
G01 X9.3924 Y-14.7236
G01 X9.4268 Y-14.7532
G01 X9.4597 Y-14.7845
G01 X9.4910 Y-14.8174
G01 X9.5206 Y-14.8518
G01 X9.5485 Y-14.8876
G01 X9.5747 Y-14.9247
G01 X9.5990 Y-14.9631
G01 X9.6214 Y-15.0026
G01 X9.6418 Y-15.0431
G01 X9.6602 Y-15.0846
G01 X9.6734 Y-15.1187
G01 X9.6807 Y-15.1315
G01 X9.6916 Y-15.1439
G01 X9.7042 Y-15.1531
G01 X9.7193 Y-15.1598
G01 X9.7355 Y-15.1630
G01 X10.2984 Y-15.1633
G01 X10.3085 Y-15.1625
G01 X10.3175 Y-15.1606
G01 X10.3262 Y-15.1576
G01 X10.3345 Y-15.1536
G01 X10.3422 Y-15.1486
